;FLAVOR:Marlin
;TIME:856
;Filament used: 0.691898m
;Layer height: 0.2
;MINX:-20.683
;MINY:-20.683
;MINZ:0.3
;MAXX:20.683
;MAXY:20.683
;MAXZ:7.1
;Generated with Cura_SteamEngine 5.2.1
M140 S60
M105
M190 S60
M104 S210
M105
M109 S210
M82 ;absolute extrusion mode
G28 ;Home
G1 Z15.0 F6000 ;Move the platform down 15mm
;Prime the extruder
G92 E0
G1 F200 E3
G92 E0
M141 S28
G92 E0
G92 E0
;LAYER_COUNT:35
;LAYER:0
M107
G0 F3600 X4.575 Y-20.011 Z0.3
;TYPE:SKIRT
G1 F1800 X5.111 Y-19.972 E0.02681
G1 X5.889 Y-19.835 E0.06622
G1 X6.649 Y-19.621 E0.10561
G1 X7.131 Y-19.439 E0.13132
G1 X7.914 Y-19.115 E0.1736
G1 X8.628 Y-18.777 E0.21301
G1 X9.303 Y-18.368 E0.25238
G1 X9.597 Y-18.147 E0.27073
G1 X10.098 Y-17.973 E0.29719
G1 X10.814 Y-17.64 E0.33659
G1 X11.493 Y-17.237 E0.37598
G1 X11.925 Y-16.928 E0.40248
G1 X12.598 Y-16.411 E0.44482
G1 X13.199 Y-15.898 E0.48424
G1 X13.745 Y-15.328 E0.52362
G1 X13.967 Y-15.044 E0.5416
G1 X14.407 Y-14.745 E0.56814
G1 X15.013 Y-14.238 E0.60756
G1 X15.564 Y-13.673 E0.64694
G1 X15.903 Y-13.259 E0.67363
G1 X16.418 Y-12.586 E0.71591
G1 X16.866 Y-11.936 E0.75529
G1 X17.245 Y-11.243 E0.7947
G1 X17.382 Y-10.92 E0.81221
G1 X17.736 Y-10.51 E0.83923
G1 X18.189 Y-9.863 E0.87863
G1 X18.575 Y-9.174 E0.91804
G1 X18.791 Y-8.697 E0.94416
G1 X19.115 Y-7.914 E0.98644
G1 X19.38 Y-7.17 E1.02584
G1 X19.568 Y-6.403 E1.06524
G1 X19.618 Y-6.045 E1.08327
G1 X19.852 Y-5.561 E1.11009
G1 X20.122 Y-4.819 E1.14948
G1 X20.316 Y-4.053 E1.18891
G1 X20.401 Y-3.544 E1.21465
G1 X20.512 Y-2.704 E1.25693
G1 X20.575 Y-1.917 E1.29631
G1 X20.559 Y-1.127 E1.33574
G1 X20.514 Y-.758 E1.35428
G1 X20.613 Y-.242 E1.38049
G1 X20.683 Y0.544 E1.41986
G1 X20.673 Y1.334 E1.45928
G1 X20.623 Y1.853 E1.48529
G1 X20.513 Y2.694 E1.52761
G1 X20.371 Y3.47 E1.56697
G1 X20.151 Y4.229 E1.60639
G1 X20.011 Y4.575 E1.62501
G1 X19.972 Y5.111 E1.65182
G1 X19.835 Y5.889 E1.69124
G1 X19.621 Y6.649 E1.73063
G1 X19.439 Y7.131 E1.75633
G1 X19.115 Y7.914 E1.79861
G1 X18.777 Y8.628 E1.83802
G1 X18.368 Y9.303 E1.87739
G1 X18.147 Y9.597 E1.89574
G1 X17.973 Y10.098 E1.9222
G1 X17.64 Y10.814 E1.9616
G1 X17.237 Y11.493 E2.00099
G1 X16.928 Y11.925 E2.02749
G1 X16.411 Y12.598 E2.06983
G1 X15.898 Y13.199 E2.10925
G1 X15.328 Y13.745 E2.14863
G1 X15.044 Y13.967 E2.16661
G1 X14.745 Y14.407 E2.19316
G1 X14.238 Y15.013 E2.23257
G1 X13.673 Y15.564 E2.27195
G1 X13.259 Y15.903 E2.29864
G1 X12.586 Y16.418 E2.34092
G1 X11.936 Y16.866 E2.38031
G1 X11.243 Y17.245 E2.41971
G1 X10.92 Y17.382 E2.43722
G1 X10.51 Y17.736 E2.46424
G1 X9.863 Y18.189 E2.50365
G1 X9.174 Y18.575 E2.54305
G1 X8.697 Y18.791 E2.56917
G1 X7.914 Y19.115 E2.61145
G1 X7.17 Y19.38 E2.65085
G1 X6.403 Y19.568 E2.69025
G1 X6.045 Y19.618 E2.70828
G1 X5.561 Y19.852 E2.7351
G1 X4.819 Y20.122 E2.7745
G1 X4.053 Y20.316 E2.81392
G1 X3.544 Y20.401 E2.83967
G1 X2.704 Y20.512 E2.88194
G1 X1.917 Y20.575 E2.92133
G1 X1.127 Y20.559 E2.96075
G1 X0.758 Y20.514 E2.97929
G1 X0.242 Y20.613 E3.00551
G1 X-.544 Y20.683 E3.04488
G1 X-1.334 Y20.673 E3.08429
G1 X-1.853 Y20.623 E3.1103
G1 X-2.694 Y20.513 E3.15262
G1 X-3.47 Y20.371 E3.19198
G1 X-4.229 Y20.151 E3.2314
G1 X-4.575 Y20.011 E3.25002
G1 X-5.111 Y19.972 E3.27684
G1 X-5.889 Y19.835 E3.31625
G1 X-6.649 Y19.621 E3.35564
G1 X-7.131 Y19.439 E3.38134
G1 X-7.914 Y19.115 E3.42362
G1 X-8.628 Y18.777 E3.46303
G1 X-9.303 Y18.368 E3.50241
G1 X-9.597 Y18.147 E3.52076
G1 X-10.098 Y17.973 E3.54722
G1 X-10.814 Y17.64 E3.58661
G1 X-11.493 Y17.237 E3.626
G1 X-11.925 Y16.928 E3.6525
G1 X-12.598 Y16.411 E3.69484
G1 X-13.199 Y15.898 E3.73426
G1 X-13.745 Y15.328 E3.77364
G1 X-13.967 Y15.044 E3.79163
G1 X-14.407 Y14.745 E3.81817
G1 X-15.013 Y14.238 E3.85759
G1 X-15.564 Y13.673 E3.89696
G1 X-15.903 Y13.259 E3.92366
G1 X-16.418 Y12.586 E3.96593
G1 X-16.866 Y11.936 E4.00532
G1 X-17.245 Y11.243 E4.04473
G1 X-17.382 Y10.92 E4.06223
G1 X-17.736 Y10.51 E4.08925
G1 X-18.189 Y9.863 E4.12866
G1 X-18.575 Y9.174 E4.16806
G1 X-18.791 Y8.697 E4.19418
G1 X-19.115 Y7.914 E4.23646
G1 X-19.38 Y7.17 E4.27586
G1 X-19.568 Y6.403 E4.31526
G1 X-19.618 Y6.045 E4.3333
G1 X-19.852 Y5.561 E4.36012
G1 X-20.122 Y4.819 E4.39951
G1 X-20.316 Y4.053 E4.43893
G1 X-20.401 Y3.544 E4.46468
G1 X-20.512 Y2.704 E4.50695
G1 X-20.575 Y1.917 E4.54634
G1 X-20.559 Y1.127 E4.58576
G1 X-20.514 Y0.758 E4.60431
G1 X-20.613 Y0.242 E4.63052
G1 X-20.683 Y-.544 E4.66989
G1 X-20.673 Y-1.334 E4.7093
G1 X-20.623 Y-1.853 E4.73532
G1 X-20.513 Y-2.694 E4.77763
G1 X-20.371 Y-3.47 E4.81699
G1 X-20.151 Y-4.229 E4.85641
G1 X-20.011 Y-4.575 E4.87504
G1 X-19.972 Y-5.111 E4.90185
G1 X-19.835 Y-5.889 E4.94126
G1 X-19.621 Y-6.649 E4.98065
G1 X-19.439 Y-7.131 E5.00636
G1 X-19.115 Y-7.914 E5.04863
G1 X-18.777 Y-8.628 E5.08804
G1 X-18.368 Y-9.303 E5.12742
G1 X-18.147 Y-9.597 E5.14577
G1 X-17.973 Y-10.098 E5.17223
G1 X-17.64 Y-10.814 E5.21162
G1 X-17.237 Y-11.493 E5.25102
G1 X-16.928 Y-11.925 E5.27751
G1 X-16.411 Y-12.598 E5.31985
G1 X-15.898 Y-13.199 E5.35928
G1 X-15.328 Y-13.745 E5.39866
G1 X-15.044 Y-13.967 E5.41664
G1 X-14.745 Y-14.407 E5.44318
G1 X-14.238 Y-15.013 E5.4826
G1 X-13.673 Y-15.564 E5.52197
G1 X-13.259 Y-15.903 E5.54867
G1 X-12.586 Y-16.418 E5.59095
G1 X-11.936 Y-16.866 E5.63033
G1 X-11.243 Y-17.245 E5.66974
G1 X-10.92 Y-17.382 E5.68724
G1 X-10.51 Y-17.736 E5.71427
G1 X-9.863 Y-18.189 E5.75367
G1 X-9.174 Y-18.575 E5.79307
G1 X-8.697 Y-18.791 E5.8192
G1 X-7.914 Y-19.115 E5.86147
G1 X-7.17 Y-19.38 E5.90087
G1 X-6.403 Y-19.568 E5.94027
G1 X-6.045 Y-19.618 E5.95831
G1 X-5.561 Y-19.852 E5.98513
G1 X-4.819 Y-20.122 E6.02452
G1 X-4.053 Y-20.316 E6.06394
G1 X-3.544 Y-20.401 E6.08969
G1 X-2.704 Y-20.512 E6.13196
G1 X-1.917 Y-20.575 E6.17135
G1 X-1.127 Y-20.559 E6.21077
G1 X-.758 Y-20.514 E6.22932
G1 X-.242 Y-20.613 E6.25553
G1 X0.544 Y-20.683 E6.2949
G1 X1.334 Y-20.673 E6.33432
G1 X1.853 Y-20.623 E6.36033
G1 X2.694 Y-20.513 E6.40264
G1 X3.47 Y-20.371 E6.442
G1 X4.229 Y-20.151 E6.48143
G1 X4.575 Y-20.011 E6.50005
G0 F3600 X4.467 Y-19.624
G1 F1800 X5.26 Y-19.548 E6.53979
G1 X6.013 Y-19.393 E6.57815
G1 X6.978 Y-19.07 E6.62892
G1 X7.761 Y-18.746 E6.67119
G1 X8.456 Y-18.415 E6.7096
G1 X9.112 Y-18.014 E6.74796
G1 X9.392 Y-17.8 E6.76554
G1 X10.132 Y-17.525 E6.80492
G1 X10.82 Y-17.181 E6.8433
G1 X11.681 Y-16.61 E6.89484
G1 X12.354 Y-16.093 E6.93718
G1 X12.939 Y-15.594 E6.97554
G1 X13.469 Y-15.036 E7.01394
G1 X13.68 Y-14.762 E7.03119
G1 X14.324 Y-14.303 E7.07065
G1 X14.9 Y-13.793 E7.10903
G1 X15.586 Y-13.016 E7.16074
G1 X16.101 Y-12.343 E7.20302
G1 X16.536 Y-11.709 E7.24138
G1 X16.903 Y-11.033 E7.27976
G1 X17.032 Y-10.721 E7.2966
G1 X17.541 Y-10.105 E7.33647
G1 X17.965 Y-9.463 E7.37485
G1 X18.422 Y-8.544 E7.42606
G1 X18.746 Y-7.761 E7.46833
G1 X19.002 Y-7.036 E7.50669
G1 X19.183 Y-6.289 E7.54504
G1 X19.229 Y-5.94 E7.5626
G1 X19.559 Y-5.22 E7.60211
G1 X19.802 Y-4.49 E7.6405
G1 X20.004 Y-3.491 E7.69135
G1 X20.115 Y-2.651 E7.73362
G1 X20.176 Y-1.885 E7.77196
G1 X20.157 Y-1.116 E7.81033
G1 X20.112 Y-.765 E7.82799
G1 X20.242 Y0.012 E7.86729
G1 X20.289 Y0.779 E7.90563
G1 X20.227 Y1.801 E7.95671
G1 X20.117 Y2.642 E7.99903
G1 X19.977 Y3.398 E8.03738
G1 X19.76 Y4.136 E8.07576
G1 X19.624 Y4.467 E8.09361
G1 X19.548 Y5.26 E8.13336
G1 X19.393 Y6.013 E8.17171
G1 X19.07 Y6.978 E8.22248
G1 X18.746 Y7.761 E8.26476
G1 X18.415 Y8.456 E8.30316
G1 X18.014 Y9.112 E8.34152
G1 X17.8 Y9.392 E8.35911
G1 X17.525 Y10.132 E8.39849
G1 X17.181 Y10.82 E8.43687
G1 X16.61 Y11.681 E8.48841
G1 X16.093 Y12.354 E8.53075
G1 X15.594 Y12.939 E8.56911
G1 X15.036 Y13.469 E8.60751
G1 X14.762 Y13.68 E8.62476
G1 X14.303 Y14.324 E8.66421
G1 X13.793 Y14.9 E8.7026
G1 X13.016 Y15.586 E8.75431
G1 X12.343 Y16.101 E8.79659
G1 X11.709 Y16.536 E8.83495
G1 X11.033 Y16.903 E8.87332
G1 X10.721 Y17.032 E8.89016
G1 X10.105 Y17.541 E8.93003
G1 X9.463 Y17.965 E8.96842
G1 X8.544 Y18.422 E9.01962
G1 X7.761 Y18.746 E9.0619
G1 X7.036 Y19.002 E9.10026
G1 X6.289 Y19.183 E9.1386
G1 X5.94 Y19.229 E9.15616
G1 X5.22 Y19.559 E9.19568
G1 X4.49 Y19.802 E9.23406
G1 X3.491 Y20.004 E9.28491
G1 X2.651 Y20.115 E9.32718
G1 X1.885 Y20.176 E9.36552
G1 X1.116 Y20.157 E9.4039
G1 X0.765 Y20.112 E9.42155
G1 X-0.012 Y20.242 E9.46086
G1 X-.779 Y20.289 E9.49919
G1 X-1.801 Y20.227 E9.55028
G1 X-2.642 Y20.117 E9.59259
G1 X-3.398 Y19.977 E9.63095
G1 X-4.136 Y19.76 E9.66933
G1 X-4.467 Y19.624 E9.68718
G1 X-5.26 Y19.548 E9.72692
G1 X-6.013 Y19.393 E9.76528
G1 X-6.978 Y19.07 E9.81605
G1 X-7.761 Y18.746 E9.85833
G1 X-8.456 Y18.415 E9.89673
G1 X-9.112 Y18.014 E9.93509
G1 X-9.392 Y17.8 E9.95267
G1 X-10.132 Y17.525 E9.99206
G1 X-10.82 Y17.181 E10.03043
G1 X-11.681 Y16.61 E10.08198
G1 X-12.354 Y16.093 E10.12432
G1 X-12.939 Y15.594 E10.16268
G1 X-13.469 Y15.036 E10.20107
G1 X-13.68 Y14.762 E10.21832
G1 X-14.324 Y14.303 E10.25778
G1 X-14.9 Y13.793 E10.29616
G1 X-15.586 Y13.016 E10.34787
G1 X-16.101 Y12.343 E10.39015
G1 X-16.536 Y11.709 E10.42851
G1 X-16.903 Y11.033 E10.46689
G1 X-17.032 Y10.721 E10.48373
G1 X-17.541 Y10.105 E10.5236
G1 X-17.965 Y9.463 E10.56198
G1 X-18.422 Y8.544 E10.61319
G1 X-18.746 Y7.761 E10.65546
G1 X-19.002 Y7.036 E10.69382
G1 X-19.183 Y6.289 E10.73217
G1 X-19.229 Y5.94 E10.74973
G1 X-19.559 Y5.22 E10.78925
G1 X-19.802 Y4.49 E10.82763
G1 X-20.004 Y3.491 E10.87848
G1 X-20.115 Y2.651 E10.92075
G1 X-20.176 Y1.885 E10.95909
G1 X-20.157 Y1.116 E10.99746
G1 X-20.112 Y0.765 E11.01512
G1 X-20.242 Y-0.012 E11.05442
G1 X-20.289 Y-.779 E11.09276
G1 X-20.227 Y-1.801 E11.14384
G1 X-20.117 Y-2.642 E11.18616
G1 X-19.977 Y-3.398 E11.22452
G1 X-19.76 Y-4.136 E11.26289
G1 X-19.624 Y-4.467 E11.28075
G1 X-19.548 Y-5.26 E11.32049
G1 X-19.393 Y-6.013 E11.35885
G1 X-19.07 Y-6.978 E11.40962
G1 X-18.746 Y-7.761 E11.45189
G1 X-18.415 Y-8.456 E11.4903
G1 X-18.014 Y-9.112 E11.52865
G1 X-17.8 Y-9.392 E11.54624
G1 X-17.525 Y-10.132 E11.58562
G1 X-17.181 Y-10.82 E11.624
G1 X-16.61 Y-11.681 E11.67554
G1 X-16.093 Y-12.354 E11.71788
G1 X-15.594 Y-12.939 E11.75624
G1 X-15.036 Y-13.469 E11.79464
G1 X-14.762 Y-13.68 E11.81189
G1 X-14.303 Y-14.324 E11.85135
G1 X-13.793 Y-14.9 E11.88973
G1 X-13.016 Y-15.586 E11.94144
G1 X-12.343 Y-16.101 E11.98372
G1 X-11.709 Y-16.536 E12.02208
G1 X-11.033 Y-16.903 E12.06045
G1 X-10.721 Y-17.032 E12.0773
G1 X-10.105 Y-17.541 E12.11716
G1 X-9.463 Y-17.965 E12.15555
G1 X-8.544 Y-18.422 E12.20675
G1 X-7.761 Y-18.746 E12.24903
G1 X-7.036 Y-19.002 E12.28739
G1 X-6.289 Y-19.183 E12.32573
G1 X-5.94 Y-19.229 E12.3433
G1 X-5.22 Y-19.559 E12.38281
G1 X-4.49 Y-19.802 E12.4212
G1 X-3.491 Y-20.004 E12.47204
G1 X-2.651 Y-20.115 E12.51432
G1 X-1.885 Y-20.176 E12.55265
G1 X-1.116 Y-20.157 E12.59103
G1 X-.765 Y-20.112 E12.60869
G1 X0.012 Y-20.242 E12.64799
G1 X0.779 Y-20.289 E12.68633
G1 X1.801 Y-20.227 E12.73741
G1 X2.642 Y-20.117 E12.77972
G1 X3.398 Y-19.977 E12.81808
G1 X4.136 Y-19.76 E12.85646
G1 X4.467 Y-19.624 E12.87431
G0 F3600 X4.402 Y-19.218
G1 F1800 X4.66 Y-19.213 E12.88719
G1 X5.402 Y-19.119 E12.9245
G1 X6.13 Y-18.946 E12.96183
G1 X6.825 Y-18.7 E12.99861
G1 X7.608 Y-18.376 E13.04089
G1 X8.283 Y-18.054 E13.0782
G1 X8.92 Y-17.661 E13.11554
G1 X9.222 Y-17.426 E13.13463
G1 X9.466 Y-17.356 E13.1473
G1 X10.159 Y-17.073 E13.18464
G1 X10.817 Y-16.719 E13.22192
G1 X11.437 Y-16.293 E13.25945
G1 X12.11 Y-15.776 E13.30179
G1 X12.678 Y-15.289 E13.33912
G1 X13.191 Y-14.745 E13.37642
G1 X13.419 Y-14.445 E13.39522
G1 X13.637 Y-14.313 E13.40794
G1 X14.233 Y-13.86 E13.44528
G1 X14.777 Y-13.347 E13.48259
G1 X15.268 Y-12.773 E13.52027
G1 X15.783 Y-12.1 E13.56255
G1 X16.205 Y-11.482 E13.59989
G1 X16.559 Y-10.823 E13.63721
G1 X16.698 Y-10.481 E13.65563
G1 X16.88 Y-10.292 E13.66872
G1 X17.339 Y-9.7 E13.70609
G1 X17.731 Y-9.064 E13.74336
G1 X18.052 Y-8.391 E13.78056
G1 X18.376 Y-7.608 E13.82284
G1 X18.625 Y-6.903 E13.86014
G1 X18.797 Y-6.175 E13.89746
G1 X18.844 Y-5.798 E13.91641
G1 X18.969 Y-5.572 E13.9293
G1 X19.258 Y-4.882 E13.96662
G1 X19.472 Y-4.165 E14.00395
G1 X19.608 Y-3.439 E14.0408
G1 X19.719 Y-2.599 E14.08307
G1 X19.777 Y-1.853 E14.1204
G1 X19.755 Y-1.105 E14.15774
G1 X19.703 Y-.723 E14.17697
G1 X19.763 Y-.48 E14.18946
G1 X19.865 Y0.261 E14.22678
G1 X19.887 Y1.008 E14.26406
G1 X19.83 Y1.749 E14.30114
G1 X19.72 Y2.59 E14.34345
G1 X19.583 Y3.325 E14.38076
G1 X19.369 Y4.042 E14.41809
G1 X19.218 Y4.402 E14.43756
G1 X19.213 Y4.66 E14.45044
G1 X19.119 Y5.402 E14.48775
G1 X18.946 Y6.13 E14.52508
G1 X18.7 Y6.825 E14.56186
G1 X18.376 Y7.608 E14.60414
G1 X18.054 Y8.283 E14.64145
G1 X17.661 Y8.92 E14.67879
G1 X17.426 Y9.222 E14.69788
G1 X17.356 Y9.466 E14.71055
G1 X17.073 Y10.159 E14.74789
G1 X16.719 Y10.817 E14.78517
G1 X16.293 Y11.437 E14.8227
G1 X15.776 Y12.11 E14.86504
G1 X15.289 Y12.678 E14.90237
G1 X14.745 Y13.191 E14.93967
G1 X14.445 Y13.419 E14.95847
G1 X14.313 Y13.637 E14.97119
G1 X13.86 Y14.233 E15.00853
G1 X13.347 Y14.777 E15.04584
G1 X12.773 Y15.268 E15.08352
G1 X12.1 Y15.783 E15.1258
G1 X11.482 Y16.205 E15.16314
G1 X10.823 Y16.559 E15.20046
G1 X10.481 Y16.698 E15.21888
G1 X10.292 Y16.88 E15.23197
G1 X9.7 Y17.339 E15.26934
G1 X9.064 Y17.731 E15.30661
G1 X8.391 Y18.052 E15.34381
G1 X7.608 Y18.376 E15.38609
G1 X6.903 Y18.625 E15.42339
G1 X6.175 Y18.797 E15.46071
G1 X5.798 Y18.844 E15.47966
G1 X5.572 Y18.969 E15.49255
G1 X4.882 Y19.258 E15.52987
G1 X4.165 Y19.472 E15.5672
G1 X3.439 Y19.608 E15.60405
G1 X2.599 Y19.719 E15.64632
G1 X1.853 Y19.777 E15.68365
G1 X1.105 Y19.755 E15.72099
G1 X0.723 Y19.703 E15.74022
G1 X0.48 Y19.763 E15.75271
G1 X-.261 Y19.865 E15.79003
G1 X-1.008 Y19.887 E15.82731
G1 X-1.749 Y19.83 E15.86439
G1 X-2.59 Y19.72 E15.9067
G1 X-3.325 Y19.583 E15.94401
G1 X-4.042 Y19.369 E15.98134
G1 X-4.402 Y19.218 E16.00081
G1 X-4.66 Y19.213 E16.01369
G1 X-5.402 Y19.119 E16.051
G1 X-6.13 Y18.946 E16.08833
G1 X-6.825 Y18.7 E16.12511
G1 X-7.608 Y18.376 E16.16739
G1 X-8.283 Y18.054 E16.2047
G1 X-8.92 Y17.661 E16.24204
G1 X-9.222 Y17.426 E16.26113
G1 X-9.466 Y17.356 E16.2738
G1 X-10.159 Y17.073 E16.31114
G1 X-10.817 Y16.719 E16.34842
G1 X-11.437 Y16.293 E16.38595
G1 X-12.11 Y15.776 E16.42829
G1 X-12.678 Y15.289 E16.46562
G1 X-13.191 Y14.745 E16.50292
G1 X-13.419 Y14.445 E16.52172
G1 X-13.637 Y14.313 E16.53444
G1 X-14.233 Y13.86 E16.57178
G1 X-14.777 Y13.347 E16.60909
G1 X-15.268 Y12.773 E16.64677
G1 X-15.783 Y12.1 E16.68905
G1 X-16.205 Y11.482 E16.72639
G1 X-16.559 Y10.823 E16.76371
G1 X-16.698 Y10.481 E16.78213
G1 X-16.88 Y10.292 E16.79522
G1 X-17.339 Y9.7 E16.83259
G1 X-17.731 Y9.064 E16.86986
G1 X-18.052 Y8.391 E16.90706
G1 X-18.376 Y7.608 E16.94934
G1 X-18.625 Y6.903 E16.98664
G1 X-18.797 Y6.175 E17.02396
G1 X-18.845 Y5.796 E17.04302
G1 X-18.969 Y5.572 E17.05579
G1 X-19.258 Y4.882 E17.09312
G1 X-19.472 Y4.165 E17.13045
G1 X-19.608 Y3.439 E17.1673
G1 X-19.719 Y2.599 E17.20957
G1 X-19.777 Y1.853 E17.2469
G1 X-19.755 Y1.105 E17.28423
G1 X-19.703 Y0.723 E17.30347
G1 X-19.763 Y0.48 E17.31595
G1 X-19.865 Y-.261 E17.35327
G1 X-19.887 Y-1.008 E17.39056
G1 X-19.83 Y-1.749 E17.42763
G1 X-19.72 Y-2.59 E17.46995
G1 X-19.583 Y-3.325 E17.50725
G1 X-19.369 Y-4.042 E17.54458
G1 X-19.218 Y-4.402 E17.56406
G1 X-19.213 Y-4.66 E17.57693
G1 X-19.119 Y-5.402 E17.61424
G1 X-18.946 Y-6.13 E17.65158
G1 X-18.7 Y-6.825 E17.68836
G1 X-18.376 Y-7.608 E17.73063
G1 X-18.054 Y-8.283 E17.76795
G1 X-17.661 Y-8.92 E17.80529
G1 X-17.426 Y-9.222 E17.82438
G1 X-17.356 Y-9.466 E17.83704
G1 X-17.073 Y-10.159 E17.87439
G1 X-16.719 Y-10.817 E17.91166
G1 X-16.293 Y-11.437 E17.94919
G1 X-15.776 Y-12.11 E17.99153
G1 X-15.289 Y-12.678 E18.02886
G1 X-14.745 Y-13.191 E18.06617
G1 X-14.445 Y-13.419 E18.08497
G1 X-14.313 Y-13.637 E18.09768
G1 X-13.86 Y-14.233 E18.13503
G1 X-13.347 Y-14.777 E18.17233
G1 X-12.773 Y-15.268 E18.21002
G1 X-12.1 Y-15.783 E18.2523
G1 X-11.482 Y-16.205 E18.28963
G1 X-10.823 Y-16.559 E18.32695
G1 X-10.481 Y-16.698 E18.34537
G1 X-10.292 Y-16.88 E18.35846
G1 X-9.7 Y-17.339 E18.39583
G1 X-9.064 Y-17.731 E18.43311
G1 X-8.391 Y-18.052 E18.47031
G1 X-7.608 Y-18.376 E18.51258
G1 X-6.903 Y-18.625 E18.54988
G1 X-6.175 Y-18.797 E18.5872
G1 X-5.798 Y-18.844 E18.60616
G1 X-5.572 Y-18.969 E18.61904
G1 X-4.882 Y-19.258 E18.65636
G1 X-4.165 Y-19.472 E18.6937
G1 X-3.439 Y-19.608 E18.73055
G1 X-2.599 Y-19.719 E18.77282
G1 X-1.853 Y-19.777 E18.81015
G1 X-1.105 Y-19.755 E18.84748
G1 X-.723 Y-19.703 E18.86672
