;FLAVOR:Marlin
;TIME:1002
;Filament used: 0.826925m
;Layer height: 0.2
;MINX:-16.132
;MINY:-16.132
;MINZ:0.3
;MAXX:16.132
;MAXY:16.132
;MAXZ:16.1
;Generated with Cura_SteamEngine 5.2.1
M140 S60
M105
M190 S60
M104 S200
M105
M109 S200
M82 ;absolute extrusion mode
G28 ;Home
G1 Z15.0 F6000 ;Move the platform down 15mm
;Prime the extruder
G92 E0
G1 F200 E3
G92 E0
M141 S28
G92 E0
G92 E0
G1 F1500 E-1
;LAYER_COUNT:75
;LAYER:0
M107
G1 F600 Z1.3
G0 F3600 X15.937 Y-.92 Z1.3
;TYPE:SKIRT
G1 F600 Z0.3
G1 F1500 E0
G1 F1800 X16.06 Y-.291 E0.03198
G1 X16.132 Y0.495 E0.07135
G1 X16.124 Y1.285 E0.11077
G1 X15.988 Y2.334 E0.16354
G1 X15.826 Y3.148 E0.20495
G1 X15.633 Y3.914 E0.24436
G1 X15.363 Y4.656 E0.28375
G1 X15.074 Y5.256 E0.31698
G1 X14.947 Y5.882 E0.34884
G1 X14.712 Y6.636 E0.38825
G1 X14.402 Y7.362 E0.42763
G1 X13.882 Y8.269 E0.47979
G1 X13.422 Y8.959 E0.52116
G1 X12.951 Y9.593 E0.56057
G1 X12.419 Y10.176 E0.59994
G1 X11.914 Y10.627 E0.63372
G1 X11.555 Y11.158 E0.6657
G1 X11.049 Y11.764 E0.70509
G1 X10.484 Y12.317 E0.74453
G1 X9.662 Y12.951 E0.79632
G1 X8.974 Y13.412 E0.83764
G1 X8.296 Y13.818 E0.87706
G1 X7.581 Y14.153 E0.91646
G1 X6.943 Y14.377 E0.95019
G1 X6.414 Y14.727 E0.98184
G1 X5.715 Y15.094 E1.02123
G1 X4.982 Y15.389 E1.06065
G1 X3.944 Y15.669 E1.11428
G1 X3.13 Y15.829 E1.15567
G1 X2.349 Y15.941 E1.19503
G1 X1.56 Y15.975 E1.23443
G1 X0.92 Y15.937 E1.26642
G1 X0.291 Y16.06 E1.29839
G1 X-.495 Y16.132 E1.33777
G1 X-1.285 Y16.124 E1.37719
G1 X-2.334 Y15.988 E1.42996
G1 X-3.148 Y15.826 E1.47137
G1 X-3.914 Y15.633 E1.51078
G1 X-4.656 Y15.363 E1.55017
G1 X-5.256 Y15.074 E1.5834
G1 X-5.882 Y14.947 E1.61526
G1 X-6.636 Y14.712 E1.65467
G1 X-7.362 Y14.402 E1.69405
G1 X-8.269 Y13.882 E1.74621
G1 X-8.959 Y13.422 E1.78758
G1 X-9.593 Y12.951 E1.82699
G1 X-10.176 Y12.419 E1.86636
G1 X-10.627 Y11.914 E1.90014
G1 X-11.158 Y11.555 E1.93212
G1 X-11.764 Y11.049 E1.97151
G1 X-12.317 Y10.484 E2.01095
G1 X-12.951 Y9.662 E2.06274
G1 X-13.412 Y8.974 E2.10406
G1 X-13.818 Y8.296 E2.14348
G1 X-14.153 Y7.581 E2.18288
G1 X-14.377 Y6.943 E2.21661
G1 X-14.727 Y6.414 E2.24826
G1 X-15.094 Y5.715 E2.28764
G1 X-15.389 Y4.982 E2.32706
G1 X-15.669 Y3.944 E2.3807
G1 X-15.829 Y3.13 E2.42209
G1 X-15.941 Y2.349 E2.46145
G1 X-15.975 Y1.56 E2.50085
G1 X-15.937 Y0.92 E2.53284
G1 X-16.06 Y0.291 E2.56481
G1 X-16.132 Y-.495 E2.60419
G1 X-16.124 Y-1.285 E2.64361
G1 X-15.988 Y-2.334 E2.69638
G1 X-15.826 Y-3.148 E2.73779
G1 X-15.633 Y-3.914 E2.7772
G1 X-15.363 Y-4.656 E2.81659
G1 X-15.074 Y-5.256 E2.84982
G1 X-14.947 Y-5.882 E2.88168
G1 X-14.712 Y-6.636 E2.92108
G1 X-14.402 Y-7.362 E2.96047
G1 X-13.882 Y-8.269 E3.01263
G1 X-13.422 Y-8.959 E3.054
G1 X-12.951 Y-9.593 E3.09341
G1 X-12.419 Y-10.176 E3.13278
G1 X-11.914 Y-10.627 E3.16656
G1 X-11.555 Y-11.158 E3.19854
G1 X-11.049 Y-11.764 E3.23793
G1 X-10.484 Y-12.317 E3.27737
G1 X-9.662 Y-12.951 E3.32916
G1 X-8.974 Y-13.412 E3.37048
G1 X-8.296 Y-13.818 E3.4099
G1 X-7.581 Y-14.153 E3.4493
G1 X-6.943 Y-14.377 E3.48303
G1 X-6.414 Y-14.727 E3.51468
G1 X-5.715 Y-15.094 E3.55406
G1 X-4.982 Y-15.389 E3.59348
G1 X-3.944 Y-15.669 E3.64712
G1 X-3.13 Y-15.829 E3.68851
G1 X-2.349 Y-15.941 E3.72787
G1 X-1.56 Y-15.975 E3.76727
G1 X-.92 Y-15.937 E3.79926
G1 X-.291 Y-16.06 E3.83123
G1 X0.495 Y-16.132 E3.87061
G1 X1.285 Y-16.124 E3.91003
G1 X2.334 Y-15.988 E3.9628
G1 X3.148 Y-15.826 E4.00421
G1 X3.914 Y-15.633 E4.04362
G1 X4.656 Y-15.363 E4.08301
G1 X5.256 Y-15.074 E4.11623
G1 X5.882 Y-14.947 E4.1481
G1 X6.636 Y-14.712 E4.1875
G1 X7.362 Y-14.402 E4.22689
G1 X8.269 Y-13.882 E4.27905
G1 X8.959 Y-13.422 E4.32042
G1 X9.593 Y-12.951 E4.35982
G1 X10.176 Y-12.419 E4.3992
G1 X10.627 Y-11.914 E4.43298
G1 X11.158 Y-11.555 E4.46496
G1 X11.764 Y-11.049 E4.50434
G1 X12.317 Y-10.484 E4.54379
G1 X12.951 Y-9.662 E4.59558
G1 X13.412 Y-8.974 E4.6369
G1 X13.818 Y-8.296 E4.67632
G1 X14.153 Y-7.581 E4.71571
G1 X14.377 Y-6.943 E4.74945
G1 X14.727 Y-6.414 E4.78109
G1 X15.094 Y-5.715 E4.82048
G1 X15.389 Y-4.982 E4.8599
G1 X15.669 Y-3.944 E4.91354
G1 X15.829 Y-3.13 E4.95493
G1 X15.941 Y-2.349 E4.99429
G1 X15.975 Y-1.56 E5.03369
G1 X15.937 Y-.92 E5.06568
G0 F3600 X15.561 Y-.795
G1 F1800 X15.689 Y-0.037 E5.10403
G1 X15.738 Y0.731 E5.14242
G1 X15.706 Y1.5 E5.18082
G1 X15.596 Y2.256 E5.21893
G1 X15.434 Y3.07 E5.26034
G1 X15.245 Y3.816 E5.29874
G1 X14.979 Y4.538 E5.33712
G1 X14.693 Y5.12 E5.36948
G1 X14.68 Y5.226 E5.3748
G1 X14.507 Y5.976 E5.4132
G1 X14.258 Y6.703 E5.45154
G1 X13.934 Y7.401 E5.48993
G1 X13.549 Y8.047 E5.52745
G1 X13.089 Y8.737 E5.56883
G1 X12.63 Y9.354 E5.60719
G1 X12.109 Y9.92 E5.64557
G1 X11.611 Y10.358 E5.67866
G1 X11.559 Y10.45 E5.68393
G1 X11.113 Y11.076 E5.72228
G1 X10.603 Y11.652 E5.76066
G1 X10.037 Y12.173 E5.79904
G1 X9.439 Y12.619 E5.83626
G1 X8.751 Y13.08 E5.87758
G1 X8.091 Y13.474 E5.91593
G1 X7.393 Y13.798 E5.95432
G1 X6.768 Y14.012 E5.98728
G1 X6.689 Y14.074 E5.99229
G1 X6.037 Y14.482 E6.03066
G1 X5.346 Y14.821 E6.06906
G1 X4.624 Y15.085 E6.10741
G1 X3.867 Y15.276 E6.14636
G1 X3.053 Y15.436 E6.18775
G1 X2.292 Y15.545 E6.2261
G1 X1.523 Y15.574 E6.2645
G1 X0.896 Y15.533 E6.29584
G1 X0.795 Y15.561 E6.30107
G1 X0.037 Y15.689 E6.33942
G1 X-.731 Y15.738 E6.37782
G1 X-1.5 Y15.706 E6.41622
G1 X-2.256 Y15.596 E6.45433
G1 X-3.07 Y15.434 E6.49574
G1 X-3.816 Y15.245 E6.53413
G1 X-4.538 Y14.979 E6.57252
G1 X-5.12 Y14.693 E6.60487
G1 X-5.226 Y14.68 E6.6102
G1 X-5.976 Y14.507 E6.6486
G1 X-6.703 Y14.258 E6.68694
G1 X-7.401 Y13.934 E6.72533
G1 X-8.047 Y13.549 E6.76285
G1 X-8.737 Y13.089 E6.80422
G1 X-9.354 Y12.63 E6.84259
G1 X-9.92 Y12.109 E6.88097
G1 X-10.358 Y11.611 E6.91406
G1 X-10.45 Y11.559 E6.91933
G1 X-11.076 Y11.113 E6.95768
G1 X-11.652 Y10.603 E6.99606
G1 X-12.173 Y10.037 E7.03444
G1 X-12.619 Y9.439 E7.07166
G1 X-13.08 Y8.751 E7.11297
G1 X-13.474 Y8.091 E7.15132
G1 X-13.798 Y7.393 E7.18971
G1 X-14.012 Y6.768 E7.22267
G1 X-14.074 Y6.689 E7.22768
G1 X-14.482 Y6.037 E7.26606
G1 X-14.821 Y5.346 E7.30445
G1 X-15.085 Y4.624 E7.34281
G1 X-15.276 Y3.867 E7.38176
G1 X-15.436 Y3.053 E7.42315
G1 X-15.545 Y2.292 E7.4615
G1 X-15.574 Y1.523 E7.49989
G1 X-15.533 Y0.896 E7.53124
G1 X-15.561 Y0.795 E7.53647
G1 X-15.689 Y0.037 E7.57482
G1 X-15.738 Y-.731 E7.61322
G1 X-15.706 Y-1.5 E7.65161
G1 X-15.596 Y-2.256 E7.68973
G1 X-15.434 Y-3.07 E7.73114
G1 X-15.245 Y-3.816 E7.76953
G1 X-14.979 Y-4.538 E7.80792
G1 X-14.693 Y-5.12 E7.84027
G1 X-14.68 Y-5.226 E7.8456
G1 X-14.507 Y-5.976 E7.884
G1 X-14.258 Y-6.703 E7.92234
G1 X-13.934 Y-7.401 E7.96073
G1 X-13.549 Y-8.047 E7.99825
G1 X-13.089 Y-8.737 E8.03962
G1 X-12.63 Y-9.354 E8.07799
G1 X-12.109 Y-9.92 E8.11637
G1 X-11.611 Y-10.358 E8.14945
G1 X-11.559 Y-10.45 E8.15473
G1 X-11.113 Y-11.076 E8.19307
G1 X-10.603 Y-11.652 E8.23145
G1 X-10.037 Y-12.173 E8.26983
G1 X-9.439 Y-12.619 E8.30705
G1 X-8.751 Y-13.08 E8.34837
G1 X-8.091 Y-13.474 E8.38672
G1 X-7.393 Y-13.798 E8.42511
G1 X-6.768 Y-14.012 E8.45807
G1 X-6.689 Y-14.074 E8.46308
G1 X-6.037 Y-14.482 E8.50145
G1 X-5.346 Y-14.821 E8.53985
G1 X-4.624 Y-15.085 E8.5782
G1 X-3.867 Y-15.276 E8.61715
G1 X-3.053 Y-15.436 E8.65854
G1 X-2.292 Y-15.545 E8.6969
G1 X-1.523 Y-15.574 E8.73529
G1 X-.896 Y-15.533 E8.76664
G1 X-.795 Y-15.561 E8.77187
G1 X-0.037 Y-15.689 E8.81022
G1 X0.731 Y-15.738 E8.84861
G1 X1.5 Y-15.706 E8.88701
G1 X2.256 Y-15.596 E8.92512
G1 X3.07 Y-15.434 E8.96653
G1 X3.816 Y-15.245 E9.00493
G1 X4.538 Y-14.979 E9.04331
G1 X5.12 Y-14.693 E9.07567
G1 X5.226 Y-14.68 E9.08099
G1 X5.976 Y-14.507 E9.11939
G1 X6.703 Y-14.258 E9.15773
G1 X7.401 Y-13.934 E9.19612
G1 X8.047 Y-13.549 E9.23364
G1 X8.737 Y-13.089 E9.27502
G1 X9.354 Y-12.63 E9.31338
G1 X9.92 Y-12.109 E9.35176
G1 X10.358 Y-11.611 E9.38485
G1 X10.45 Y-11.559 E9.39012
G1 X11.076 Y-11.113 E9.42847
G1 X11.652 Y-10.603 E9.46685
G1 X12.173 Y-10.037 E9.50523
G1 X12.619 Y-9.439 E9.54245
G1 X13.08 Y-8.751 E9.58377
G1 X13.474 Y-8.091 E9.62212
G1 X13.798 Y-7.393 E9.66051
G1 X14.012 Y-6.768 E9.69347
G1 X14.074 Y-6.689 E9.69848
G1 X14.482 Y-6.037 E9.73685
G1 X14.821 Y-5.346 E9.77525
G1 X15.085 Y-4.624 E9.8136
G1 X15.276 Y-3.867 E9.85255
G1 X15.436 Y-3.053 E9.89394
G1 X15.545 Y-2.292 E9.93229
G1 X15.574 Y-1.523 E9.97069
G1 X15.533 Y-.896 E10.00203
G1 X15.561 Y-.795 E10.00726
G0 F3600 X15.127 Y-.852
G1 F1800 X15.209 Y-.527 E10.02399
G1 X15.312 Y0.213 E10.06126
G1 X15.336 Y0.961 E10.0986
G1 X15.272 Y1.833 E10.14222
G1 X15.041 Y2.992 E10.20118
G1 X14.856 Y3.717 E10.23851
G1 X14.595 Y4.418 E10.27583
G1 X14.3 Y5.007 E10.30869
G1 X14.251 Y5.338 E10.32538
G1 X14.063 Y6.062 E10.3627
G1 X13.799 Y6.762 E10.40003
G1 X13.401 Y7.548 E10.44398
G1 X12.756 Y8.515 E10.50197
G1 X12.309 Y9.114 E10.53926
G1 X11.8 Y9.662 E10.57657
G1 X11.293 Y10.103 E10.6101
G1 X11.121 Y10.389 E10.62675
G1 X10.67 Y10.986 E10.66408
G1 X10.157 Y11.531 E10.70142
G1 X9.494 Y12.1 E10.74501
G1 X8.529 Y12.747 E10.80297
G1 X7.886 Y13.13 E10.84031
G1 X7.206 Y13.442 E10.87764
G1 X6.569 Y13.654 E10.91113
G1 X6.306 Y13.85 E10.92749
G1 X5.662 Y14.23 E10.9648
G1 X4.98 Y14.538 E11.00213
G1 X4.134 Y14.816 E11.04656
G1 X2.976 Y15.044 E11.10544
G1 X2.235 Y15.148 E11.14277
G1 X1.488 Y15.174 E11.18006
G1 X0.852 Y15.127 E11.21188
G1 X0.527 Y15.209 E11.2286
G1 X-.213 Y15.312 E11.26588
G1 X-.961 Y15.336 E11.30321
G1 X-1.833 Y15.272 E11.34684
G1 X-2.992 Y15.041 E11.4058
G1 X-3.717 Y14.856 E11.44313
G1 X-4.418 Y14.595 E11.48044
G1 X-5.007 Y14.3 E11.51331
G1 X-5.338 Y14.251 E11.53
G1 X-6.062 Y14.063 E11.56732
G1 X-6.762 Y13.799 E11.60465
G1 X-7.548 Y13.401 E11.6486
G1 X-8.515 Y12.756 E11.70659
G1 X-9.114 Y12.309 E11.74388
G1 X-9.662 Y11.8 E11.78119
G1 X-10.103 Y11.293 E11.81472
G1 X-10.389 Y11.121 E11.83137
G1 X-10.986 Y10.67 E11.86869
G1 X-11.531 Y10.157 E11.90604
G1 X-12.1 Y9.494 E11.94962
G1 X-12.747 Y8.529 E12.00759
G1 X-13.13 Y7.886 E12.04493
G1 X-13.442 Y7.206 E12.08225
G1 X-13.654 Y6.569 E12.11575
G1 X-13.85 Y6.306 E12.13211
G1 X-14.23 Y5.662 E12.16942
G1 X-14.538 Y4.98 E12.20675
G1 X-14.816 Y4.134 E12.25118
G1 X-15.044 Y2.976 E12.31006
G1 X-15.148 Y2.235 E12.34739
G1 X-15.174 Y1.488 E12.38468
G1 X-15.127 Y0.852 E12.4165
G1 X-15.209 Y0.527 E12.43322
G1 X-15.312 Y-.213 E12.4705
G1 X-15.336 Y-.961 E12.50783
G1 X-15.272 Y-1.833 E12.55145
G1 X-15.041 Y-2.992 E12.61041
G1 X-14.856 Y-3.717 E12.64774
G1 X-14.595 Y-4.418 E12.68506
G1 X-14.3 Y-5.007 E12.71793
G1 X-14.251 Y-5.338 E12.73462
G1 X-14.063 Y-6.062 E12.77194
G1 X-13.799 Y-6.762 E12.80926
G1 X-13.401 Y-7.548 E12.85322
G1 X-12.756 Y-8.515 E12.91121
G1 X-12.309 Y-9.114 E12.9485
G1 X-11.8 Y-9.662 E12.98581
G1 X-11.293 Y-10.103 E13.01933
G1 X-11.121 Y-10.389 E13.03598
G1 X-10.67 Y-10.986 E13.07331
G1 X-10.157 Y-11.531 E13.11065
G1 X-9.494 Y-12.1 E13.15424
G1 X-8.529 Y-12.747 E13.21221
G1 X-7.886 Y-13.13 E13.24954
G1 X-7.206 Y-13.442 E13.28687
G1 X-6.569 Y-13.654 E13.32036
G1 X-6.306 Y-13.85 E13.33673
G1 X-5.662 Y-14.23 E13.37403
G1 X-4.98 Y-14.538 E13.41137
G1 X-4.134 Y-14.816 E13.4558
G1 X-2.976 Y-15.044 E13.51468
G1 X-2.235 Y-15.148 E13.55201
G1 X-1.488 Y-15.174 E13.5893
G1 X-.852 Y-15.127 E13.62112
G1 X-.527 Y-15.209 E13.63784
G1 X0.213 Y-15.312 E13.67511
G1 X0.961 Y-15.336 E13.71245
G1 X1.833 Y-15.272 E13.75607
G1 X2.992 Y-15.041 E13.81503
G1 X3.717 Y-14.856 E13.85236
G1 X4.418 Y-14.595 E13.88968
G1 X5.007 Y-14.3 E13.92254
G1 X5.338 Y-14.251 E13.93924
G1 X6.062 Y-14.063 E13.97656
G1 X6.762 Y-13.799 E14.01388
G1 X7.548 Y-13.401 E14.05783
G1 X8.515 Y-12.756 E14.11583
G1 X9.114 Y-12.309 E14.15311
G1 X9.662 Y-11.8 E14.19043
G1 X10.103 Y-11.293 E14.22395
G1 X10.389 Y-11.121 E14.2406
G1 X10.986 Y-10.67 E14.27793
G1 X11.531 Y-10.157 E14.31527
G1 X12.1 Y-9.494 E14.35886
G1 X12.747 Y-8.529 E14.41682
G1 X13.13 Y-7.886 E14.45416
G1 X13.442 Y-7.206 E14.49149
G1 X13.654 Y-6.569 E14.52498
G1 X13.85 Y-6.306 E14.54135
G1 X14.23 Y-5.662 E14.57865
G1 X14.538 Y-4.98 E14.61599
G1 X14.816 Y-4.134 E14.66041
G1 X15.044 Y-2.976 E14.7193
G1 X15.148 Y-2.235 E14.75663
G1 X15.174 Y-1.488 E14.79392
G1 X15.127 Y-.852 E14.82573
G0 F3600 X14.723 Y-.836
G1 F1800 X14.85 Y-.264 E14.85497
G1 X14.928 Y0.458 E14.8912
G1 X14.927 Y1.184 E14.92742
G1 X14.811 Y2.1 E14.97348
G1 X14.649 Y2.914 E15.01489
G1 X14.468 Y3.618 E15.05115
G1 X14.211 Y4.297 E15.08737
G1 X13.921 Y4.866 E15.11924
G1 X13.819 Y5.444 E15.14852
G1 X13.615 Y6.141 E15.18475
G1 X13.336 Y6.811 E15.22096
G1 X12.884 Y7.603 E15.26645
G1 X12.424 Y8.293 E15.30783
G1 X11.988 Y8.874 E15.34407
G1 X11.491 Y9.404 E15.38032
G1 X10.994 Y9.829 E15.41294
G1 X10.681 Y10.321 E15.44203
G1 X10.225 Y10.887 E15.47829
G1 X9.71 Y11.399 E15.51452
G1 X8.994 Y11.954 E15.55972
G1 X8.306 Y12.415 E15.60104
G1 X7.681 Y12.785 E15.63727
G1 X7.019 Y13.085 E15.67353
G1 X6.4 Y13.287 E15.70602
G1 X5.926 Y13.619 E15.73489
G1 X5.289 Y13.968 E15.77113
G1 X4.617 Y14.245 E15.80739
G1 X3.713 Y14.491 E15.85413
G1 X2.899 Y14.651 E15.89552
G1 X2.18 Y14.752 E15.93174
G1 X1.454 Y14.773 E15.96798
G1 X0.836 Y14.723 E15.99891
G1 X0.264 Y14.85 E16.02814
G1 X-.458 Y14.928 E16.06437
G1 X-1.184 Y14.927 E16.10059
G1 X-2.1 Y14.811 E16.14666
G1 X-2.914 Y14.649 E16.18807
G1 X-3.618 Y14.468 E16.22433
G1 X-4.297 Y14.211 E16.26055
G1 X-4.866 Y13.921 E16.29241
G1 X-5.444 Y13.819 E16.3217
G1 X-6.141 Y13.615 E16.35793
G1 X-6.811 Y13.336 E16.39414
G1 X-7.603 Y12.884 E16.43963
G1 X-8.293 Y12.424 E16.481
G1 X-8.874 Y11.988 E16.51724
G1 X-9.404 Y11.491 E16.55349
G1 X-9.829 Y10.994 E16.58612
G1 X-10.321 Y10.681 E16.61521
G1 X-10.887 Y10.225 E16.65147
G1 X-11.399 Y9.71 E16.6877
G1 X-11.954 Y8.994 E16.7329
G1 X-12.415 Y8.306 E16.77422
G1 X-12.785 Y7.681 E16.81045
G1 X-13.085 Y7.019 E16.84671
G1 X-13.287 Y6.4 E16.8792
G1 X-13.619 Y5.926 E16.90807
G1 X-13.968 Y5.289 E16.94431
G1 X-14.245 Y4.617 E16.98057
G1 X-14.491 Y3.713 E17.02731
G1 X-14.651 Y2.899 E17.0687
G1 X-14.752 Y2.18 E17.10492
G1 X-14.773 Y1.454 E17.14116
G1 X-14.723 Y0.836 E17.17209
G1 X-14.85 Y0.264 E17.20132
G1 X-14.928 Y-.458 E17.23755
G1 X-14.927 Y-1.184 E17.27377
G1 X-14.811 Y-2.1 E17.31984
G1 X-14.649 Y-2.914 E17.36124
G1 X-14.468 Y-3.618 E17.39751
G1 X-14.211 Y-4.297 E17.43373
G1 X-13.921 Y-4.866 E17.46559
G1 X-13.819 Y-5.444 E17.49487
G1 X-13.615 Y-6.141 E17.53111
G1 X-13.336 Y-6.811 E17.56731
G1 X-12.884 Y-7.603 E17.61281
G1 X-12.424 Y-8.293 E17.65418
G1 X-11.988 Y-8.874 E17.69042
G1 X-11.491 Y-9.404 E17.72667
G1 X-10.994 Y-9.829 E17.7593
G1 X-10.681 Y-10.321 E17.78839
G1 X-10.225 Y-10.887 E17.82465
G1 X-9.71 Y-11.399 E17.86088
G1 X-8.994 Y-11.954 E17.90608
G1 X-8.306 Y-12.415 E17.94739
G1 X-7.681 Y-12.785 E17.98363
G1 X-7.019 Y-13.085 E18.01989
G1 X-6.4 Y-13.287 E18.05238
G1 X-5.926 Y-13.619 E18.08125
G1 X-5.289 Y-13.968 E18.11748
G1 X-4.617 Y-14.245 E18.15375
G1 X-3.713 Y-14.491 E18.20049
G1 X-2.899 Y-14.651 E18.24188
G1 X-2.18 Y-14.752 E18.2781
G1 X-1.454 Y-14.773 E18.31433
G1 X-.836 Y-14.723 E18.34527
G1 X-.264 Y-14.85 E18.3745
G1 X0.458 Y-14.928 E18.41073
G1 X1.184 Y-14.927 E18.44695
G1 X2.1 Y-14.811 E18.49301
G1 X2.914 Y-14.649 E18.53442
G1 X3.618 Y-14.468 E18.57069
G1 X4.297 Y-14.211 E18.60691
G1 X4.866 Y-13.921 E18.63877
G1 X5.444 Y-13.819 E18.66805
G1 X6.141 Y-13.615 E18.70428
G1 X6.811 Y-13.336 E18.74049
G1 X7.603 Y-12.884 E18.78599
G1 X8.293 Y-12.424 E18.82736
G1 X8.874 Y-11.988 E18.8636
G1 X9.404 Y-11.491 E18.89985
G1 X9.829 Y-10.994 E18.93247
G1 X10.321 Y-10.681 E18.96157
G1 X10.887 Y-10.225 E18.99783
G1 X11.399 Y-9.71 E19.03406
G1 X11.954 Y-8.994 E19.07926
G1 X12.415 Y-8.306 E19.12057
G1 X12.785 Y-7.681 E19.15681
G1 X13.085 Y-7.019 E19.19307
G1 X13.287 Y-6.4 E19.22555
G1 X13.619 Y-5.926 E19.25443
G1 X13.968 Y-5.289 E19.29066
G1 X14.245 Y-4.617 E19.32693
G1 X14.491 Y-3.713 E19.37367
G1 X14.651 Y-2.899 E19.41505
G1 X14.752 Y-2.18 E19.45128
G1 X14.773 Y-1.454 E19.48751
G1 X14.723 Y-.836 E19.51845
G0 F3600 X14.351 Y-.697
G1 F1800 X14.484 Y-0.006 E19.55355
G1 X14.537 Y0.696 E19.58868
G1 X14.51 Y1.399 E19.62377
G1 X14.419 Y2.022 E19.65519
G1 X14.257 Y2.836 E19.69659
G1 X14.08 Y3.518 E19.73174
G1 X13.828 Y4.175 E19.76685
G1 X13.536 Y4.735 E19.79836
G1 X13.525 Y4.852 E19.80422
G1 X13.382 Y5.542 E19.83938
G1 X13.162 Y6.211 E19.87451
G1 X12.868 Y6.85 E19.90961
G1 X12.551 Y7.381 E19.94046
G1 X12.091 Y8.071 E19.98183
G1 X11.668 Y8.634 E20.01696
G1 X11.183 Y9.145 E20.05211
