;FLAVOR:Marlin
;TIME:1985
;Filament used: 1.51393m
;Layer height: 0.2
;MINX:-24.55
;MINY:-28.143
;MINZ:0.3
;MAXX:24.55
;MAXY:28.282
;MAXZ:6.5
;Generated with Cura_SteamEngine 5.2.1
M140 S60
M105
M190 S60
M104 S210
M105
M109 S210
M82 ;absolute extrusion mode
G28 ;Home
G1 Z15.0 F6000 ;Move the platform down 15mm
;Prime the extruder
G92 E0
G1 F200 E3
G92 E0
M141 S28
G92 E0
G92 E0
;LAYER_COUNT:32
;LAYER:0
M107
G0 F3600 X-17.253 Y17.95 Z0.3
;TYPE:SKIRT
G1 F1800 X-17.842 Y17.83 E0.02999
G1 X-18.596 Y17.594 E0.06941
G1 X-19.322 Y17.284 E0.10879
G1 X-20.013 Y16.901 E0.14821
G1 X-20.662 Y16.451 E0.18761
G1 X-21.262 Y15.937 E0.22702
G1 X-21.806 Y15.366 E0.26637
G1 X-22.291 Y14.742 E0.3058
G1 X-22.709 Y14.072 E0.3452
G1 X-22.971 Y13.558 E0.37398
G1 X-23.309 Y12.829 E0.41407
G1 X-23.707 Y11.778 E0.47014
G1 X-23.986 Y10.843 E0.51882
G1 X-24.165 Y10.12 E0.55598
G1 X-24.347 Y9.196 E0.60296
G1 X-24.472 Y8.278 E0.64918
G1 X-24.528 Y7.538 E0.68621
G1 X-24.55 Y6.949 E0.71561
G1 X-24.55 Y-8.949 E1.50877
G1 X-24.528 Y-9.534 E1.53797
G1 X-24.472 Y-10.278 E1.5752
G1 X-24.345 Y-11.208 E1.62202
G1 X-24.162 Y-12.132 E1.66902
G1 X-23.985 Y-12.85 E1.70591
G1 X-23.703 Y-13.794 E1.75506
G1 X-23.299 Y-14.855 E1.81171
G1 X-22.965 Y-15.572 E1.85117
G1 X-22.596 Y-16.27 E1.89056
G1 X-22.158 Y-16.927 E1.92995
G1 X-21.656 Y-17.536 E1.96933
G1 X-21.095 Y-18.092 E2.00873
G1 X-20.48 Y-18.588 E2.04815
G1 X-19.819 Y-19.019 E2.08752
G1 X-19.117 Y-19.381 E2.12692
G1 X-18.382 Y-19.671 E2.16634
G1 X-17.486 Y-19.922 E2.21277
G1 X-17.192 Y-20.818 E2.25981
G1 X-16.866 Y-21.55 E2.29979
G1 X-16.7 Y-22.057 E2.32641
G1 X-16.38 Y-22.779 E2.36581
G1 X-15.988 Y-23.464 E2.40518
G1 X-15.903 Y-23.583 E2.41248
G1 X-15.618 Y-24.081 E2.4411
G1 X-15.159 Y-24.724 E2.48052
G1 X-14.637 Y-25.317 E2.51993
G1 X-14.058 Y-25.854 E2.55933
G1 X-13.428 Y-26.33 E2.59872
G1 X-12.753 Y-26.739 E2.6381
G1 X-12.04 Y-27.078 E2.67749
G1 X-11.319 Y-27.343 E2.71581
G1 X-10.464 Y-27.569 E2.75993
G1 X-9.684 Y-27.693 E2.79933
G1 X-8.896 Y-27.738 E2.83871
G1 X-8.107 Y-27.703 E2.87811
G1 X-7.428 Y-27.603 E2.91235
G1 X-7.054 Y-27.696 E2.93158
G1 X-6.272 Y-27.808 E2.97099
G1 X-6.066 Y-27.816 E2.98128
G1 X-5.278 Y-28.002 E3.02167
G1 X-4.495 Y-28.103 E3.06106
G1 X-3.705 Y-28.124 E3.10049
G1 X-2.805 Y-28.05 E3.14554
G1 X-2.477 Y-28.092 E3.16204
G1 X-1.687 Y-28.111 E3.20146
G1 X-.88 Y-28.049 E3.24184
G1 X-.334 Y-27.978 E3.26931
G1 X0.201 Y-27.881 E3.29644
G1 X0.295 Y-27.893 E3.30117
G1 X1.085 Y-27.914 E3.34059
G1 X1.168 Y-27.908 E3.34475
G1 X1.659 Y-28.022 E3.36989
G1 X2.443 Y-28.122 E3.40932
G1 X3.232 Y-28.143 E3.4487
G1 X4.047 Y-28.08 E3.48948
G1 X4.593 Y-28.009 E3.51695
G1 X5.37 Y-27.868 E3.55635
G1 X5.558 Y-27.813 E3.56612
G1 X6.473 Y-27.946 E3.61225
G1 X7.262 Y-27.978 E3.65165
G1 X8.05 Y-27.93 E3.69103
G1 X8.83 Y-27.802 E3.73047
G1 X9.592 Y-27.596 E3.76985
G1 X10.33 Y-27.315 E3.80925
G1 X11.098 Y-26.936 E3.85197
G1 X11.905 Y-26.439 E3.89926
G1 X12.476 Y-26.002 E3.93513
G1 X12.87 Y-25.764 E3.9581
G1 X13.762 Y-25.065 E4.01463
G1 X14.212 Y-24.656 E4.04497
G1 X14.769 Y-24.096 E4.08438
G1 X15.251 Y-23.503 E4.1225
G1 X15.581 Y-23.054 E4.1503
G1 X16.016 Y-22.395 E4.1897
G1 X16.382 Y-21.695 E4.22911
G1 X16.675 Y-20.962 E4.26849
G1 X16.826 Y-20.445 E4.29536
G1 X17.002 Y-20.003 E4.3191
G1 X17.841 Y-19.832 E4.36181
G1 X18.595 Y-19.597 E4.40122
G1 X19.321 Y-19.286 E4.44062
G1 X20.012 Y-18.904 E4.48001
G1 X20.66 Y-18.453 E4.5194
G1 X21.26 Y-17.94 E4.55878
G1 X21.805 Y-17.368 E4.5982
G1 X22.289 Y-16.744 E4.6376
G1 X22.708 Y-16.075 E4.67698
G1 X22.967 Y-15.567 E4.70543
G1 X23.304 Y-14.842 E4.74532
G1 X23.709 Y-13.771 E4.80244
G1 X23.993 Y-12.813 E4.85229
G1 X24.17 Y-12.096 E4.88914
G1 X24.323 Y-11.315 E4.92884
G1 X24.432 Y-10.566 E4.9666
G1 X24.514 Y-9.718 E5.00911
G1 X24.55 Y-8.967 E5.04662
G1 X24.55 Y6.909 E5.83867
G1 X24.493 Y8.039 E5.89512
G1 X24.356 Y9.151 E5.95102
G1 X24.166 Y10.117 E6.00014
G1 X23.989 Y10.837 E6.03713
G1 X23.711 Y11.771 E6.08575
G1 X23.307 Y12.835 E6.14253
G1 X22.967 Y13.566 E6.18275
G1 X22.599 Y14.265 E6.22216
G1 X22.161 Y14.922 E6.26155
G1 X21.659 Y15.532 E6.30097
G1 X21.098 Y16.088 E6.34037
G1 X20.484 Y16.584 E6.37975
G1 X19.823 Y17.016 E6.41915
G1 X19.121 Y17.378 E6.45855
G1 X18.387 Y17.668 E6.49793
G1 X17.7 Y17.861 E6.53353
G1 X17.595 Y18.785 E6.57992
G1 X17.426 Y19.557 E6.61935
G1 X17.18 Y20.307 E6.65873
G1 X16.86 Y21.029 E6.69813
G1 X16.468 Y21.714 E6.7375
G1 X16.009 Y22.357 E6.77692
G1 X15.487 Y22.95 E6.81633
G1 X14.908 Y23.487 E6.85573
G1 X14.514 Y23.785 E6.88038
G1 X14.027 Y24.338 E6.91714
G1 X13.448 Y24.875 E6.95654
G1 X12.818 Y25.351 E6.99593
G1 X12.143 Y25.76 E7.03531
G1 X11.43 Y26.099 E7.07469
G1 X10.709 Y26.364 E7.11302
G1 X9.854 Y26.59 E7.15714
G1 X9.074 Y26.714 E7.19654
G1 X8.839 Y26.727 E7.20828
G1 X8.193 Y27.037 E7.24403
G1 X7.21 Y27.39 E7.29614
G1 X6.202 Y27.64 E7.34795
G1 X5.42 Y27.752 E7.38736
G1 X4.606 Y27.782 E7.428
G1 X4.307 Y27.852 E7.44332
G1 X3.524 Y27.953 E7.48271
G1 X2.734 Y27.974 E7.52214
G1 X2.159 Y27.945 E7.55086
G1 X1.35 Y28.052 E7.59157
G1 X0.56 Y28.073 E7.631
G1 X-.256 Y28.01 E7.67183
G1 X-.802 Y27.939 E7.6993
G1 X-1.052 Y27.894 E7.71198
G1 X-1.212 Y27.931 E7.72017
G1 X-1.995 Y28.032 E7.75956
G1 X-2.785 Y28.053 E7.79898
G1 X-3.496 Y27.998 E7.83456
G1 X-4.06 Y28.138 E7.86355
G1 X-4.842 Y28.25 E7.90297
G1 X-5.631 Y28.282 E7.94236
G1 X-6.419 Y28.234 E7.98175
G1 X-7.199 Y28.106 E8.02118
G1 X-7.961 Y27.9 E8.06056
G1 X-8.699 Y27.619 E8.09996
G1 X-9.475 Y27.235 E8.14316
G1 X-10.313 Y26.713 E8.19241
G1 X-11.056 Y26.346 E8.23376
G1 X-11.864 Y25.849 E8.28108
G1 X-12.491 Y25.369 E8.32048
G1 X-13.066 Y24.828 E8.35987
G1 X-13.584 Y24.231 E8.3993
G1 X-14.038 Y23.586 E8.43865
G1 X-14.436 Y22.877 E8.47921
G1 X-15.035 Y22.275 E8.52158
G1 X-15.518 Y21.681 E8.55978
G1 X-15.847 Y21.233 E8.58751
G1 X-16.281 Y20.574 E8.62688
G1 X-16.647 Y19.874 E8.66629
G1 X-16.94 Y19.14 E8.70571
G1 X-17.135 Y18.474 E8.74034
G1 X-17.253 Y17.95 E8.76713
G0 F3600 X-17.343 Y17.534
G1 F1800 X-18.089 Y17.344 E8.80554
G1 X-18.81 Y17.078 E8.84388
G1 X-19.501 Y16.739 E8.88228
G1 X-20.152 Y16.33 E8.92064
G1 X-20.757 Y15.855 E8.95901
G1 X-21.31 Y15.321 E8.99736
G1 X-21.804 Y14.731 E9.03575
G1 X-22.235 Y14.094 E9.07413
G1 X-22.608 Y13.39 E9.11387
G1 X-22.946 Y12.661 E9.15396
G1 X-23.324 Y11.664 E9.20716
G1 X-23.603 Y10.729 E9.25584
G1 X-23.772 Y10.043 E9.29109
G1 X-23.954 Y9.119 E9.33807
G1 X-24.073 Y8.247 E9.38198
G1 X-24.129 Y7.507 E9.419
G1 X-24.15 Y6.949 E9.44686
G1 X-24.15 Y-8.949 E10.24001
G1 X-24.129 Y-9.504 E10.26772
G1 X-24.073 Y-10.248 E10.30495
G1 X-23.953 Y-11.131 E10.3494
G1 X-23.77 Y-12.055 E10.3964
G1 X-23.601 Y-12.735 E10.43136
G1 X-23.319 Y-13.679 E10.48051
G1 X-22.937 Y-14.686 E10.53424
G1 X-22.603 Y-15.403 E10.5737
G1 X-22.242 Y-16.082 E10.61207
G1 X-21.813 Y-16.72 E10.65043
G1 X-21.32 Y-17.311 E10.68882
G1 X-20.768 Y-17.847 E10.72721
G1 X-20.164 Y-18.322 E10.76554
G1 X-19.514 Y-18.733 E10.80391
G1 X-18.824 Y-19.074 E10.84231
G1 X-18.103 Y-19.341 E10.88067
G1 X-17.358 Y-19.532 E10.91904
G1 X-17.139 Y-19.565 E10.93009
G1 X-17.025 Y-20.059 E10.95538
G1 X-16.775 Y-20.786 E10.99374
G1 X-16.522 Y-21.329 E11.02362
G1 X-16.283 Y-22.025 E11.06034
G1 X-15.958 Y-22.722 E11.09871
G1 X-15.193 Y-23.999 E11.17297
G1 X-14.732 Y-24.615 E11.21136
G1 X-14.209 Y-25.179 E11.24973
G1 X-13.631 Y-25.686 E11.28809
G1 X-13.003 Y-26.13 E11.32646
G1 X-12.332 Y-26.506 E11.36483
G1 X-11.225 Y-26.954 E11.42441
G1 X-10.362 Y-27.182 E11.46895
G1 X-9.601 Y-27.3 E11.50737
G1 X-8.833 Y-27.338 E11.54573
G1 X-8.065 Y-27.296 E11.5841
G1 X-7.42 Y-27.193 E11.61669
G1 X-6.958 Y-27.307 E11.64043
G1 X-6.196 Y-27.413 E11.67881
G1 X-5.879 Y-27.455 E11.69477
G1 X-5.128 Y-27.623 E11.73316
G1 X-4.364 Y-27.711 E11.77153
G1 X-3.595 Y-27.72 E11.8099
G1 X-2.809 Y-27.647 E11.84928
G1 X-2.347 Y-27.7 E11.87248
G1 X-1.577 Y-27.708 E11.9109
G1 X-.932 Y-27.652 E11.9432
G1 X-.386 Y-27.581 E11.97067
G1 X0.197 Y-27.475 E12.00023
G1 X0.426 Y-27.501 E12.01173
G1 X1.212 Y-27.509 E12.05094
G1 X1.809 Y-27.642 E12.08146
G1 X2.573 Y-27.73 E12.11983
G1 X3.342 Y-27.739 E12.15819
G1 X3.995 Y-27.683 E12.19089
G1 X4.541 Y-27.612 E12.21836
G1 X5.298 Y-27.474 E12.25675
G1 X5.481 Y-27.42 E12.26627
G1 X5.787 Y-27.445 E12.28159
G1 X6.549 Y-27.551 E12.31997
G1 X7.318 Y-27.577 E12.35836
G1 X8.085 Y-27.523 E12.39672
G1 X8.843 Y-27.389 E12.43512
G1 X9.582 Y-27.178 E12.47346
G1 X10.296 Y-26.891 E12.51185
G1 X11.04 Y-26.502 E12.55374
G1 X11.694 Y-26.098 E12.59209
G1 X12.237 Y-25.679 E12.62631
G1 X12.664 Y-25.421 E12.6512
G1 X13.493 Y-24.769 E12.70382
G1 X13.943 Y-24.36 E12.73416
G1 X14.485 Y-23.814 E12.77254
G1 X14.929 Y-23.266 E12.80772
G1 X15.259 Y-22.817 E12.83553
G1 X15.681 Y-22.175 E12.87385
G1 X16.035 Y-21.492 E12.91223
G1 X16.316 Y-20.776 E12.95061
G1 X16.449 Y-20.316 E12.9745
G1 X16.716 Y-19.627 E13.01136
G1 X17.342 Y-19.536 E13.04292
G1 X18.087 Y-19.346 E13.08128
G1 X18.809 Y-19.081 E13.11965
G1 X19.499 Y-18.741 E13.15803
G1 X20.151 Y-18.332 E13.19643
G1 X20.756 Y-17.858 E13.23477
G1 X21.309 Y-17.323 E13.27316
G1 X21.803 Y-16.734 E13.31151
G1 X22.234 Y-16.096 E13.34992
G1 X22.604 Y-15.398 E13.38934
G1 X22.941 Y-14.673 E13.42922
G1 X23.326 Y-13.657 E13.48343
G1 X23.61 Y-12.699 E13.53328
G1 X23.777 Y-12.019 E13.56821
G1 X23.93 Y-11.238 E13.60792
G1 X24.034 Y-10.527 E13.64377
G1 X24.116 Y-9.679 E13.68627
G1 X24.15 Y-8.967 E13.72183
G1 X24.15 Y6.909 E14.51389
G1 X24.094 Y8.019 E14.56934
G1 X23.964 Y9.074 E14.62237
G1 X23.774 Y10.04 E14.67149
G1 X23.605 Y10.723 E14.70659
G1 X23.327 Y11.657 E14.75521
G1 X22.945 Y12.667 E14.80908
G1 X22.605 Y13.398 E14.8493
G1 X22.245 Y14.077 E14.88765
G1 X21.816 Y14.716 E14.92604
G1 X21.323 Y15.307 E14.96444
G1 X20.772 Y15.843 E15.00279
G1 X20.168 Y16.319 E15.04116
G1 X19.517 Y16.73 E15.07957
G1 X18.828 Y17.071 E15.11792
G1 X18.107 Y17.339 E15.1563
G1 X17.291 Y17.548 E15.19832
G1 X17.281 Y18.035 E15.22262
G1 X17.186 Y18.798 E15.26098
G1 X17.013 Y19.548 E15.29938
G1 X16.763 Y20.275 E15.33774
G1 X16.438 Y20.972 E15.37611
G1 X16.043 Y21.632 E15.41448
G1 X15.582 Y22.248 E15.45287
G1 X15.059 Y22.812 E15.49124
G1 X14.481 Y23.319 E15.5296
G1 X14.222 Y23.502 E15.54542
G1 X14.122 Y23.636 E15.55376
G1 X13.599 Y24.2 E15.59214
G1 X13.021 Y24.707 E15.63049
G1 X12.393 Y25.151 E15.66886
G1 X11.722 Y25.527 E15.70724
G1 X10.615 Y25.975 E15.76682
G1 X9.752 Y26.203 E15.81135
G1 X8.991 Y26.321 E15.84977
G1 X8.744 Y26.333 E15.86211
G1 X7.983 Y26.691 E15.90407
G1 X7.08 Y27.011 E15.95186
G1 X6.106 Y27.251 E16.00191
G1 X5.344 Y27.357 E16.04029
G1 X4.563 Y27.382 E16.07927
G1 X4.157 Y27.473 E16.10003
G1 X3.393 Y27.561 E16.1384
G1 X2.624 Y27.57 E16.17677
G1 X2.11 Y27.544 E16.20245
G1 X1.983 Y27.572 E16.20893
G1 X1.219 Y27.66 E16.2473
G1 X0.45 Y27.669 E16.28567
G1 X-.204 Y27.613 E16.31842
G1 X-.75 Y27.542 E16.34589
G1 X-1.063 Y27.485 E16.36176
G1 X-1.362 Y27.552 E16.37705
G1 X-2.126 Y27.64 E16.41541
G1 X-2.895 Y27.649 E16.45378
G1 X-3.53 Y27.595 E16.48558
G1 X-4.156 Y27.749 E16.51774
G1 X-4.918 Y27.855 E16.55612
G1 X-5.687 Y27.881 E16.59451
G1 X-6.454 Y27.827 E16.63287
G1 X-7.212 Y27.693 E16.67127
G1 X-7.951 Y27.482 E16.70962
G1 X-8.665 Y27.195 E16.74801
G1 X-9.409 Y26.806 E16.78989
G1 X-10.063 Y26.402 E16.82824
G1 X-10.255 Y26.301 E16.83907
G1 X-10.999 Y25.912 E16.88095
G1 X-11.653 Y25.508 E16.91931
G1 X-12.262 Y25.038 E16.95768
G1 X-12.819 Y24.507 E16.99608
G1 X-13.318 Y23.921 E17.03448
G1 X-13.753 Y23.287 E17.07284
G1 X-14.102 Y22.643 E17.10938
G1 X-14.75 Y21.993 E17.15517
G1 X-15.195 Y21.444 E17.19043
G1 X-15.524 Y20.996 E17.21816
G1 X-15.947 Y20.353 E17.25656
G1 X-16.3 Y19.67 E17.29491
G1 X-16.581 Y18.954 E17.33329
G1 X-16.799 Y18.2 E17.37245
G1 X-16.913 Y17.597 E17.40306
G1 X-17.343 Y17.534 E17.42474
G0 F3600 X-17.605 Y17.065
G1 F1800 X-18.32 Y16.844 E17.46208
G1 X-19.007 Y16.547 E17.49942
G1 X-19.658 Y16.18 E17.53671
G1 X-20.266 Y15.744 E17.57403
G1 X-20.825 Y15.247 E17.61135
G1 X-21.327 Y14.692 E17.64868
G1 X-21.767 Y14.087 E17.68601
G1 X-22.246 Y13.221 E17.73538
G1 X-22.584 Y12.492 E17.77547
G1 X-22.941 Y11.55 E17.82573
G1 X-23.22 Y10.615 E17.87441
G1 X-23.38 Y9.966 E17.90776
G1 X-23.562 Y9.042 E17.95474
G1 X-23.674 Y8.217 E17.99628
G1 X-23.73 Y7.477 E18.0333
G1 X-23.75 Y6.949 E18.05966
G1 X-23.75 Y-8.949 E18.85282
G1 X-23.73 Y-9.474 E18.87903
G1 X-23.674 Y-10.218 E18.91625
G1 X-23.561 Y-11.053 E18.95829
G1 X-23.378 Y-11.977 E19.00528
G1 X-23.218 Y-12.621 E19.03839
G1 X-22.936 Y-13.565 E19.08754
G1 X-22.574 Y-14.517 E19.13836
G1 X-22.24 Y-15.234 E19.17782
G1 X-21.889 Y-15.894 E19.21511
G1 X-21.469 Y-16.513 E19.25243
G1 X-20.985 Y-17.084 E19.28978
G1 X-20.443 Y-17.599 E19.32708
G1 X-19.849 Y-18.054 E19.36441
G1 X-19.21 Y-18.443 E19.40173
G1 X-18.533 Y-18.762 E19.43907
G1 X-17.826 Y-19.006 E19.47638
G1 X-17.097 Y-19.174 E19.5137
G1 X-16.818 Y-19.207 E19.52772
G1 X-16.612 Y-20.047 E19.57087
G1 X-16.357 Y-20.75 E19.60818
G1 X-16.12 Y-21.286 E19.63742
G1 X-15.865 Y-21.989 E19.67473
G1 X-15.536 Y-22.661 E19.71205
G1 X-15.227 Y-23.153 E19.74104
G1 X-15.166 Y-23.278 E19.74798
G1 X-14.768 Y-23.912 E19.78533
G1 X-14.305 Y-24.499 E19.82262
G1 X-13.781 Y-25.033 E19.85995
G1 X-13.204 Y-25.509 E19.89727
G1 X-12.579 Y-25.92 E19.93459
G1 X-11.913 Y-26.262 E19.97194
G1 X-11.087 Y-26.578 E20.01606
G1 X-10.26 Y-26.795 E20.05872
G1 X-9.52 Y-26.906 E20.09605
G1 X-8.773 Y-26.938 E20.13335
G1 X-8.026 Y-26.889 E20.1707
G1 X-7.412 Y-26.783 E20.20178
G1 X-6.862 Y-26.918 E20.23004
G1 X-6.121 Y-27.018 E20.26734
G1 X-5.903 Y-27.024 E20.27822
G1 X-5.712 Y-27.086 E20.28824
G1 X-4.981 Y-27.241 E20.32552
G1 X-4.236 Y-27.318 E20.36289
G1 X-3.488 Y-27.314 E20.40021
G1 X-2.819 Y-27.246 E20.43375
G1 X-2.219 Y-27.306 E20.46384
G1 X-1.331 Y-27.301 E20.50814
G1 X-.437 Y-27.185 E20.55312
G1 X0.185 Y-27.07 E20.58467
G1 X0.554 Y-27.108 E20.60318
G1 X1.223 Y-27.104 E20.63656
G1 X1.957 Y-27.261 E20.67401
G1 X2.701 Y-27.337 E20.71132
G1 X3.596 Y-27.332 E20.75597
G1 X4.49 Y-27.216 E20.80095
G1 X5.225 Y-27.08 E20.83824
G1 X5.432 Y-27.018 E20.84902
G1 X5.883 Y-27.056 E20.8716
G1 X6.624 Y-27.156 E20.9089
G1 X7.372 Y-27.175 E20.94623
G1 X8.118 Y-27.115 E20.98357
G1 X8.853 Y-26.976 E21.02089
G1 X9.569 Y-26.759 E21.05822
G1 X10.676 Y-26.258 E21.11884
G1 X11.484 Y-25.757 E21.16627
G1 X12 Y-25.355 E21.1989
G1 X12.456 Y-25.079 E21.22549
G1 X13.224 Y-24.473 E21.2743
G1 X13.674 Y-24.064 E21.30464
G1 X14.2 Y-23.532 E21.34196
G1 X14.606 Y-23.03 E21.37418
G1 X14.936 Y-22.581 E21.40198
G1 X15.347 Y-21.955 E21.43934
G1 X15.688 Y-21.289 E21.47667
G1 X15.956 Y-20.591 E21.51397
G1 X16.07 Y-20.189 E21.53481
G1 X16.347 Y-19.471 E21.57321
G1 X16.405 Y-19.251 E21.58456
G1 X16.87 Y-19.211 E21.60784
G1 X17.604 Y-19.067 E21.64516
G1 X18.318 Y-18.846 E21.68245
G1 X19.005 Y-18.55 E21.71977
G1 X19.657 Y-18.182 E21.75712
G1 X20.265 Y-17.746 E21.79445
G1 X20.824 Y-17.249 E21.83177
G1 X21.326 Y-16.694 E21.8691
G1 X21.766 Y-16.09 E21.90638
G1 X22.242 Y-15.23 E21.95542
G1 X22.579 Y-14.505 E21.99531
G1 X22.942 Y-13.544 E22.04656
G1 X23.226 Y-12.586 E22.09641
G1 X23.384 Y-11.942 E22.12949
G1 X23.537 Y-11.161 E22.1692
G1 X23.636 Y-10.489 E22.20309
G1 X23.718 Y-9.641 E22.24559
G1 X23.75 Y-8.967 E22.27925
G1 X23.75 Y6.889 E23.07031
G1 X23.694 Y7.999 E23.12576
G1 X23.571 Y8.997 E23.17593
G1 X23.381 Y9.963 E23.22505
G1 X23.222 Y10.609 E23.25824
G1 X22.944 Y11.543 E23.30686
G1 X22.582 Y12.498 E23.35781
G1 X22.242 Y13.229 E23.39803
G1 X21.891 Y13.89 E23.43537
G1 X21.471 Y14.509 E23.47269
G1 X20.988 Y15.08 E23.51
G1 X20.446 Y15.596 E23.54734
G1 X19.852 Y16.051 E23.58467
G1 X19.214 Y16.44 E23.62195
G1 X18.537 Y16.759 E23.65928
G1 X17.83 Y17.004 E23.69661
G1 X16.9 Y17.218 E23.74422
G1 X16.877 Y18.068 E23.78665
G1 X16.778 Y18.809 E23.82394
G1 X16.6 Y19.536 E23.86128
G1 X16.345 Y20.239 E23.89859
G1 X16.016 Y20.911 E23.93592
G1 X15.618 Y21.545 E23.97327
G1 X15.155 Y22.132 E24.01057
G1 X14.631 Y22.666 E24.04789
G1 X14.054 Y23.142 E24.08521
G1 X13.928 Y23.225 E24.09274
G1 X13.695 Y23.52 E24.11149
G1 X13.171 Y24.054 E24.14882
G1 X12.594 Y24.53 E24.18614
G1 X11.969 Y24.941 E24.22345
G1 X11.303 Y25.283 E24.26081
G1 X10.477 Y25.599 E24.30493
G1 X9.65 Y25.816 E24.34758
G1 X8.91 Y25.927 E24.38492
G1 X8.604 Y25.94 E24.4002
