;FLAVOR:Marlin
;TIME:3061
;Filament used: 1.65162m
;Layer height: 0.15
;MINX:-24.527
;MINY:-24.527
;MINZ:0.3
;MAXX:24.527
;MAXY:24.527
;MAXZ:7.05
;Generated with Cura_SteamEngine 5.2.1
M140 S60
M105
M190 S60
M104 S210
M105
M109 S210
M82 ;absolute extrusion mode
G28 ;Home
G1 Z15.0 F6000 ;Move the platform down 15mm
;Prime the extruder
G92 E0
G1 F200 E3
G92 E0
M141 S28
G92 E0
G92 E0
G1 F1500 E-6.5
;LAYER_COUNT:46
;LAYER:0
M107
G0 F3600 X24.492 Y-.577 Z0.3
;TYPE:SKIRT
G1 F1500 E0
G1 X24.527 Y0.862 E0.07181
G1 X24.479 Y1.614 E0.10941
G1 X24.43 Y2.113 E0.13442
G1 X24.091 Y4.686 E0.2639
G1 X23.871 Y5.663 E0.31386
G1 X23.515 Y6.895 E0.37784
G1 X23.488 Y6.967 E0.38168
G1 X23.06 Y8.403 E0.45643
G1 X22.71 Y9.284 E0.50373
G1 X21.451 Y11.928 E0.64983
G1 X20.877 Y12.869 E0.70482
G1 X20.387 Y13.599 E0.74869
G1 X19.336 Y15.114 E0.84068
G1 X18.727 Y15.848 E0.88826
G1 X16.739 Y17.948 E1.03253
G1 X15.992 Y18.605 E1.08216
G1 X13.731 Y20.342 E1.22441
G1 X13.157 Y20.706 E1.25832
G1 X12.675 Y20.992 E1.28628
G1 X11.985 Y21.376 E1.32567
G1 X10.228 Y22.32 E1.42518
G1 X9.212 Y22.726 E1.47977
G1 X8.562 Y22.963 E1.51428
G1 X6.762 Y23.593 E1.60943
G1 X6.103 Y23.762 E1.64337
G1 X5.577 Y23.88 E1.67026
G1 X4.749 Y24.042 E1.71236
G1 X2.986 Y24.36 E1.80173
G1 X2.013 Y24.45 E1.85048
G1 X0.723 Y24.498 E1.91489
G1 X0.578 Y24.492 E1.92213
G1 X-.862 Y24.527 E1.99399
G1 X-1.613 Y24.479 E2.03153
G1 X-2.125 Y24.429 E2.0572
G1 X-4.684 Y24.091 E2.18598
G1 X-5.62 Y23.881 E2.23383
G1 X-6.571 Y23.61 E2.28317
G1 X-8.414 Y23.056 E2.37918
G1 X-9.284 Y22.71 E2.42589
G1 X-11.761 Y21.53 E2.56278
G1 X-12.45 Y21.141 E2.60225
G1 X-12.961 Y20.817 E2.63244
G1 X-13.599 Y20.387 E2.67082
G1 X-15.115 Y19.336 E2.76285
G1 X-15.873 Y18.705 E2.81206
G1 X-17.956 Y16.731 E2.95523
G1 X-18.604 Y15.992 E3.00427
G1 X-20.347 Y13.723 E3.14701
G1 X-20.885 Y12.87 E3.19733
G1 X-21.51 Y11.732 E3.2621
G1 X-22.318 Y10.231 E3.34715
G1 X-22.726 Y9.212 E3.40191
G1 X-22.963 Y8.562 E3.43642
G1 X-23.593 Y6.762 E3.53157
G1 X-23.762 Y6.103 E3.56551
G1 X-23.887 Y5.542 E3.59418
G1 X-24.36 Y2.994 E3.72348
G1 X-24.45 Y2.013 E3.77262
G1 X-24.498 Y0.723 E3.83703
G1 X-24.492 Y0.578 E3.84427
G1 X-24.527 Y-.862 E3.91613
G1 X-24.479 Y-1.613 E3.95367
G1 X-24.429 Y-2.125 E3.97934
G1 X-24.091 Y-4.688 E4.10832
G1 X-23.879 Y-5.626 E4.15629
G1 X-23.61 Y-6.571 E4.20531
G1 X-23.056 Y-8.414 E4.30132
G1 X-22.788 Y-9.087 E4.33746
G1 X-22.579 Y-9.564 E4.36345
G1 X-21.53 Y-11.762 E4.48495
G1 X-21.141 Y-12.45 E4.52438
G1 X-20.817 Y-12.961 E4.55457
G1 X-20.387 Y-13.599 E4.59296
G1 X-19.336 Y-15.114 E4.68495
G1 X-18.727 Y-15.848 E4.73253
G1 X-16.739 Y-17.948 E4.8768
G1 X-15.992 Y-18.605 E4.92643
G1 X-13.731 Y-20.342 E5.06868
G1 X-13.157 Y-20.706 E5.10259
G1 X-12.674 Y-20.993 E5.13062
G1 X-11.963 Y-21.388 E5.17119
G1 X-10.228 Y-22.32 E5.26945
G1 X-9.212 Y-22.726 E5.32404
G1 X-8.562 Y-22.963 E5.35855
G1 X-6.762 Y-23.593 E5.4537
G1 X-6.103 Y-23.762 E5.48764
G1 X-5.577 Y-23.88 E5.51453
G1 X-4.749 Y-24.042 E5.55663
G1 X-2.986 Y-24.36 E5.646
G1 X-2.013 Y-24.45 E5.69475
G1 X-.723 Y-24.498 E5.75916
G1 X-.578 Y-24.492 E5.7664
G1 X0.862 Y-24.527 E5.83826
G1 X1.613 Y-24.479 E5.8758
G1 X2.125 Y-24.429 E5.90147
G1 X4.685 Y-24.091 E6.0303
G1 X5.436 Y-23.922 E6.0687
G1 X5.925 Y-23.795 E6.09391
G1 X8.399 Y-23.062 E6.22264
G1 X9.284 Y-22.71 E6.27016
G1 X11.761 Y-21.53 E6.40704
G1 X12.208 Y-21.294 E6.43226
G1 X12.88 Y-20.87 E6.4719
G1 X13.582 Y-20.399 E6.51407
G1 X15.114 Y-19.336 E6.6071
G1 X15.848 Y-18.727 E6.65469
G1 X17.948 Y-16.739 E6.79896
G1 X18.605 Y-15.992 E6.84859
G1 X20.342 Y-13.731 E6.99083
G1 X20.706 Y-13.157 E7.02474
G1 X20.992 Y-12.675 E7.05271
G1 X21.364 Y-12.006 E7.09089
G1 X22.245 Y-10.367 E7.18373
G1 X22.535 Y-9.694 E7.22029
G1 X22.726 Y-9.212 E7.24616
G1 X22.963 Y-8.562 E7.28067
G1 X23.594 Y-6.758 E7.37602
G1 X23.828 Y-5.838 E7.42338
G1 X24.042 Y-4.749 E7.47875
G1 X24.36 Y-2.99 E7.56793
G1 X24.45 Y-2.016 E7.61673
G1 X24.498 Y-.722 E7.68133
G1 X24.492 Y-.577 E7.68857
G0 F3600 X24.092 Y-.569
G1 F1500 X24.126 Y0.859 E7.75984
G1 X24.066 Y1.819 E7.80783
G1 X23.698 Y4.615 E7.94852
G1 X23.491 Y5.528 E7.99523
G1 X23.13 Y6.784 E8.06043
G1 X22.68 Y8.276 E8.13817
G1 X22.332 Y9.151 E8.18515
G1 X21.169 Y11.589 E8.31992
G1 X20.796 Y12.247 E8.35765
G1 X20.493 Y12.725 E8.38589
G1 X20.059 Y13.371 E8.42471
G1 X19.023 Y14.865 E8.51542
G1 X18.604 Y15.372 E8.54823
G1 X18.246 Y15.777 E8.5752
G1 X16.459 Y17.662 E8.70479
G1 X15.768 Y18.269 E8.75067
G1 X13.498 Y20.015 E8.89355
G1 X12.686 Y20.529 E8.94149
G1 X11.796 Y21.023 E8.99228
G1 X10.052 Y21.96 E9.09105
G1 X9.075 Y22.35 E9.14353
G1 X8.43 Y22.586 E9.1778
G1 X6.657 Y23.206 E9.2715
G1 X5.752 Y23.437 E9.3181
G1 X4.677 Y23.648 E9.37276
G1 X2.924 Y23.964 E9.46162
G1 X2.019 Y24.048 E9.50697
G1 X0.708 Y24.098 E9.57242
G1 X0.57 Y24.092 E9.57931
G1 X-.859 Y24.126 E9.65063
G1 X-1.828 Y24.065 E9.69907
G1 X-4.615 Y23.698 E9.83931
G1 X-5.553 Y23.485 E9.8873
G1 X-6.411 Y23.241 E9.9318
G1 X-8.282 Y22.678 E10.02928
G1 X-9.152 Y22.331 E10.07601
G1 X-11.589 Y21.169 E10.21071
G1 X-12.247 Y20.796 E10.24844
G1 X-12.737 Y20.485 E10.2774
G1 X-13.371 Y20.059 E10.3155
G1 X-14.865 Y19.023 E10.40621
G1 X-15.372 Y18.604 E10.43902
G1 X-15.781 Y18.242 E10.46627
G1 X-17.669 Y16.453 E10.59603
G1 X-18.291 Y15.742 E10.64316
G1 X-20.017 Y13.496 E10.78448
G1 X-20.519 Y12.702 E10.83135
G1 X-21.158 Y11.543 E10.89738
G1 X-21.819 Y10.315 E10.96695
G1 X-22.128 Y9.63 E11.00445
G1 X-22.35 Y9.075 E11.03427
G1 X-22.586 Y8.43 E11.06853
G1 X-23.206 Y6.657 E11.16224
G1 X-23.45 Y5.698 E11.21161
G1 X-23.964 Y2.929 E11.35212
G1 X-24.048 Y2.019 E11.39771
G1 X-24.098 Y0.708 E11.46316
G1 X-24.092 Y0.57 E11.47005
G1 X-24.126 Y-.859 E11.54137
G1 X-24.065 Y-1.829 E11.58986
G1 X-23.698 Y-4.612 E11.7299
G1 X-23.551 Y-5.266 E11.76335
G1 X-23.421 Y-5.779 E11.78975
G1 X-23.241 Y-6.411 E11.82253
G1 X-22.719 Y-8.145 E11.91288
G1 X-22.46 Y-8.833 E11.94955
G1 X-22.218 Y-9.391 E11.9799
G1 X-21.169 Y-11.589 E12.1014
G1 X-20.796 Y-12.247 E12.13914
G1 X-20.485 Y-12.737 E12.16809
G1 X-20.059 Y-13.371 E12.2062
G1 X-19.023 Y-14.865 E12.2969
G1 X-18.604 Y-15.372 E12.32972
G1 X-18.246 Y-15.777 E12.35669
G1 X-16.459 Y-17.662 E12.48627
G1 X-15.768 Y-18.269 E12.53216
G1 X-13.498 Y-20.016 E12.67507
G1 X-12.714 Y-20.511 E12.72132
G1 X-11.774 Y-21.035 E12.77501
G1 X-10.051 Y-21.96 E12.87258
G1 X-9.075 Y-22.35 E12.92502
G1 X-8.43 Y-22.586 E12.95928
G1 X-6.657 Y-23.206 E13.05299
G1 X-5.752 Y-23.437 E13.09959
G1 X-4.677 Y-23.648 E13.15424
G1 X-2.924 Y-23.964 E13.24311
G1 X-2.019 Y-24.048 E13.28845
G1 X-.708 Y-24.098 E13.35391
G1 X-.57 Y-24.092 E13.3608
G1 X0.859 Y-24.126 E13.43211
G1 X1.828 Y-24.065 E13.48055
G1 X4.614 Y-23.698 E13.62075
G1 X5.551 Y-23.486 E13.66868
G1 X8.273 Y-22.681 E13.81029
G1 X9.15 Y-22.333 E13.85736
G1 X11.589 Y-21.169 E13.99219
G1 X12.247 Y-20.796 E14.02993
G1 X12.736 Y-20.486 E14.05881
G1 X13.354 Y-20.07 E14.09598
G1 X14.873 Y-19.016 E14.18822
G1 X15.372 Y-18.604 E14.2205
G1 X15.777 Y-18.246 E14.24747
G1 X17.662 Y-16.459 E14.37706
G1 X18.269 Y-15.768 E14.42294
G1 X20.017 Y-13.497 E14.56592
G1 X20.509 Y-12.716 E14.61197
G1 X21.012 Y-11.817 E14.66337
G1 X21.882 Y-10.198 E14.75506
G1 X22.246 Y-9.355 E14.80087
G1 X22.586 Y-8.43 E14.85004
G1 X23.205 Y-6.66 E14.94359
G1 X23.374 Y-6.003 E14.97743
G1 X23.488 Y-5.501 E15.00312
G1 X23.648 Y-4.678 E15.04495
G1 X23.963 Y-2.933 E15.13341
G1 X24.026 Y-2.271 E15.16659
G1 X24.059 Y-1.761 E15.19209
G1 X24.098 Y-.707 E15.24471
G1 X24.092 Y-.569 E15.2516
G1 F1500 E8.7516
G0 F3600 X17.375 Y0.00
;TYPE:SUPPORT
G1 F1500 E15.2516
G1 X12.834 Y0.00 E15.47815
G0 F3600 X13.335 Y0.198
G1 F1500 X13.335 Y-.199 E15.49795
G1 F1500 E8.99795
G0 F3600 X13.352 Y-.159
G0 X14.398 Y-.7
G0 X15.3 Y-1.602
G0 X15.843 Y-2.65
G0 X15.803 Y-2.666
G1 F1500 E15.49795
G1 X17.165 Y-2.666 E15.5659
G1 F1500 E9.0659
G0 F3600 X16.002 Y-3.585
G1 F1500 E15.5659
G1 X16.002 Y3.576 E15.92317
G0 F3600 X16.002 Y4.415
G1 F1500 X16.002 Y6.629 E16.03363
G1 F1500 E9.53363
G0 F3600 X15.802 Y5.334
G1 F1500 E16.03363
G1 X16.531 Y5.334 E16.07
G1 F1500 E9.57
G0 F3600 X17.164 Y2.667
G1 F1500 E16.07
G1 X15.803 Y2.667 E16.1379
G1 F1500 E9.6379
G0 F3600 X15.88 Y2.739
G0 X16.08 Y4
G0 X15.442 Y7.866
G0 X15.41 Y8.001
G1 F1500 E16.1379
G1 X12.418 Y8.001 E16.28717
G0 F3600 X11.583 Y8.001
G1 F1500 X9.584 Y8.001 E16.3869
G1 F1500 E9.8869
G0 F3600 X10.668 Y7.804
G1 F1500 E16.3869
G1 X10.668 Y9.085 E16.45081
G0 F3600 X12.251 Y10.668
G1 F1500 X13.667 Y10.668 E16.52145
G0 F3600 X13.335 Y11.058
G1 F1500 X13.335 Y7.801 E16.68394
G1 F1500 E10.18394
G0 F3600 X13.352 Y7.841
G0 X14.398 Y7.3
G0 X15.3 Y6.398
G0 X15.88 Y5.261
G0 X16.043 Y4.458
G0 X16.08 Y-4
G0 X16.002 Y-4.424
G1 F1500 E16.68394
G1 X16.002 Y-6.628 E16.7939
G1 F1500 E10.2939
G0 F3600 X15.802 Y-5.333
G1 F1500 E16.7939
G1 X16.532 Y-5.333 E16.83032
G1 F1500 E10.33032
G0 F3600 X16.48 Y-5.36
G0 X15.442 Y-7.866
G0 X15.412 Y-8
G1 F1500 E16.83032
G1 X12.429 Y-8 E16.97914
G0 F3600 X11.57 Y-8
G1 F1500 X9.584 Y-8 E17.07823
G1 F1500 E10.57823
G0 F3600 X10.668 Y-7.803
G1 F1500 E17.07823
G1 X10.668 Y-9.085 E17.14219
G0 F3600 X12.251 Y-10.668
G1 F1500 X13.668 Y-10.668 E17.21288
G0 F3600 X13.335 Y-11.057
G1 F1500 X13.335 Y-7.802 E17.37527
G1 F1500 E10.87527
G0 F3600 X9.084 Y-10.668
G1 F1500 E17.37527
G1 X7.803 Y-10.668 E17.43918
G0 F3600 X8.001 Y-11.573
G1 F1500 X8.001 Y-9.584 E17.53841
G1 F1500 E11.03841
G0 F3600 X7.969 Y-9.616
G0 X8.08 Y-12
G0 X8.001 Y-12.436
G1 F1500 E17.53841
G1 X8.001 Y-15.411 E17.68684
G1 F1500 E11.18684
G0 F3600 X6.628 Y-16.002
G1 F1500 E17.68684
G1 X4.416 Y-16.002 E17.79719
G0 F3600 X3.581 Y-16.002
G1 F1500 X-3.582 Y-16.002 E18.15456
G0 F3600 X-4.417 Y-16.002
G1 F1500 X-6.627 Y-16.002 E18.26482
G1 F1500 E11.76482
G0 F3600 X-5.334 Y-15.802
G1 F1500 E18.26482
G1 X-5.334 Y-16.532 E18.30124
G1 F1500 E11.80124
G0 F3600 X-2.667 Y-17.165
G1 F1500 E18.30124
G1 X-2.667 Y-15.803 E18.36919
G1 F1500 E11.86919
G0 F3600 X-2.651 Y-15.843
G0 X0.00 Y-17.33
G0 X0.00 Y-17.375
G1 F1500 E18.36919
G1 X0.00 Y-12.834 E18.59574
G0 F3600 X0.196 Y-13.335
G1 F1500 X-.197 Y-13.335 E18.61534
G1 F1500 E12.11534
G0 F3600 X-.159 Y-13.352
G0 X1.116 Y-14.884
G0 X1.91 Y-15.489
G0 X2.65 Y-15.842
G0 X2.667 Y-15.802
G1 F1500 E18.61534
G1 X2.667 Y-17.164 E18.68329
G1 F1500 E12.18329
G0 F3600 X5.334 Y-16.531
G1 F1500 E18.68329
G1 X5.334 Y-15.803 E18.71961
G1 F1500 E12.21961
G0 F3600 X5.35 Y-15.843
G0 X6.398 Y-15.3
G0 X7.3 Y-14.398
G0 X7.841 Y-13.352
G0 X7.801 Y-13.335
G1 F1500 E18.71961
G1 X11.058 Y-13.335 E18.88211
G0 F3600 X10.668 Y-13.667
G1 F1500 X10.668 Y-12.251 E18.95275
G1 F1500 E12.45275
G0 F3600 X10.636 Y-12.283
G0 X5.853 Y-15.635
G0 X4.638 Y-16.029
G0 X-4 Y-16.08
G0 X-5.261 Y-15.88
G0 X-6.398 Y-15.3
G0 X-7.3 Y-14.398
G0 X-7.842 Y-13.351
G0 X-7.802 Y-13.335
G1 F1500 E18.95275
G1 X-11.057 Y-13.335 E19.11514
G0 F3600 X-10.668 Y-13.668
G1 F1500 X-10.668 Y-12.251 E19.18584
G0 F3600 X-9.085 Y-10.668
G1 F1500 X-7.802 Y-10.668 E19.24985
G0 F3600 X-8.001 Y-11.568
G1 F1500 X-8.001 Y-9.584 E19.34883
G1 F1500 E12.84883
G0 F3600 X-8.001 Y-12.431
G1 F1500 E19.34883
G1 X-8.001 Y-15.412 E19.49755
G1 F1500 E12.99755
G0 F3600 X-12.251 Y-10.668
G1 F1500 E19.49755
G1 X-13.667 Y-10.668 E19.5682
G0 F3600 X-13.335 Y-11.058
G1 F1500 X-13.335 Y-7.801 E19.73069
G0 F3600 X-12.418 Y-8.001
G1 F1500 X-15.41 Y-8.001 E19.87996
G1 F1500 E13.37996
G0 F3600 X-16.002 Y-6.629
G1 F1500 E19.87996
G1 X-16.002 Y-4.419 E19.99022
G0 F3600 X-16.002 Y-3.58
G1 F1500 X-16.002 Y3.581 E20.34748
G0 F3600 X-16.002 Y4.42
G1 F1500 X-16.002 Y6.628 E20.45764
G1 F1500 E13.95764
G0 F3600 X-15.802 Y5.333
G1 F1500 E20.45764
G1 X-16.532 Y5.333 E20.49406
G1 F1500 E13.99406
G0 F3600 X-17.165 Y2.666
G1 F1500 E20.49406
G1 X-15.804 Y2.666 E20.56196
G1 F1500 E14.06196
G0 F3600 X-15.843 Y2.65
G0 X-17.33 Y0.00
G0 X-17.375 Y0.00
G1 F1500 E20.56196
G1 X-12.834 Y0.00 E20.78851
G0 F3600 X-13.335 Y-.198
G1 F1500 X-13.335 Y0.199 E20.80832
G1 F1500 E14.30832
G0 F3600 X-13.352 Y0.159
G0 X-14.884 Y-1.116
G0 X-15.489 Y-1.91
G0 X-15.842 Y-2.65
G0 X-15.803 Y-2.667
G1 F1500 E20.80832
G1 X-17.164 Y-2.667 E20.87622
G1 F1500 E14.37622
G0 F3600 X-16.531 Y-5.334
G1 F1500 E20.87622
G1 X-15.803 Y-5.334 E20.91254
G1 F1500 E14.41254
G0 F3600 X-15.843 Y-5.35
G0 X-15.3 Y-6.398
G0 X-14.398 Y-7.3
G0 X-13.261 Y-7.88
G0 X-12 Y-8.08
G0 X-11.583 Y-8.001
G1 F1500 E20.91254
G1 X-9.584 Y-8.001 E21.01227
G1 F1500 E14.51227
G0 F3600 X-10.668 Y-7.804
G1 F1500 E21.01227
G1 X-10.668 Y-9.085 E21.07618
G1 F1500 E14.57618
G0 F3600 X-10.7 Y-9.053
G0 X-13.853 Y-7.635
G0 X-14.884 Y-6.884
G0 X-15.635 Y-5.853
G0 X-16.029 Y-4.638
G0 X-16.08 Y4
G0 X-15.88 Y5.261
G0 X-15.3 Y6.398
G0 X-14.398 Y7.3
G0 X-13.261 Y7.88
G0 X-12 Y8.08
G0 X-10.651 Y7.843
G0 X-10.668 Y7.803
G1 F1500 E21.07618
G1 X-10.668 Y9.085 E21.14014
G1 F1500 E14.64014
G0 F3600 X-11.57 Y8
G1 F1500 E21.14014
G1 X-9.584 Y8 E21.23922
G1 F1500 E14.73922
G0 F3600 X-12.429 Y8
G1 F1500 E21.23922
G1 X-15.412 Y8 E21.38804
G1 F1500 E14.88804
G0 F3600 X-13.335 Y7.802
G1 F1500 E21.38804
G1 X-13.335 Y11.057 E21.55043
G0 F3600 X-13.668 Y10.668
G1 F1500 X-12.251 Y10.668 E21.62113
G0 F3600 X-10.668 Y12.251
G1 F1500 X-10.668 Y13.667 E21.69177
G0 F3600 X-11.058 Y13.335
G1 F1500 X-7.8 Y13.335 E21.85432
G0 F3600 X-8.001 Y12.432
G1 F1500 X-8.001 Y15.411 E22.00294
G1 F1500 E15.50294
G0 F3600 X-6.628 Y16.002
G1 F1500 E22.00294
G1 X-4.416 Y16.002 E22.1133
G0 F3600 X-3.581 Y16.002
G1 F1500 X3.582 Y16.002 E22.47066
G0 F3600 X4.417 Y16.002
G1 F1500 X6.627 Y16.002 E22.58092
G1 F1500 E16.08092
G0 F3600 X5.334 Y15.802
G1 F1500 E22.58092
G1 X5.334 Y16.532 E22.61734
G1 F1500 E16.11734
G0 F3600 X2.667 Y17.165
G1 F1500 E22.61734
G1 X2.667 Y15.803 E22.68529
G1 F1500 E16.18529
G0 F3600 X2.651 Y15.843
G0 X0.00 Y17.33
G0 X0.00 Y17.375
G1 F1500 E22.68529
G1 X0.00 Y12.834 E22.91184
G0 F3600 X-.197 Y13.335
G1 F1500 X0.198 Y13.335 E22.93154
G1 F1500 E16.43154
G0 F3600 X0.159 Y13.352
G0 X-1.116 Y14.884
G0 X-1.91 Y15.489
G0 X-2.65 Y15.842
G0 X-2.667 Y15.802
G1 F1500 E22.93154
G1 X-2.667 Y17.164 E22.9995
G1 F1500 E16.4995
G0 F3600 X-5.334 Y16.531
G1 F1500 E22.9995
G1 X-5.334 Y15.803 E23.03582
G1 F1500 E16.53582
G0 F3600 X-5.35 Y15.843
G0 X-6.398 Y15.3
G0 X-7.3 Y14.398
G0 X-7.88 Y13.261
G0 X-8.08 Y12
G0 X-8.001 Y11.569
G1 F1500 E23.03582
G1 X-8.001 Y9.584 E23.13485
G1 F1500 E16.63485
G0 F3600 X-7.803 Y10.668
G1 F1500 E23.13485
G1 X-9.084 Y10.668 E23.19876
G1 F1500 E16.69876
G0 F3600 X-9.052 Y10.699
G0 X-7.635 Y13.853
G0 X-6.884 Y14.884
G0 X-5.853 Y15.635
G0 X-4.638 Y16.029
G0 X4 Y16.08
G0 X5.261 Y15.88
G0 X6.398 Y15.3
G0 X7.3 Y14.398
G0 X7.88 Y13.261
G0 X8.08 Y12
G0 X7.842 Y10.65
G0 X7.802 Y10.668
G1 F1500 E23.19876
G1 X9.085 Y10.668 E23.26277
G1 F1500 E16.76277
G0 F3600 X8.001 Y11.564
G1 F1500 E23.26277
G1 X8.001 Y9.584 E23.36155
G1 F1500 E16.86155
G0 F3600 X8.001 Y12.427
G1 F1500 E23.36155
G1 X8.001 Y15.412 E23.51047
G1 F1500 E17.01047
G0 F3600 X7.801 Y13.335
G1 F1500 E23.51047
G1 X11.057 Y13.335 E23.67291
G0 F3600 X10.668 Y13.668
G1 F1500 X10.668 Y12.251 E23.74361
G1 F1500 E17.24361
;MESH:bbStock40TGear.stl
G0 F3600 X12.03 Y13.846
G1 F1500 E23.74361
G0 F3600 X11.693 Y14.396
;TYPE:WALL-INNER
G1 F1500 X12.028 Y14.363 E23.7604
G1 X13.49 Y15.173 E23.84379
G1 F1511.3 X12.846 Y13.585 E23.92864
G1 F1591.5 X12.872 Y13.291 E23.94252
G1 X12.715 Y13.525 E23.95577
G1 F1511.3 X11.693 Y14.396 E24.02226
G0 F3600 X12.297 Y14.219
G0 X11.119 Y14.844
G0 X9.92 Y15.967
G0 X9.299 Y16.048
G1 F1500 X9.631 Y16.067 E24.03885
G1 X10.95 Y17.097 E24.12234
G1 X10.583 Y15.506 E24.2038
G1 X10.682 Y15.197 E24.21999
G1 X9.299 Y16.048 E24.301
G0 F3600 X9.92 Y15.967
G0 X8.659 Y16.4
G0 X7.3 Y17.322
G0 X6.675 Y17.304
G1 F1500 X7 Y17.375 E24.3176
G1 X8.141 Y18.602 E24.40119
G1 X8.027 Y16.971 E24.48276
G1 X8.173 Y16.682 E24.49892
G1 X6.675 Y17.304 E24.57984
G0 F3600 X7.3 Y17.322
G0 X5.986 Y17.553
G0 X4.501 Y18.252
G0 X4.195 Y18.256
G1 F1500 X5.131 Y19.644 E24.66336
G1 X5.273 Y18.016 E24.74489
G1 X5.461 Y17.756 E24.7609
G1 X3.886 Y18.137 E24.84174
G1 X4.195 Y18.256 E24.85826
G0 F3600 X4.501 Y18.252
G0 X3.167 Y18.273
G0 X1.59 Y18.731
G0 X1.289 Y18.687
G1 F1500 X1.995 Y20.202 E24.94165
G1 X2.389 Y18.621 E25.02294
G1 X2.616 Y18.393 E25.03899
G1 X1.002 Y18.521 E25.11976
