;FLAVOR:Marlin
;TIME:387
;Filament used: 0.227836m
;Layer height: 0.15
;MINX:-12.718
;MINY:-12.718
;MINZ:0.3
;MAXX:12.718
;MAXY:12.718
;MAXZ:6
;Generated with Cura_SteamEngine 5.2.1
M140 S60
M105
M190 S60
M104 S210
M105
M109 S210
M82 ;absolute extrusion mode
G28 ;Home
G1 Z15.0 F6000 ;Move the platform down 15mm
;Prime the extruder
G92 E0
G1 F200 E3
G92 E0
M141 S28
G92 E0
G92 E0
G1 F1500 E-6.5
;LAYER_COUNT:39
;LAYER:0
M107
G0 F3600 X9.663 Y8.184 Z0.3
;TYPE:SKIRT
G1 F1500 E0
G1 X8.626 Y9.362 E0.0783
G1 X8.114 Y9.87 E0.11428
G1 X7.47 Y10.324 E0.15359
G1 X7.007 Y10.624 E0.18112
G1 X6.56 Y10.877 E0.20674
G1 X4.384 Y11.95 E0.32778
G1 X3.701 Y12.232 E0.36465
G1 X2.909 Y12.404 E0.40508
G1 X2.412 Y12.495 E0.43029
G1 X1.911 Y12.557 E0.45548
G1 X-.517 Y12.718 E0.57688
G1 X-1.256 Y12.718 E0.61374
G1 X-2.051 Y12.575 E0.65404
G1 X-2.549 Y12.468 E0.67946
G1 X-3.036 Y12.333 E0.70467
G1 X-5.351 Y11.549 E0.82661
G1 X-6.06 Y11.255 E0.8649
G1 X-7.111 Y10.555 E0.9279
G1 X-7.513 Y10.243 E0.95329
G1 X-9.354 Y8.633 E1.0753
G1 X-9.773 Y8.214 E1.10487
G1 X-10.158 Y7.724 E1.13596
G1 X-10.614 Y7.023 E1.17768
G1 X-10.869 Y6.574 E1.20344
G1 X-11.961 Y4.362 E1.32651
G1 X-12.187 Y3.814 E1.35609
G1 X-12.338 Y3.237 E1.38584
G1 X-12.489 Y2.444 E1.42612
G1 X-12.557 Y1.912 E1.45287
G1 X-12.718 Y-.516 E1.57427
G1 X-12.718 Y-1.255 E1.61114
G1 X-12.516 Y-2.376 E1.66797
G1 X-12.333 Y-3.037 E1.70219
G1 X-11.551 Y-5.348 E1.8239
G1 X-11.323 Y-5.896 E1.85352
G1 X-11.04 Y-6.4 E1.88235
G1 X-10.557 Y-7.108 E1.92511
G1 X-10.244 Y-7.511 E1.95057
G1 X-8.635 Y-9.351 E2.07252
G1 X-8.118 Y-9.868 E2.10899
G1 X-7.464 Y-10.327 E2.14886
G1 X-6.998 Y-10.628 E2.17653
G1 X-6.558 Y-10.878 E2.20178
G1 X-4.385 Y-11.95 E2.32267
G1 X-3.7 Y-12.232 E2.35962
G1 X-2.909 Y-12.404 E2.40001
G1 X-2.412 Y-12.495 E2.42522
G1 X-1.911 Y-12.557 E2.4504
G1 X0.517 Y-12.718 E2.5718
G1 X1.256 Y-12.718 E2.60867
G1 X2.051 Y-12.575 E2.64897
G1 X2.549 Y-12.468 E2.67438
G1 X3.036 Y-12.333 E2.69959
G1 X5.351 Y-11.549 E2.82153
G1 X5.899 Y-11.322 E2.85113
G1 X6.404 Y-11.037 E2.88006
G1 X7.108 Y-10.557 E2.92257
G1 X7.511 Y-10.245 E2.94799
G1 X9.38 Y-8.611 E3.07185
G1 X9.799 Y-8.191 E3.10145
G1 X10.169 Y-7.703 E3.132
G1 X10.616 Y-7.018 E3.17281
G1 X10.876 Y-6.561 E3.19904
G1 X11.949 Y-4.388 E3.31995
G1 X12.175 Y-3.84 E3.34952
G1 X12.334 Y-3.271 E3.379
G1 X12.494 Y-2.414 E3.42249
G1 X12.556 Y-1.917 E3.44748
G1 X12.718 Y0.514 E3.56903
G1 X12.718 Y1.107 E3.59861
G1 X12.643 Y1.734 E3.63012
G1 X12.469 Y2.546 E3.67155
G1 X12.333 Y3.036 E3.69692
G1 X11.55 Y5.348 E3.8187
G1 X11.323 Y5.896 E3.84829
G1 X11.041 Y6.398 E3.87702
G1 X10.423 Y7.304 E3.93173
G1 X9.663 Y8.184 E3.98974
G0 F3600 X9.062 Y7.656
G1 F1500 X8.025 Y8.834 E4.06804
G1 X7.642 Y9.209 E4.09478
G1 X7.035 Y9.652 E4.13228
G1 X6.394 Y10.067 E4.17037
G1 X4.03 Y11.233 E4.30188
G1 X3.533 Y11.433 E4.32861
G1 X2.905 Y11.589 E4.36089
G1 X2.07 Y11.745 E4.40327
G1 X-.57 Y11.92 E4.53527
G1 X-1.106 Y11.916 E4.56201
G1 X-1.608 Y11.852 E4.58726
G1 X-2.584 Y11.642 E4.63706
G1 X-5.095 Y10.792 E4.76932
G1 X-5.698 Y10.535 E4.80202
G1 X-6.81 Y9.795 E4.86866
G1 X-8.827 Y8.031 E5.00235
G1 X-9.203 Y7.649 E5.02909
G1 X-9.65 Y7.038 E5.06686
G1 X-10.059 Y6.409 E5.10429
G1 X-11.244 Y4.008 E5.23787
G1 X-11.495 Y3.386 E5.27133
G1 X-11.745 Y2.075 E5.33792
G1 X-11.92 Y-.569 E5.47012
G1 X-11.915 Y-1.22 E5.5026
G1 X-11.65 Y-2.56 E5.57074
G1 X-10.793 Y-5.092 E5.7041
G1 X-10.54 Y-5.69 E5.7365
G1 X-9.794 Y-6.811 E5.80368
G1 X-8.033 Y-8.825 E5.93715
G1 X-7.651 Y-9.201 E5.96389
G1 X-7.172 Y-9.559 E5.99373
G1 X-6.392 Y-10.068 E6.04019
G1 X-4.031 Y-11.233 E6.17154
G1 X-3.533 Y-11.433 E6.19832
G1 X-2.905 Y-11.589 E6.2306
G1 X-2.07 Y-11.745 E6.27298
G1 X0.57 Y-11.92 E6.40498
G1 X1.106 Y-11.916 E6.43172
G1 X1.608 Y-11.852 E6.45697
G1 X2.584 Y-11.642 E6.50678
G1 X5.095 Y-10.792 E6.63903
G1 X5.698 Y-10.535 E6.67174
G1 X6.807 Y-9.797 E6.73819
G1 X8.853 Y-8.008 E6.87379
G1 X9.329 Y-7.525 E6.90762
G1 X10.064 Y-6.398 E6.97475
G1 X11.232 Y-4.034 E7.1063
G1 X11.433 Y-3.537 E7.13304
G1 X11.59 Y-2.9 E7.16578
G1 X11.744 Y-2.072 E7.20779
G1 X11.92 Y0.568 E7.3398
G1 X11.916 Y1.104 E7.36654
G1 X11.851 Y1.608 E7.39189
G1 X11.641 Y2.588 E7.44189
G1 X10.793 Y5.092 E7.57379
G1 X10.537 Y5.693 E7.60638
G1 X9.8 Y6.802 E7.67281
G1 X9.062 Y7.656 E7.72912
G0 F3600 X8.762 Y7.391
G1 F1500 X7.725 Y8.569 E7.80742
G1 X7.105 Y9.13 E7.84913
G1 X6.201 Y9.716 E7.90288
G1 X3.853 Y10.874 E8.0335
G1 X3.384 Y11.061 E8.05868
G1 X2.693 Y11.224 E8.09411
G1 X2.017 Y11.348 E8.12839
G1 X-.596 Y11.521 E8.25904
G1 X-1.457 Y11.475 E8.30206
G1 X-2.473 Y11.257 E8.3539
G1 X-4.966 Y10.413 E8.48521
G1 X-5.431 Y10.213 E8.51047
G1 X-6.02 Y9.85 E8.54498
G1 X-6.723 Y9.34 E8.58831
G1 X-8.564 Y7.73 E8.71033
G1 X-9.129 Y7.105 E8.75236
G1 X-9.711 Y6.208 E8.80571
G1 X-10.885 Y3.831 E8.93797
G1 X-11.113 Y3.262 E8.96856
G1 X-11.347 Y2.031 E9.03107
G1 X-11.521 Y-.595 E9.16237
G1 X-11.514 Y-1.101 E9.18762
G1 X-11.398 Y-1.817 E9.2238
G1 X-11.196 Y-2.653 E9.26671
G1 X-10.414 Y-4.964 E9.38843
G1 X-10.215 Y-5.428 E9.41362
G1 X-9.851 Y-6.018 E9.4482
G1 X-9.341 Y-6.721 E9.49153
G1 X-7.732 Y-8.561 E9.61348
G1 X-7.124 Y-9.113 E9.65445
G1 X-6.195 Y-9.719 E9.70979
G1 X-3.854 Y-10.874 E9.84002
G1 X-3.384 Y-11.061 E9.86526
G1 X-2.693 Y-11.224 E9.90068
G1 X-2.017 Y-11.348 E9.93497
G1 X0.596 Y-11.521 E10.06561
G1 X1.457 Y-11.475 E10.10863
G1 X2.473 Y-11.257 E10.16047
G1 X4.966 Y-10.413 E10.29178
G1 X5.515 Y-10.177 E10.3216
G1 X6.563 Y-9.479 E10.38442
G1 X8.59 Y-7.707 E10.51874
G1 X9.023 Y-7.263 E10.54968
G1 X9.714 Y-6.204 E10.61277
G1 X10.873 Y-3.857 E10.74336
G1 X11.061 Y-3.387 E10.76861
G1 X11.224 Y-2.692 E10.80423
G1 X11.347 Y-2.019 E10.83836
G1 X11.521 Y0.594 E10.96901
G1 X11.515 Y1.1 E10.99426
G1 X11.402 Y1.795 E11.02939
G1 X11.256 Y2.476 E11.06413
G1 X10.414 Y4.963 E11.19513
G1 X10.09 Y5.644 E11.23275
G1 X9.486 Y6.554 E11.28724
G1 X8.762 Y7.391 E11.34246
G0 F3600 X10.117 Y7.05
G1 F1500 X8.325 Y9.098 E11.47822
G1 X7.923 Y9.495 E11.50641
G1 X7.483 Y9.838 E11.53424
G1 X6.591 Y10.417 E11.5873
G1 X4.207 Y11.592 E11.7199
G1 X3.684 Y11.805 E11.74807
G1 X3.13 Y11.957 E11.77673
G1 X2.12 Y12.142 E11.82796
G1 X-.543 Y12.319 E11.96111
G1 X-1.109 Y12.317 E11.98935
G1 X-1.674 Y12.247 E12.01775
G1 X-2.691 Y12.028 E12.06965
G1 X-5.223 Y11.171 E12.20302
G1 X-5.879 Y10.895 E12.23852
G1 X-7.053 Y10.114 E12.30887
G1 X-9.09 Y8.332 E12.4439
G1 X-9.488 Y7.931 E12.47208
G1 X-9.828 Y7.498 E12.49955
G1 X-10.41 Y6.602 E12.55285
G1 X-11.603 Y4.185 E12.68733
G1 X-11.817 Y3.661 E12.71557
G1 X-11.945 Y3.162 E12.74127
G1 X-12.142 Y2.127 E12.79383
G1 X-12.319 Y-.542 E12.92728
G1 X-12.317 Y-1.227 E12.96145
G1 X-12.125 Y-2.291 E13.01539
G1 X-11.954 Y-2.909 E13.04739
G1 X-11.172 Y-5.22 E13.1691
G1 X-10.896 Y-5.877 E13.20466
G1 X-10.117 Y-7.049 E13.27487
G1 X-8.334 Y-9.088 E13.41
G1 X-7.933 Y-9.486 E13.43819
G1 X-7.486 Y-9.837 E13.46654
G1 X-6.586 Y-10.418 E13.51999
G1 X-4.208 Y-11.591 E13.65227
G1 X-3.684 Y-11.805 E13.68051
G1 X-3.13 Y-11.957 E13.70917
G1 X-2.12 Y-12.142 E13.7604
G1 X0.543 Y-12.319 E13.89355
G1 X1.109 Y-12.317 E13.92179
G1 X1.674 Y-12.247 E13.95019
G1 X2.691 Y-12.028 E14.00209
G1 X5.223 Y-11.171 E14.13545
G1 X5.878 Y-10.896 E14.1709
G1 X7.049 Y-10.117 E14.24106
G1 X9.117 Y-8.309 E14.37811
G1 X9.515 Y-7.908 E14.40629
G1 X9.834 Y-7.484 E14.43277
G1 X10.413 Y-6.597 E14.48561
G1 X11.591 Y-4.211 E14.61837
G1 X11.804 Y-3.688 E14.64654
G1 X11.956 Y-3.134 E14.6752
G1 X12.142 Y-2.12 E14.72663
G1 X12.319 Y0.541 E14.85969
G1 X12.317 Y1.106 E14.88787
G1 X12.246 Y1.672 E14.91633
G1 X12.027 Y2.695 E14.96853
G1 X11.172 Y5.22 E15.10153
G1 X10.898 Y5.872 E15.13681
G1 X10.117 Y7.05 E15.20732
G1 F1500 E8.70732
;MESH:bbStock16TGear.stl
G0 F3600 X7.653 Y4.748
G0 X6.755 Y4.15
G0 X5.306 Y3.278
G1 F1500 E15.20732
G0 F3600 X4.925 Y3.502
;TYPE:WALL-INNER
G1 F1125.7 X5.13 Y3.427 E15.22184
G1 X6.292 Y3.756 E15.30212
G1 X5.522 Y2.947 E15.37637
G1 X5.453 Y2.713 E15.39259
G1 X4.925 Y3.502 E15.4557
G0 F3600 X5.306 Y3.278
G0 X5.782 Y1
G0 X5.822 Y1.35
G1 F1500 X6.004 Y1.279 E15.46545
G1 X7.501 Y1.1 E15.54066
G1 X6.153 Y0.505 E15.61418
G1 F1271.2 X5.84 Y0.131 E15.64289
G1 F1010.1 X5.76 Y-0.018 E15.65542
G1 F1149.4 X5.58 Y0.471 E15.68934
G1 F1500 X5.54 Y0.619 E15.69699
G1 X5.339 Y1.081 E15.72213
G1 X5.123 Y1.362 E15.73981
G1 X5.373 Y1.415 E15.75256
G1 X5.524 Y1.536 E15.76221
G1 X5.585 Y1.641 E15.76827
G1 X5.632 Y1.529 E15.77433
G1 X5.822 Y1.35 E15.78735
G0 F3600 X5.782 Y1
G0 X5.579 Y-1.205
G0 X5.236 Y-1.322
G1 F1132.1 X5.419 Y-1.076 E15.80762
G1 F1049 X5.684 Y-.484 E15.85389
G1 F1010.1 X5.69 Y-.664 E15.86724
G1 F1041.7 X5.853 Y-1.071 E15.89873
G1 F1038.1 X6.041 Y-1.225 E15.91625
G1 X7.025 Y-1.773 E15.99745
G1 X5.971 Y-1.798 E16.07346
G1 X5.754 Y-1.854 E16.08961
G1 X5.677 Y-1.594 E16.10916
G1 X5.52 Y-1.408 E16.12671
G1 F1083 X5.236 Y-1.322 E16.14721
G0 F3600 X5.579 Y-1.205
G0 X5.476 Y-2.268
G0 X4.956 Y-3.811
G0 X4.592 Y-4.001
G1 F1125.7 X5.12 Y-3.212 E16.21033
G1 X5.129 Y-3.43 E16.22483
G1 X5.879 Y-4.378 E16.30519
G1 X4.837 Y-3.975 E16.37946
G1 X4.592 Y-4.001 E16.39584
G0 F3600 X4.956 Y-3.811
G0 X3.568 Y-4.764
G0 X2.713 Y-5.453
G1 F1125.7 X3.502 Y-4.925 E16.45895
G1 X3.427 Y-5.13 E16.47346
G1 X3.756 Y-6.292 E16.55375
G1 X2.947 Y-5.522 E16.628
G1 X2.713 Y-5.453 E16.64421
G0 F3600 X3.12 Y-5.416
G0 X1 Y-5.782
G0 X1.35 Y-5.822
G1 F1500 X1.279 Y-6.004 E16.65396
G1 X1.1 Y-7.505 E16.72938
G1 X0.526 Y-6.207 E16.80018
G1 X0.358 Y-6.017 E16.81284
G1 F1156.1 X-0.095 Y-5.749 E16.84691
G1 F1060.1 X0.132 Y-5.672 E16.86383
G1 F1342.3 X0.619 Y-5.54 E16.89196
G1 F1500 X1.081 Y-5.34 E16.91708
G1 X1.362 Y-5.123 E16.93479
G1 X1.415 Y-5.373 E16.94754
G1 X1.537 Y-5.525 E16.95726
G1 X1.639 Y-5.586 E16.96319
G1 X1.529 Y-5.633 E16.96916
G1 X1.35 Y-5.822 E16.98215
G0 F3600 X1 Y-5.782
G0 X-.494 Y-5.87
G0 X-1.625 Y-6.036
G0 X-1.855 Y-5.754
G1 F1038.1 X-1.594 Y-5.677 E17.00177
G1 X-1.408 Y-5.52 E17.01931
G1 F1083 X-1.322 Y-5.237 E17.03975
G1 F1132.1 X-1.076 Y-5.419 E17.05998
G1 F1047.1 X-.567 Y-5.67 E17.10054
G1 F1005 X-1.071 Y-5.853 E17.14046
G1 F1038.1 X-1.225 Y-6.041 E17.15798
G1 X-1.773 Y-7.023 E17.23906
G1 X-1.798 Y-5.971 E17.31492
G1 X-1.855 Y-5.754 E17.33109
G0 F3600 X-1.625 Y-6.036
G0 X-3.036 Y-5.12
G0 X-4.019 Y-5.394
G0 X-4.378 Y-5.879
G1 F1125.7 X-3.975 Y-4.837 E17.40536
G1 X-4.002 Y-4.592 E17.42175
G1 X-3.212 Y-5.12 E17.48492
G1 X-3.43 Y-5.129 E17.49942
G1 X-4.378 Y-5.879 E17.57978
G0 F3600 X-4.019 Y-5.394
G0 X-4.109 Y-4.543
G0 X-4.764 Y-3.568
G0 X-5.777 Y-3.445
G0 X-6.291 Y-3.756
G1 F1127.8 X-5.522 Y-2.947 E17.65384
G1 X-5.454 Y-2.711 E17.67014
G1 X-4.925 Y-3.502 E17.73328
G1 X-5.13 Y-3.427 E17.74777
G1 X-6.291 Y-3.756 E17.82784
G0 F3600 X-5.777 Y-3.445
G0 X-5.782 Y-1
G0 X-5.822 Y-1.35
G1 F1500 X-6.004 Y-1.278 E17.8376
G1 X-7.505 Y-1.1 E17.91301
G1 X-6.207 Y-.526 E17.98382
G1 X-6.017 Y-.358 E17.99647
G1 F1156.1 X-5.749 Y0.095 E18.03054
G1 F1060.1 X-5.672 Y-.132 E18.04746
G1 F1342.3 X-5.54 Y-.619 E18.0756
G1 F1500 X-5.339 Y-1.081 E18.10073
G1 X-5.125 Y-1.361 E18.11831
G1 X-5.373 Y-1.415 E18.13098
G1 X-5.525 Y-1.537 E18.1407
G1 X-5.586 Y-1.639 E18.14663
G1 X-5.633 Y-1.529 E18.1526
G1 X-5.822 Y-1.35 E18.16558
G0 F3600 X-5.782 Y-1
G0 X-5.891 Y0.845
G0 X-6.52 Y1.649
G0 X-7.024 Y1.773
G1 F1038.1 X-5.971 Y1.798 E18.24152
G1 X-5.754 Y1.855 E18.25769
G1 X-5.699 Y1.636 E18.27397
G1 F1083 X-5.405 Y1.358 E18.30193
G1 F1129.9 X-5.237 Y1.322 E18.31331
G1 X-5.418 Y1.075 E18.33359
G1 F1047.1 X-5.67 Y0.567 E18.37412
G1 X-5.81 Y0.975 E18.40494
G1 F1083 X-6.098 Y1.258 E18.43284
G1 F1038.1 X-7.024 Y1.773 E18.50923
G0 F3600 X-6.52 Y1.649
G0 X-5.769 Y2.057
G0 X-5.12 Y3.036
G0 X-5.394 Y4.019
G0 X-5.879 Y4.378
G1 F1125.7 X-4.837 Y3.975 E18.5835
G1 X-4.592 Y4.001 E18.59988
G1 X-5.103 Y3.236 E18.66104
G1 X-5.129 Y3.43 E18.67405
G1 X-5.879 Y4.378 E18.75441
G0 F3600 X-5.394 Y4.019
G0 X-4.543 Y4.109
G0 X-3.568 Y4.764
G0 X-3.445 Y5.777
G0 X-3.757 Y6.294
G1 F1127.8 X-2.947 Y5.522 E18.82866
G1 X-2.711 Y5.454 E18.84495
G1 X-3.476 Y4.944 E18.90596
G1 X-3.426 Y5.13 E18.91874
G1 X-3.757 Y6.294 E18.99904
G0 F3600 X-3.445 Y5.777
G0 X-1 Y5.782
G0 X-1.35 Y5.822
G1 F1500 X-1.279 Y6.004 E19.00879
G1 X-1.1 Y7.501 E19.084
G1 X-.509 Y6.161 E19.15707
G1 X-.358 Y6.016 E19.16751
G1 F1156.1 X0.095 Y5.749 E19.20155
G1 F1060.1 X-.132 Y5.672 E19.21847
G1 F1342.3 X-.619 Y5.54 E19.24661
G1 F1500 X-1.081 Y5.339 E19.27174
G1 X-1.361 Y5.125 E19.28932
G1 X-1.415 Y5.373 E19.30199
G1 X-1.536 Y5.524 E19.31164
G1 X-1.641 Y5.585 E19.3177
G1 X-1.529 Y5.632 E19.32376
G1 X-1.35 Y5.822 E19.33678
G0 F3600 X-1 Y5.782
G0 X1.163 Y5.638
G0 X1.076 Y5.419
G1 F1050.8 X0.486 Y5.684 E19.38284
G1 F1011.8 X0.664 Y5.69 E19.39602
G1 F1087 X0.975 Y5.81 E19.41897
G1 F1083 X1.258 Y6.098 E19.44687
G1 F1038.1 X1.773 Y7.024 E19.52325
G1 X1.798 Y5.971 E19.59919
G1 X1.854 Y5.754 E19.61534
G1 X1.636 Y5.699 E19.63155
G1 F1083 X1.358 Y5.405 E19.65951
G1 F1132.1 X1.322 Y5.236 E19.67093
G1 X1.076 Y5.419 E19.6912
G0 F3600 X1.163 Y5.638
G0 X2.268 Y5.476
G0 X3.648 Y5.06
G0 X3.212 Y5.12
G1 F1125.7 X3.43 Y5.129 E19.70571
G1 X4.378 Y5.879 E19.78606
G1 X3.975 Y4.837 E19.86034
G1 X4.001 Y4.592 E19.87671
G1 X3.212 Y5.12 E19.93983
G0 F3600 X3.648 Y5.06
G0 X2.815 Y5.108
G0 X1.717 Y5.579
G0 X1.922 Y4.088
G0 X1.69 Y3.991
;TYPE:WALL-OUTER
G1 F1209.7 X1.516 Y4.411 E19.96795
G1 F1227 X1.253 Y4.745 E19.99388
G1 F1360.5 X0.85 Y5.012 E20.02047
G1 F1500 X0.418 Y5.183 E20.04365
G1 X0.027 Y5.235 E20.06333
G1 X-.418 Y5.183 E20.08568
G1 X-.862 Y5.004 E20.10956
G1 F1366.7 X-1.251 Y4.743 E20.13521
G1 F1232 X-1.516 Y4.411 E20.16102
G1 F1209.7 X-1.69 Y3.991 E20.18914
G1 F1207.2 X-1.749 Y3.537 E20.21752
G1 X-1.689 Y3.079 E20.24615
G1 F1209.7 X-1.517 Y2.663 E20.274
G1 F1202.4 X-1.251 Y2.338 E20.30014
G1 F1324.5 X-1.202 Y1.822 E20.32943
G1 F1363.6 X-1.238 Y1.238 E20.36154
G1 X-1.822 Y1.202 E20.39365
G1 F1327.4 X-2.338 Y1.251 E20.42287
G1 F1202.4 X-2.663 Y1.517 E20.44901
G1 F1207.2 X-3.08 Y1.69 E20.47699
G1 X-3.536 Y1.749 E20.50549
G1 X-3.991 Y1.69 E20.53393
G1 F1209.7 X-4.411 Y1.516 E20.56206
G1 F1197.6 X-4.752 Y1.263 E20.58859
G1 F1324.5 X-5.011 Y0.85 E20.61614
G1 F1500 X-5.17 Y0.467 E20.63682
G1 X-5.235 Y0.027 E20.65901
G1 X-5.183 Y-.418 E20.68137
G1 X-5.004 Y-.862 E20.70525
G1 F1366.7 X-4.743 Y-1.251 E20.7309
G1 F1232 X-4.411 Y-1.516 E20.7567
G1 F1209.7 X-3.991 Y-1.69 E20.78483
G1 F1207.2 X-3.536 Y-1.749 E20.81327
G1 X-3.08 Y-1.69 E20.84177
G1 X-2.663 Y-1.517 E20.86976
G1 F1202.4 X-2.338 Y-1.251 E20.89589
G1 F1321.6 X-1.752 Y-1.203 E20.92919
G1 F1357.5 X-1.238 Y-1.238 E20.95759
G1 X-1.203 Y-1.752 E20.98599
G1 F1321.6 X-1.251 Y-2.338 E21.01928
G1 F1202.4 X-1.517 Y-2.663 E21.04542
G1 F1209.7 X-1.69 Y-3.08 E21.07335
G1 F1207.2 X-1.749 Y-3.535 E21.10179
G1 X-1.689 Y-3.992 E21.13037
G1 F1209.7 X-1.516 Y-4.41 E21.15835
G1 F1197.6 X-1.263 Y-4.752 E21.18493
G1 F1324.5 X-.85 Y-5.012 E21.21251
G1 F1500 X-.467 Y-5.17 E21.23318
G1 X-0.027 Y-5.235 E21.25537
G1 X0.418 Y-5.183 E21.27772
G1 X0.828 Y-5.022 E21.2997
G1 F1324.5 X1.263 Y-4.752 E21.32862
G1 F1197.6 X1.516 Y-4.41 E21.35521
G1 F1207.2 X1.689 Y-3.992 E21.38325
G1 X1.749 Y-3.537 E21.4117
G1 F1209.7 X1.69 Y-3.08 E21.4402
G1 X1.517 Y-2.663 E21.46813
G1 F1204.8 X1.251 Y-2.338 E21.49422
G1 F1321.6 X1.203 Y-1.752 E21.52751
G1 F1357.5 X1.239 Y-1.239 E21.55586
G1 F1360.5 X1.822 Y-1.202 E21.588
G1 F1327.4 X2.338 Y-1.251 E21.61722
G1 F1204.8 X2.663 Y-1.517 E21.6433
G1 F1209.7 X3.08 Y-1.69 E21.67123
G1 F1207.2 X3.536 Y-1.749 E21.69973
G1 X3.991 Y-1.69 E21.72818
G1 F1209.7 X4.411 Y-1.516 E21.7563
G1 F1227 X4.745 Y-1.253 E21.78223
G1 F1360.5 X5.012 Y-.85 E21.80882
G1 F1500 X5.183 Y-.418 E21.832
G1 X5.237 Y-0.005 E21.85278
G1 X5.183 Y0.418 E21.87405
G1 X5.022 Y0.828 E21.89603
G1 F1324.5 X4.752 Y1.263 E21.92496
G1 F1197.6 X4.411 Y1.516 E21.95149
G1 F1209.7 X3.991 Y1.69 E21.97961
G1 F1207.2 X3.536 Y1.749 E22.00805
G1 X3.08 Y1.69 E22.03656
G1 F1209.7 X2.663 Y1.517 E22.06448
G1 F1204.8 X2.338 Y1.251 E22.09057
G1 F1321.6 X1.752 Y1.203 E22.12386
G1 F1357.5 X1.239 Y1.239 E22.15221
G1 F1360.5 X1.202 Y1.822 E22.18435
G1 F1327.4 X1.251 Y2.338 E22.21357
G1 F1202.4 X1.517 Y2.663 E22.23971
G1 F1207.2 X1.689 Y3.079 E22.26761
G1 X1.749 Y3.535 E22.29612
G1 F1209.7 X1.69 Y3.991 E22.32457
G0 F3600 X1.614 Y4.176
