;FLAVOR:Marlin
;TIME:1002
;Filament used: 0.629292m
;Layer height: 0.15
;MINX:-16.875
;MINY:-16.875
;MINZ:0.3
;MAXX:16.875
;MAXY:16.875
;MAXZ:7.05
;Generated with Cura_SteamEngine 5.2.1
M140 S60
M105
M190 S60
M104 S210
M105
M109 S210
M82 ;absolute extrusion mode
G28 ;Home
G1 Z15.0 F6000 ;Move the platform down 15mm
;Prime the extruder
G92 E0
G1 F200 E3
G92 E0
M141 S28
G92 E0
G92 E0
G1 F1500 E-6.5
;LAYER_COUNT:46
;LAYER:0
M107
G0 F3600 X8.53 Y14.529 Z0.3
;TYPE:SKIRT
G1 F1500 E0
G1 X7.873 Y14.939 E0.03864
G1 X7.351 Y15.214 E0.06807
G1 X6.657 Y15.515 E0.10581
G1 X6.138 Y15.712 E0.13351
G1 X4.303 Y16.297 E0.2296
G1 X3.749 Y16.466 E0.25849
G1 X3.18 Y16.595 E0.2876
G1 X2.373 Y16.715 E0.3283
G1 X1.865 Y16.765 E0.35377
G1 X-0.009 Y16.853 E0.44737
G1 X-.648 Y16.875 E0.47927
G1 X-1.23 Y16.852 E0.50833
G1 X-2.025 Y16.761 E0.54825
G1 X-2.56 Y16.672 E0.57531
G1 X-4.352 Y16.28 E0.66682
G1 X-4.994 Y16.132 E0.69969
G1 X-5.556 Y15.958 E0.72904
G1 X-6.505 Y15.586 E0.7799
G1 X-8.418 Y14.599 E0.88729
G1 X-8.997 Y14.291 E0.92001
G1 X-9.493 Y13.979 E0.94925
G1 X-10.305 Y13.38 E0.99959
G1 X-11.926 Y11.907 E1.10886
G1 X-12.382 Y11.482 E1.13996
G1 X-12.78 Y11.053 E1.16915
G1 X-13.213 Y10.511 E1.20376
G1 X-13.542 Y10.067 E1.23133
G1 X-14.59 Y8.433 E1.32818
G1 X-14.942 Y7.868 E1.36139
G1 X-15.213 Y7.352 E1.39047
G1 X-15.516 Y6.654 E1.42843
G1 X-15.71 Y6.141 E1.45579
G1 X-16.312 Y4.255 E1.55456
G1 X-16.467 Y3.745 E1.58116
G1 X-16.595 Y3.18 E1.61006
G1 X-16.715 Y2.373 E1.65076
G1 X-16.765 Y1.865 E1.67623
G1 X-16.853 Y-0.009 E1.76983
G1 X-16.875 Y-.647 E1.80168
G1 X-16.852 Y-1.228 E1.83069
G1 X-16.761 Y-2.025 E1.87071
G1 X-16.672 Y-2.56 E1.89777
G1 X-16.28 Y-4.35 E1.98918
G1 X-16.133 Y-4.989 E2.0219
G1 X-15.959 Y-5.552 E2.0513
G1 X-15.678 Y-6.265 E2.08953
G1 X-15.458 Y-6.752 E2.11619
G1 X-14.6 Y-8.416 E2.2096
G1 X-14.294 Y-8.992 E2.24214
G1 X-13.964 Y-9.513 E2.2729
G1 X-13.329 Y-10.36 E2.32572
G1 X-11.907 Y-11.926 E2.43125
G1 X-11.483 Y-12.381 E2.46228
G1 X-11.054 Y-12.779 E2.49147
G1 X-10.511 Y-13.213 E2.52615
G1 X-9.98 Y-13.598 E2.55888
G1 X-8.469 Y-14.568 E2.64846
G1 X-7.869 Y-14.942 E2.68373
G1 X-7.352 Y-15.213 E2.71285
G1 X-6.657 Y-15.515 E2.75066
G1 X-6.138 Y-15.712 E2.77835
G1 X-4.303 Y-16.297 E2.87444
G1 X-3.749 Y-16.466 E2.90334
G1 X-3.18 Y-16.595 E2.93245
G1 X-2.373 Y-16.715 E2.97315
G1 X-1.865 Y-16.765 E2.99862
G1 X0.009 Y-16.853 E3.09221
G1 X0.648 Y-16.875 E3.12411
G1 X1.23 Y-16.852 E3.15317
G1 X2.025 Y-16.761 E3.19309
G1 X2.56 Y-16.672 E3.22015
G1 X4.352 Y-16.28 E3.31167
G1 X4.994 Y-16.132 E3.34454
G1 X5.556 Y-15.958 E3.37389
G1 X6.506 Y-15.585 E3.42481
G1 X8.418 Y-14.599 E3.53213
G1 X8.997 Y-14.291 E3.56485
G1 X9.494 Y-13.978 E3.59416
G1 X10.044 Y-13.572 E3.62826
G1 X10.443 Y-13.257 E3.65362
G1 X11.926 Y-11.907 E3.75368
G1 X12.381 Y-11.483 E3.7847
G1 X12.779 Y-11.054 E3.8139
G1 X13.213 Y-10.511 E3.84858
G1 X13.608 Y-9.964 E3.88224
G1 X14.56 Y-8.48 E3.9702
G1 X14.941 Y-7.869 E4.00613
G1 X15.225 Y-7.325 E4.03674
G1 X15.652 Y-6.326 E4.09095
G1 X16.306 Y-4.273 E4.19844
G1 X16.466 Y-3.748 E4.22582
G1 X16.595 Y-3.18 E4.25488
G1 X16.716 Y-2.365 E4.29599
G1 X16.766 Y-1.852 E4.3217
G1 X16.853 Y0.009 E4.41465
G1 X16.875 Y0.647 E4.4465
G1 X16.852 Y1.228 E4.47551
G1 X16.763 Y2.01 E4.51477
G1 X16.678 Y2.528 E4.54096
G1 X16.281 Y4.347 E4.63385
G1 X16.132 Y4.992 E4.66688
G1 X15.959 Y5.552 E4.69612
G1 X15.678 Y6.265 E4.73435
G1 X15.458 Y6.752 E4.76101
G1 X14.6 Y8.416 E4.85442
G1 X14.294 Y8.992 E4.88696
G1 X13.981 Y9.49 E4.9163
G1 X13.573 Y10.043 E4.95059
G1 X13.162 Y10.547 E4.98303
G1 X11.504 Y12.358 E5.10553
G1 X11.048 Y12.784 E5.13666
G1 X10.51 Y13.213 E5.17099
G1 X9.992 Y13.589 E5.20293
G1 X8.53 Y14.529 E5.28964
G0 F3600 X8.275 Y14.217
G1 F1500 X7.662 Y14.6 E5.3257
G1 X7.191 Y14.848 E5.35226
G1 X6.508 Y15.144 E5.3894
G1 X6.017 Y15.331 E5.41561
G1 X4.231 Y15.901 E5.50914
G1 X3.632 Y16.083 E5.54037
G1 X3.12 Y16.2 E5.56658
G1 X2.445 Y16.302 E5.60063
G1 X1.847 Y16.365 E5.63063
G1 X-0.023 Y16.453 E5.72403
G1 X-.662 Y16.475 E5.75593
G1 X-1.185 Y16.455 E5.78204
G1 X-1.839 Y16.382 E5.81487
G1 X-2.474 Y16.282 E5.84694
G1 X-4.262 Y15.89 E5.93827
G1 X-4.904 Y15.742 E5.97114
G1 X-5.41 Y15.585 E5.99757
G1 X-6.004 Y15.352 E6.0294
G1 X-6.571 Y15.101 E6.06034
G1 X-8.23 Y14.246 E6.15345
G1 X-8.809 Y13.938 E6.18617
G1 X-9.255 Y13.657 E6.21247
G1 X-10.06 Y13.063 E6.26238
G1 X-11.653 Y11.615 E6.36978
G1 X-12.109 Y11.19 E6.40088
G1 X-12.468 Y10.803 E6.42721
G1 X-12.901 Y10.261 E6.46182
G1 X-13.277 Y9.74 E6.49388
G1 X-14.251 Y8.222 E6.58386
G1 X-14.603 Y7.657 E6.61707
G1 X-14.847 Y7.192 E6.64327
G1 X-15.145 Y6.505 E6.68063
G1 X-15.329 Y6.019 E6.70656
G1 X-15.929 Y4.139 E6.80501
G1 X-16.084 Y3.629 E6.83161
G1 X-16.2 Y3.12 E6.85765
G1 X-16.302 Y2.445 E6.89171
G1 X-16.365 Y1.847 E6.92171
G1 X-16.453 Y-0.023 E7.01511
G1 X-16.475 Y-.661 E7.04696
G1 X-16.455 Y-1.184 E7.07307
G1 X-16.382 Y-1.839 E7.10595
G1 X-16.282 Y-2.474 E7.13802
G1 X-15.743 Y-4.899 E7.26195
G1 X-15.587 Y-5.406 E7.28842
G1 X-15.353 Y-6.003 E7.32041
G1 X-15.102 Y-6.569 E7.3513
G1 X-14.247 Y-8.228 E7.44441
G1 X-13.941 Y-8.804 E7.47695
G1 X-13.643 Y-9.273 E7.50468
G1 X-13.015 Y-10.112 E7.55696
G1 X-11.615 Y-11.653 E7.66083
G1 X-11.191 Y-12.108 E7.69186
G1 X-10.805 Y-12.466 E7.71812
G1 X-10.262 Y-12.9 E7.7528
G1 X-9.764 Y-13.261 E7.78349
G1 X-8.257 Y-14.228 E7.87282
G1 X-7.657 Y-14.602 E7.9081
G1 X-7.192 Y-14.847 E7.93432
G1 X-6.508 Y-15.144 E7.97152
G1 X-6.017 Y-15.331 E7.99773
G1 X-4.231 Y-15.901 E8.09127
G1 X-3.632 Y-16.083 E8.1225
G1 X-3.12 Y-16.2 E8.1487
G1 X-2.445 Y-16.302 E8.18276
G1 X-1.847 Y-16.365 E8.21276
G1 X0.023 Y-16.453 E8.30616
G1 X0.662 Y-16.475 E8.33806
G1 X1.185 Y-16.455 E8.36417
G1 X1.839 Y-16.382 E8.397
G1 X2.474 Y-16.282 E8.42907
G1 X4.262 Y-15.89 E8.52039
G1 X4.904 Y-15.742 E8.55326
G1 X5.41 Y-15.585 E8.57969
G1 X6.107 Y-15.31 E8.61707
G1 X6.569 Y-15.102 E8.64235
G1 X8.23 Y-14.246 E8.73558
G1 X8.809 Y-13.938 E8.7683
G1 X9.256 Y-13.656 E8.79466
G1 X10.098 Y-13.03 E8.84701
G1 X11.653 Y-11.615 E8.9519
G1 X12.108 Y-11.191 E8.98293
G1 X12.466 Y-10.805 E9.00919
G1 X12.9 Y-10.262 E9.04387
G1 X13.271 Y-9.748 E9.0755
G1 X14.221 Y-8.269 E9.1632
G1 X14.602 Y-7.658 E9.19912
G1 X14.857 Y-7.168 E9.22668
G1 X15.276 Y-6.186 E9.27995
G1 X15.924 Y-4.156 E9.38626
G1 X16.084 Y-3.631 E9.41364
G1 X16.2 Y-3.12 E9.43978
G1 X16.302 Y-2.445 E9.47384
G1 X16.366 Y-1.833 E9.50454
G1 X16.453 Y0.023 E9.59724
G1 X16.475 Y0.661 E9.62909
G1 X16.455 Y1.184 E9.6552
G1 X16.382 Y1.839 E9.68808
G1 X16.287 Y2.443 E9.71858
G1 X15.892 Y4.257 E9.8112
G1 X15.743 Y4.902 E9.84423
G1 X15.587 Y5.406 E9.87055
G1 X15.353 Y6.003 E9.90254
G1 X15.102 Y6.569 E9.93343
G1 X14.247 Y8.228 E10.02655
G1 X13.941 Y8.804 E10.05909
G1 X13.659 Y9.252 E10.0855
G1 X13.251 Y9.805 E10.11978
G1 X12.867 Y10.277 E10.15014
G1 X11.209 Y12.088 E10.27264
G1 X10.798 Y12.472 E10.3007
G1 X9.981 Y13.12 E10.35272
G1 X8.275 Y14.217 E10.45391
G0 F3600 X8.063 Y13.878
G1 F1500 X7.252 Y14.385 E10.50163
G1 X6.443 Y14.737 E10.54565
G1 X5.895 Y14.95 E10.57498
G1 X4.07 Y15.532 E10.67055
G1 X3.295 Y15.769 E10.71098
G1 X2.385 Y15.906 E10.75689
G1 X1.828 Y15.965 E10.78483
G1 X-0.037 Y16.053 E10.87798
G1 X-.91 Y16.083 E10.92156
G1 X-2.158 Y15.942 E10.98422
G1 X-4.172 Y15.5 E11.08709
G1 X-5.05 Y15.298 E11.13204
G1 X-6.188 Y14.848 E11.19309
G1 X-8.042 Y13.893 E11.29714
G1 X-8.829 Y13.475 E11.3416
G1 X-9.805 Y12.755 E11.40211
G1 X-11.381 Y11.322 E11.50838
G1 X-12.006 Y10.739 E11.55102
G1 X-12.588 Y10.011 E11.59752
G1 X-12.94 Y9.523 E11.62754
G1 X-13.911 Y8.01 E11.71723
G1 X-14.387 Y7.245 E11.76218
G1 X-14.879 Y6.113 E11.82376
G1 X-15.547 Y4.023 E11.93323
G1 X-15.769 Y3.293 E11.97129
G1 X-15.906 Y2.385 E12.0171
G1 X-15.965 Y1.828 E12.04505
G1 X-16.053 Y-0.037 E12.1382
G1 X-16.083 Y-.908 E12.18168
G1 X-15.942 Y-2.157 E12.24439
G1 X-15.501 Y-4.17 E12.3472
G1 X-15.301 Y-5.039 E12.39169
G1 X-14.847 Y-6.191 E12.45346
G1 X-13.894 Y-8.04 E12.55724
G1 X-13.473 Y-8.833 E12.60203
G1 X-12.706 Y-9.857 E12.66586
G1 X-11.322 Y-11.381 E12.76857
G1 X-10.738 Y-12.008 E12.81132
G1 X-9.818 Y-12.743 E12.87007
G1 X-8.046 Y-13.889 E12.97535
G1 X-7.251 Y-14.384 E13.02207
G1 X-6.445 Y-14.736 E13.06595
G1 X-5.895 Y-14.95 E13.09539
G1 X-4.07 Y-15.532 E13.19096
G1 X-3.295 Y-15.769 E13.23139
G1 X-2.385 Y-15.906 E13.2773
G1 X-1.828 Y-15.965 E13.30525
G1 X0.037 Y-16.053 E13.3984
G1 X0.91 Y-16.083 E13.44198
G1 X2.158 Y-15.942 E13.50464
G1 X4.172 Y-15.5 E13.60751
G1 X5.046 Y-15.299 E13.65225
G1 X5.858 Y-14.98 E13.69577
G1 X6.385 Y-14.747 E13.72452
G1 X8.042 Y-13.893 E13.81752
G1 X8.834 Y-13.471 E13.86229
G1 X9.844 Y-12.721 E13.92506
G1 X11.381 Y-11.322 E14.02875
G1 X12.008 Y-10.738 E14.0715
G1 X12.588 Y-10.012 E14.11785
G1 X12.935 Y-9.532 E14.1474
G1 X13.881 Y-8.057 E14.23483
G1 X14.396 Y-7.232 E14.28335
G1 X14.9 Y-6.052 E14.34736
G1 X15.541 Y-4.04 E14.45271
G1 X15.77 Y-3.288 E14.49193
G1 X15.955 Y-2.043 E14.55473
G1 X16.053 Y0.037 E14.65861
G1 X16.083 Y0.91 E14.70219
G1 X15.942 Y2.15 E14.76446
G1 X15.502 Y4.167 E14.86745
G1 X15.3 Y5.042 E14.91225
G1 X14.847 Y6.191 E14.97387
G1 X13.894 Y8.04 E15.07765
G1 X13.475 Y8.83 E15.12226
G1 X12.728 Y9.836 E15.18478
G1 X10.745 Y12.003 E15.33132
G1 X10.011 Y12.588 E15.37815
G1 X9.56 Y12.916 E15.40597
G1 X8.063 Y13.878 E15.49475
G1 F1500 E8.99475
G0 F3600 X8.001 Y4.734
;TYPE:SUPPORT
G1 F1500 E15.49475
G1 X8.001 Y4.251 E15.51885
G0 F3600 X8.001 Y3.745
G1 F1500 X8.001 Y-3.746 E15.89257
G0 F3600 X8.001 Y-4.252
G1 F1500 X8.001 Y-4.735 E15.91667
G1 F1500 E9.41667
G0 F3600 X7.78 Y-2.666
G1 F1500 E15.91667
G1 X8.946 Y-2.666 E15.97484
G1 F1500 E9.47484
G0 F3600 X9.365 Y0.00
G1 F1500 E15.97484
G1 X4.817 Y0.00 E16.20174
G0 F3600 X5.334 Y0.221
G1 F1500 X5.334 Y-.222 E16.22384
G1 F1500 E9.72384
G0 F3600 X5.351 Y-.182
G0 X6.885 Y1.115
G0 X7.468 Y1.875
G0 X7.819 Y2.65
G0 X7.779 Y2.667
G1 F1500 E16.22384
G1 X8.945 Y2.667 E16.28202
G1 F1500 E9.78202
G0 F3600 X4.734 Y8.001
G1 F1500 E16.28202
G1 X4.251 Y8.001 E16.30611
G0 F3600 X3.745 Y8.001
G1 F1500 X-3.744 Y8.001 E16.67974
G0 F3600 X-4.25 Y8.001
G1 F1500 X-4.733 Y8.001 E16.70384
G1 F1500 E10.20384
G0 F3600 X-2.667 Y7.779
G1 F1500 E16.70384
G1 X-2.667 Y8.945 E16.76201
G1 F1500 E10.26201
G0 F3600 X0.00 Y9.365
G1 F1500 E16.76201
G1 X0.00 Y4.803 E16.98961
G0 F3600 X-.22 Y5.334
G1 F1500 X0.221 Y5.334 E17.01161
G1 F1500 E10.51161
G0 F3600 X0.182 Y5.351
G0 X1.115 Y6.885
G0 X1.875 Y7.468
G0 X2.651 Y7.82
G0 X2.667 Y7.78
G1 F1500 E17.01161
G1 X2.667 Y8.946 E17.06978
G1 F1500 E10.56978
G0 F3600 X-8.001 Y4.735
G1 F1500 E17.06978
G1 X-8.001 Y4.252 E17.09388
G0 F3600 X-8.001 Y3.746
G1 F1500 X-8.001 Y-3.745 E17.46761
G0 F3600 X-8.001 Y-4.251
G1 F1500 X-8.001 Y-4.734 E17.4917
G1 F1500 E10.9917
G0 F3600 X-7.779 Y-2.667
G1 F1500 E17.4917
G1 X-8.945 Y-2.667 E17.54988
G1 F1500 E11.04988
G0 F3600 X-9.365 Y0.00
G1 F1500 E17.54988
G1 X-4.813 Y0.00 E17.77698
G0 F3600 X-5.334 Y-.221
G1 F1500 X-5.334 Y0.222 E17.79908
G1 F1500 E11.29908
G0 F3600 X-5.351 Y0.182
G0 X-6.885 Y1.115
G0 X-7.468 Y1.875
G0 X-7.82 Y2.65
G0 X-7.78 Y2.666
G1 F1500 E17.79908
G1 X-8.946 Y2.666 E17.85725
G1 F1500 E11.35725
G0 F3600 X-4.734 Y-8.001
G1 F1500 E17.85725
G1 X-4.251 Y-8.001 E17.88135
G0 F3600 X-3.745 Y-8.001
G1 F1500 X3.744 Y-8.001 E18.25497
G0 F3600 X4.25 Y-8.001
G1 F1500 X4.733 Y-8.001 E18.27907
G1 F1500 E11.77907
G0 F3600 X2.667 Y-7.779
G1 F1500 E18.27907
G1 X2.667 Y-8.945 E18.33724
G1 F1500 E11.83724
G0 F3600 X0.00 Y-9.365
G1 F1500 E18.33724
G1 X0.00 Y-4.803 E18.56484
G0 F3600 X0.22 Y-5.334
G1 F1500 X-.221 Y-5.334 E18.58684
G1 F1500 E12.08684
G0 F3600 X-.182 Y-5.351
G0 X-1.115 Y-6.885
G0 X-1.875 Y-7.468
G0 X-2.651 Y-7.82
G0 X-2.667 Y-7.78
G1 F1500 E18.58684
G1 X-2.667 Y-8.946 E18.64502
G1 F1500 E12.14502
;MESH:bbStock24TGear.stl
G0 F3600 X-2.508 Y-6.588
G0 X-1.53 Y-5.427
G0 X-.865 Y-3.135
G1 F1500 E18.64502
G0 F3600 X-1.244 Y-2.755
;TYPE:WALL-INNER
G1 F1293.1 X-.777 Y-2.944 E18.67417
G1 F1342.3 X0.006 Y-3.012 E18.71799
G1 F1388.9 X0.598 Y-2.952 E18.75005
G1 F1336.3 X0.777 Y-2.943 E18.76009
G1 F1290.3 X1.242 Y-2.757 E18.78914
G1 X1.057 Y-3.223 E18.81821
G1 X1 Y-3.634 E18.84228
G1 X0.831 Y-3.415 E18.85832
G1 F1342.3 X0.732 Y-3.379 E18.8642
G1 F1456.3 X0.00 Y-3.403 E18.90183
G1 X-.733 Y-3.381 E18.93951
G1 F1345.3 X-.832 Y-3.414 E18.94532
G1 F1293.1 X-1 Y-3.634 E18.96134
G1 X-1.056 Y-3.223 E18.98534
G1 X-1.244 Y-2.755 E19.01453
G0 F3600 X-.865 Y-3.135
G0 X-2.286 Y-1.558
G1 F1639.3 X-2.172 Y-1.589 E19.01993
G1 F1657.5 X-1.579 Y-1.579 E19.0467
G1 F1666.7 X-1.59 Y-2.248 E19.07675
G1 X-1.886 Y-1.886 E19.09774
G1 F1657.5 X-2.286 Y-1.558 E19.1211
G0 F3600 X-1.433 Y-2.461
G0 X0.00 Y-2.853
G0 X1.363 Y-2.491
G0 X1.563 Y-2.281
G1 F1643.8 X1.588 Y-2.172 E19.12619
G1 F1662 X1.58 Y-1.58 E19.15285
G1 F1657.5 X2.172 Y-1.59 E19.17958
G1 F1639.3 X2.284 Y-1.559 E19.18489
G1 F1657.5 X1.885 Y-1.885 E19.20815
G1 F1662 X1.563 Y-2.281 E19.23113
G0 F3600 X2.822 Y-1.361
G0 X2.891 Y-1.525
;TYPE:WALL-OUTER
G1 F1008.4 X2.624 Y-1.693 E19.25454
G1 F1252.6 X2.423 Y-1.94 E19.27357
G1 F1488.8 X2.153 Y-2.153 E19.29085
G1 X1.941 Y-2.422 E19.30807
G1 F1239.7 X1.651 Y-2.685 E19.3317
G1 F1247.4 X1.477 Y-3.325 E19.37149
G1 F1330.4 X1.34 Y-3.967 E19.40842
G1 F1200 X1.432 Y-4.692 E19.45399
G1 F1209.7 X1.696 Y-5.33 E19.49671
G1 X2.118 Y-5.88 E19.53959
G1 X2.67 Y-6.304 E19.58265
G1 X3.309 Y-6.569 E19.62545
G1 F1207.2 X4 Y-6.659 E19.66865
G1 X4.691 Y-6.569 E19.71184
G1 F1209.7 X5.33 Y-6.304 E19.75464
G1 X5.882 Y-5.88 E19.7977
G1 F1207.2 X6.304 Y-5.33 E19.84067
G1 X6.568 Y-4.692 E19.88347
G1 X6.659 Y-4.001 E19.92667
G1 F1209.7 X6.569 Y-3.309 E19.96984
G1 X6.304 Y-2.67 E20.01264
G1 X5.882 Y-2.12 E20.05553
G1 F1212.1 X5.856 Y-2.099 E20.05759
G1 X5.33 Y-1.696 E20.0985
G1 F1209.7 X4.691 Y-1.431 E20.1413
G1 F1204.8 X3.983 Y-1.34 E20.18563
G1 F1115.2 X3.262 Y-1.405 E20.23421
G1 F988.5 X2.891 Y-1.525 E20.26373
G0 F3600 X2.722 Y-1.631
G0 X2.641 Y-1.437
G0 X0.862 Y-3.149
G0 X0.841 Y-3.967
G1 F1330.4 X0.651 Y-3.8 E20.27796
G1 F1500 X-.654 Y-3.802 E20.34307
G1 F1354.4 X-.833 Y-3.968 E20.35656
G1 F1219.5 X-.95 Y-4.822 E20.40945
G1 F1207.2 X-1.263 Y-5.577 E20.46012
G1 X-1.765 Y-6.232 E20.51127
G1 F1209.7 X-2.423 Y-6.737 E20.56258
G1 X-3.18 Y-7.051 E20.61328
G1 F1207.2 X-4 Y-7.159 E20.66455
G1 X-4.82 Y-7.051 E20.71582
G1 F1209.7 X-5.577 Y-6.737 E20.76652
G1 X-6.235 Y-6.232 E20.81784
G1 X-6.737 Y-5.577 E20.86889
G1 X-7.05 Y-4.822 E20.91945
G1 F1207.2 X-7.159 Y-3.998 E20.97097
G1 X-7.051 Y-3.18 E21.02212
G1 F1209.7 X-6.737 Y-2.423 E21.07282
G1 X-6.235 Y-1.768 E21.12387
G1 X-5.577 Y-1.263 E21.17519
G1 X-4.82 Y-.949 E21.22589
G1 F1202.4 X-3.982 Y-.84 E21.27848
G1 F1147.2 X-3.279 Y-.862 E21.32436
G1 F1056.3 X-2.54 Y-.932 E21.37695
G1 F975.6 X-2.471 Y-1.115 E21.39195
G1 F1008.4 X-2.314 Y-1.237 E21.40671
G1 F1252.6 X-2.172 Y-1.203 E21.41543
G1 F1488.8 X-1.2 Y-1.2 E21.46429
G1 X-1.203 Y-2.172 E21.51315
G1 F1252.6 X-1.237 Y-2.314 E21.52187
G1 F1077.2 X-1.196 Y-2.375 E21.52697
G1 F1247.4 X-.675 Y-2.523 E21.55947
G1 F1500 X0.00 Y-2.613 E21.59344
G1 X0.675 Y-2.523 E21.62742
G1 F1247.4 X1.196 Y-2.375 E21.65991
G1 F1075.3 X1.247 Y-2.301 E21.66616
G1 F1252.6 X1.202 Y-2.172 E21.67433
G1 F1488.8 X1.201 Y-1.201 E21.72313
G1 X2.172 Y-1.203 E21.77194
G1 F1252.6 X2.314 Y-1.237 E21.78066
G1 F1008.4 X2.471 Y-1.115 E21.79542
G1 F977.2 X2.54 Y-.931 E21.81047
G1 F1060.1 X3.303 Y-.861 E21.86456
G1 F1151.6 X3.982 Y-.841 E21.9087
G1 F1204.8 X4.82 Y-.949 E21.96118
G1 F1209.7 X5.577 Y-1.263 E22.01188
G1 X6.235 Y-1.768 E22.06319
G1 X6.737 Y-2.423 E22.11425
G1 X7.051 Y-3.18 E22.16495
G1 X7.154 Y-3.97 E22.21423
G1 F1207.2 X7.159 Y-4.002 E22.21624
G1 X7.05 Y-4.822 E22.26752
G1 X6.737 Y-5.577 E22.31818
G1 X6.235 Y-6.232 E22.36934
G1 F1209.7 X5.577 Y-6.737 E22.42065
G1 X4.82 Y-7.051 E22.47135
G1 F1207.2 X4 Y-7.159 E22.52262
G1 X3.18 Y-7.051 E22.57389
G1 F1209.7 X2.423 Y-6.737 E22.62459
G1 X1.765 Y-6.232 E22.6759
G1 X1.263 Y-5.577 E22.72696
G1 X0.95 Y-4.822 E22.77752
G1 F1200 X0.841 Y-3.967 E22.83127
G0 F3600 X0.691 Y-3.835
G0 X0.701 Y-3.174
G0 X-.738 Y-2.756
G0 X-2.823 Y-1.36
G0 X-2.891 Y-1.525
G1 F990.1 X-3.263 Y-1.407 E22.86077
G1 F1117.3 X-3.989 Y-1.34 E22.9096
G1 F1202.4 X-4.691 Y-1.431 E22.95366
G1 F1209.7 X-5.33 Y-1.696 E22.99645
