; generated by Slic3r 1.2.9 on 2022-12-18 at 17:27:33

; external perimeters extrusion width = 0.40mm
; perimeters extrusion width = 0.48mm
; infill extrusion width = 0.48mm
; solid infill extrusion width = 0.48mm
; top infill extrusion width = 0.48mm
; support material extrusion width = 0.40mm

M107
M190 S60 ; set bed temperature
M104 S200 ; set temperature
G28 ; home all axes
G1 Z5 F5000 ; lift nozzle

M109 S200 ; wait for temperature to be reached
G21 ; set units to millimeters
G90 ; use absolute coordinates
M82 ; use absolute distances for extrusion
G92 E0
G1 Z0.400 F7800.000
G1 E-2.00000 F2400.00000
G92 E0
G1 X15.404 Y6.044 F7800.000
G1 E2.00000 F2400.00000
G1 X11.789 Y15.258 E3.17547 F1800.000
G1 X11.541 Y15.814 E3.24775
G1 X11.429 Y16.036 E3.27730
G1 X10.055 Y17.892 E3.55153
G1 X7.556 Y19.395 E3.89786
G1 X5.031 Y20.224 E4.21355
G1 X2.539 Y20.881 E4.51957
G1 X1.530 Y21.062 E4.64131
G1 X0.478 Y21.134 E4.76664
G1 X-0.585 Y21.134 E4.89287
G1 X-1.269 Y21.099 E4.97414
G1 X-1.606 Y21.065 E5.01437
G1 X-2.611 Y20.884 E5.13576
G1 X-5.194 Y20.202 E5.45294
G1 X-7.283 Y19.219 E5.72717
G1 X-9.143 Y17.244 E6.04933
G1 X-16.757 Y4.875 E7.77440
G1 X-17.246 Y3.917 E7.90217
G1 X-17.967 Y2.169 E8.12678
G1 X-18.468 Y-0.085 E8.40100
G1 X-17.764 Y-3.401 E8.80361
G1 X-17.517 Y-3.894 E8.86905
G1 X-16.977 Y-4.789 E8.99321
G1 X-6.278 Y-19.761 E11.17873
G1 X-4.632 Y-21.381 E11.45295
G1 X-2.535 Y-22.347 E11.72718
G1 X-1.229 Y-22.559 E11.88425
G1 X0.419 Y-22.661 E12.08045
G1 X2.714 Y-22.405 E12.35467
G1 X5.479 Y-20.808 E12.73386 F1800.000
G1 X6.558 Y-19.774 E12.91139
G1 X7.009 Y-19.298 E12.98921
G1 X8.017 Y-18.123 E13.17315
G1 X8.515 Y-17.464 E13.27123
G1 X16.709 Y-5.123 E15.03052
G1 X17.637 Y-3.009 E15.30474
G1 X17.793 Y-0.705 E15.57897
G1 X17.366 Y1.043 E15.79270
G1 X15.426 Y5.988 E16.42363
G1 E14.42363 F2400.00000
G92 E0
G1 X1.600 Y1.324 F7800.000
G1 E2.00000 F2400.00000
G1 X-1.672 Y1.650 E2.39051 F1800.000
G1 X-1.779 Y1.322 E2.43143
G1 X-1.277 Y1.026 E2.50067
G1 X-1.055 Y0.822 E2.53651
G1 X-0.782 Y0.655 E2.57446
G1 X-0.483 Y0.530 E2.61295
G1 X-0.180 Y0.478 E2.64951
G1 X0.170 Y0.478 E2.69107
G1 X0.485 Y0.531 E2.72903
G1 X0.781 Y0.655 E2.76714
G1 X1.054 Y0.822 E2.80517
G1 X1.556 Y1.283 E2.88605
G1 X3.569 Y1.845 F7800.000
G1 X-4.056 Y2.605 E3.79607 F1800.000
G1 X-3.335 Y1.622 E3.94087
G1 X-2.847 Y1.162 E4.02043
G1 X-2.260 Y0.811 E4.10167
G1 X-2.187 Y0.734 E4.11428
G1 X-1.704 Y0.449 E4.18084
G1 X-1.487 Y0.249 E4.21596
G1 X-1.108 Y0.018 E4.26867
G1 X-0.684 Y-0.160 E4.32328
G1 X-0.241 Y-0.236 E4.37669
G1 X0.232 Y-0.237 E4.43289
G1 X0.685 Y-0.160 E4.48747
G1 X1.108 Y0.017 E4.54186
G1 X1.487 Y0.249 E4.59463
G1 X1.697 Y0.443 E4.62864
G1 X2.807 Y1.121 E4.78309
G1 X3.525 Y1.804 E4.90078
G1 X4.752 Y2.445 F7800.000
G1 X-5.435 Y3.460 E6.11666 F1800.000
G1 X-4.529 Y2.006 E6.32011
G1 X-4.432 Y1.910 E6.33633
G1 X-3.872 Y1.147 E6.44872
G1 X-3.281 Y0.589 E6.54531
G1 X-2.712 Y0.250 E6.62392
G1 X-2.638 Y0.170 E6.63678
G1 X-2.132 Y-0.127 E6.70652
G1 X-1.919 Y-0.324 E6.74091
G1 X-1.435 Y-0.620 E6.80838
G1 X-0.885 Y-0.850 E6.87912
G1 X-0.302 Y-0.950 E6.94939
G1 X0.299 Y-0.951 E7.02074
G1 X0.885 Y-0.850 E7.09143
G1 X1.434 Y-0.620 E7.16210
G1 X1.919 Y-0.324 E7.22960
G1 X2.129 Y-0.130 E7.26359
G1 X3.244 Y0.552 E7.41872
G1 X3.833 Y1.111 E7.51526
G1 X4.342 Y1.831 E7.61995
G1 X4.424 Y1.905 E7.63300
G1 X4.721 Y2.394 E7.70097
G1 X4.367 Y2.336 F7800.000
G1 Z0.400 F7800.000
G1 E5.70097 F2400.00000
G92 E0
G1 X5.427 Y13.028 F7800.000
G1 E2.00000 F2400.00000
G1 X5.538 Y12.805 E2.01300 F1800.000
G1 X5.432 Y12.310 E2.03946
G1 X5.001 Y13.170 E2.08971
G1 X4.576 Y13.312 E2.11316
G1 X5.326 Y11.815 E2.20068
G1 X5.220 Y11.320 E2.22713
G1 X4.150 Y13.455 E2.35191
G1 X3.724 Y13.597 E2.37535
G1 X4.911 Y11.230 E2.51368
G1 X4.538 Y11.267 E2.53325
G1 X3.300 Y13.737 E2.67760
G1 X2.891 Y13.846 E2.69972
G1 X4.165 Y11.304 E2.84828
G1 X3.792 Y11.341 E2.86786
G1 X2.482 Y13.956 E3.02063
G1 X2.073 Y14.065 E3.04274
G1 X3.419 Y11.379 E3.19972
G1 X3.046 Y11.416 E3.21930
G1 X1.666 Y14.170 E3.38026
G1 X1.259 Y14.276 E3.40224
G1 X2.673 Y11.453 E3.56721
G1 X2.300 Y11.490 E3.58679
G1 X0.851 Y14.382 E3.75581
G1 X0.478 Y14.420 E3.77541
G1 X1.928 Y11.527 E3.94448
G1 X1.555 Y11.564 E3.96406
G1 X0.123 Y14.420 E4.13095
G1 X-0.231 Y14.420 E4.14946
G1 X1.182 Y11.601 E4.31418
G1 X0.809 Y11.639 E4.33376
G1 X-0.585 Y14.420 E4.49631
G1 X-0.922 Y14.386 E4.51401
G1 X0.436 Y11.676 E4.67238
G1 X0.063 Y11.713 E4.69195
G1 X-1.235 Y14.304 E4.84336
G1 X-1.549 Y14.222 E4.86028
G1 X-0.310 Y11.750 E5.00475
G1 X-0.683 Y11.787 E5.02433
G1 X-1.862 Y14.141 E5.16188
G1 X-2.176 Y14.060 E5.17880
G1 X-1.056 Y11.824 E5.30944
G1 X-1.428 Y11.862 E5.32902
G1 X-2.488 Y13.976 E5.45261
G1 X-2.801 Y13.893 E5.46950
G1 X-1.801 Y11.899 E5.58605
G1 X-2.174 Y11.936 E5.60562
G1 X-3.113 Y13.810 E5.71512
G1 X-3.425 Y13.724 E5.73200
G1 X-2.547 Y11.973 E5.83435
G1 X-2.920 Y12.010 E5.85393
G1 X-3.480 Y13.128 E5.91924
G1 X-3.412 Y12.285 F7800.000
G1 X-3.293 Y12.047 E5.93311 F1800.000
G1 E3.93311 F2400.00000
G92 E0
G1 X-9.877 Y2.223 F7800.000
G1 E2.00000 F2400.00000
G1 X-8.537 Y-0.450 E2.35517 F1800.000
G1 X-9.396 Y-1.923 F7800.000
G1 X-11.040 Y1.355 E2.79074 F1800.000
G1 X-11.761 Y-0.393 E3.01534
G1 X-11.514 Y-0.885 E3.08078
G1 E1.08078 F2400.00000
G92 E0
G1 X-4.498 Y-5.320 F7800.000
G1 E2.00000 F2400.00000
G1 X-0.730 Y-12.839 E2.99877 F1800.000
G1 X0.872 Y-12.848 E3.18910
G1 X-3.811 Y-3.503 E4.43058
G1 X-2.380 Y-3.171 E4.60509
G1 X2.098 Y-12.106 E5.79209
G1 X2.665 Y-13.236 F7800.000
G1 X2.922 Y-13.750 E5.86031 F1800.000
G1 X1.438 Y-13.978 E6.03858
G1 X1.913 Y-14.925 E6.16448
G1 X0.834 Y-15.959 E6.34201
G1 X0.054 Y-14.403 E6.54879
G1 X-0.815 Y-15.857 E6.75000
G1 X-1.805 Y-13.882 E7.01238
G1 E5.01238 F2400.00000
G92 E0
G1 X-2.862 Y-11.772 F7800.000
G1 E2.00000 F2400.00000
G1 X-3.862 Y-9.778 E2.26496 F1800.000
G1 E0.26496 F2400.00000
G92 E0
G1 X-0.314 Y-4.106 F7800.000
G1 E2.00000 F2400.00000
G1 X3.523 Y-11.762 E3.01706 F1800.000
G1 E1.01706 F2400.00000
G92 E0
G1 X1.073 Y-3.685 F7800.000
G1 E2.00000 F2400.00000
G1 X3.992 Y-9.511 E2.77387 F1800.000
G1 X4.224 Y-6.785 E3.09878
G1 X2.418 Y-3.181 E3.57750
G1 E1.57750 F2400.00000
G92 E0
G1 X8.252 Y1.118 F7800.000
G1 E2.00000 F2400.00000
G1 X9.936 Y-2.244 E2.44655 F1800.000
G1 X11.116 Y-1.409 E2.61814
G1 X9.401 Y2.012 E3.07261
G1 Z0.700 F7800.000
G1 E1.07261 F2400.00000
G92 E0
G1 X4.265 Y2.742 F7800.000
G1 E2.00000 F2400.00000
G1 X4.469 Y3.076 E2.02047 F900.000
G1 X4.598 Y3.253 E2.03193 F900.000
G1 X5.180 Y4.202 E2.09007
G1 X5.231 Y4.249 E2.09370
G1 X5.587 Y4.813 E2.12853
G1 X5.637 Y5.017 E2.13952
G1 X5.978 Y5.495 E2.17019
G1 X6.096 Y6.310 E2.21322
G1 X6.431 Y6.983 E2.25251
G1 X6.455 Y7.078 E2.25764
G1 X6.452 Y7.529 E2.28119
G1 X6.418 Y7.947 E2.30310
G1 X5.933 Y9.046 E2.36590
G1 X5.252 Y9.893 E2.42266
G1 X-4.095 Y10.825 E2.91344
G1 X-5.022 Y10.176 E2.97252
G1 X-5.933 Y9.046 E3.04839
G1 X-6.406 Y7.974 E3.10958
G1 X-6.448 Y7.049 E3.15798
G1 X-6.431 Y6.983 E3.16154
G1 X-6.088 Y6.295 E3.20170
G1 X-6.059 Y6.028 E3.21571
G1 X-5.656 Y5.018 E3.27256
G1 X-5.253 Y4.270 E3.31692
G1 X-5.189 Y4.215 E3.32131
G1 X-5.072 Y4.027 E3.33290
G1 X-3.954 Y2.230 E3.44345 F900.000
G1 X-3.393 Y1.453 E3.49352
G1 X-2.993 Y1.074 E3.52233
G1 X-2.493 Y0.775 E3.55274
G1 X-2.344 Y0.617 E3.56410
G1 X-1.944 Y0.381 E3.58835
G1 X-1.550 Y0.018 E3.61637
G1 X-1.188 Y-0.208 E3.63865
G1 X-0.722 Y-0.406 E3.66509
G1 X-0.249 Y-0.490 E3.69021
G1 X0.244 Y-0.490 E3.71596
G1 X0.726 Y-0.405 E3.74153
G1 X1.187 Y-0.208 E3.76773
G1 X1.549 Y0.018 E3.79003
G1 X1.938 Y0.376 E3.81762
G1 X2.858 Y0.938 E3.87398
G1 X3.391 Y1.451 E3.91258
G1 X3.951 Y2.226 E3.96255
G1 X4.234 Y2.690 E3.99097
G1 X4.623 Y2.524 F7800.000
G1 X4.875 Y2.939 E4.01635 F3600.000
G1 X4.951 Y3.028 E4.02247
G1 X5.507 Y3.933 E4.07795 F3600.000
G1 X5.556 Y3.978 E4.08143
G1 X5.978 Y4.647 E4.12278
G1 X6.025 Y4.840 E4.13312
G1 X6.378 Y5.334 E4.16485
G1 X6.501 Y6.183 E4.20969
G1 X6.827 Y6.836 E4.24782
G1 X6.875 Y7.028 E4.25813
G1 X6.871 Y7.547 E4.28528
G1 X6.830 Y8.051 E4.31168
G1 X6.294 Y9.266 E4.38106
G1 X5.469 Y10.293 E4.44988
G1 X-4.208 Y11.257 E4.95795
G1 X-5.311 Y10.486 E5.02825
G1 X-6.294 Y9.266 E5.11011
G1 X-6.823 Y8.067 E5.17856
G1 X-6.871 Y7.011 E5.23380
G1 X-6.827 Y6.836 E5.24320
G1 X-6.496 Y6.175 E5.28183
G1 X-6.469 Y5.926 E5.29491
G1 X-6.036 Y4.840 E5.35598
G1 X-5.627 Y4.082 E5.40098
G1 X-5.585 Y4.005 E5.40556 F3600.000
G1 X-5.512 Y3.941 E5.41065
G1 X-4.302 Y1.997 E5.53029
G1 X-3.709 Y1.177 E5.58314
G1 X-3.248 Y0.738 E5.61642
G1 X-2.758 Y0.446 E5.64619
G1 X-2.609 Y0.286 E5.65761
G1 X-2.195 Y0.043 E5.68268
G1 X-1.805 Y-0.317 E5.71042
G1 X-1.382 Y-0.580 E5.73645
G1 X-0.842 Y-0.810 E5.76708
G1 X-0.286 Y-0.909 E5.79661
G1 X0.283 Y-0.909 E5.82633
G1 X0.844 Y-0.809 E5.85612
G1 X1.381 Y-0.580 E5.88662
G1 X1.804 Y-0.317 E5.91266
G1 X2.191 Y0.039 E5.94014
G1 X3.116 Y0.605 E5.99676
G1 X3.708 Y1.175 E6.03970
G1 X4.300 Y1.994 E6.09250
G1 X4.592 Y2.473 E6.12178
G1 X4.945 Y2.328 F7800.000
G1 X5.368 Y2.987 E6.15457 F1800.000
G1 X5.801 Y3.691 E6.19775 F3600.000
G1 X5.848 Y3.734 E6.20110
G1 X6.330 Y4.499 E6.24832
G1 X6.374 Y4.680 E6.25807
G1 X6.738 Y5.189 E6.29077
G1 X6.865 Y6.069 E6.33723
G1 X7.182 Y6.705 E6.37432
G1 X7.252 Y6.982 E6.38929
G1 X7.248 Y7.564 E6.41968
G1 X7.201 Y8.145 E6.45012
G1 X6.619 Y9.464 E6.52543
G1 X5.664 Y10.652 E6.60512
G1 X-4.310 Y11.646 E7.12875
G1 X-5.571 Y10.764 E7.20915
G1 X-6.619 Y9.464 E7.29642
G1 X-7.199 Y8.150 E7.37141
G1 X-7.211 Y7.567 E7.40192
G1 X-7.251 Y6.977 E7.43281
G1 X-7.182 Y6.705 E7.44747
G1 X-6.864 Y6.066 E7.48474
G1 X-6.838 Y5.833 E7.49697
G1 X-6.378 Y4.680 E7.56184
G1 X-6.080 Y4.127 E7.59467
G1 X-5.885 Y3.766 E7.61186 F1800.000
G1 X-5.802 Y3.694 E7.61644
G1 X-4.615 Y1.786 E7.71049
G1 X-3.995 Y0.927 E7.75485
G1 X-3.477 Y0.435 E7.78474
G1 X-2.997 Y0.149 E7.80813
G1 X-2.847 Y-0.011 E7.81733
G1 X-2.421 Y-0.262 E7.83801
G1 X-2.034 Y-0.618 E7.86003
G1 X-1.557 Y-0.916 E7.88358
G1 X-0.951 Y-1.174 E7.91115
G1 X-0.319 Y-1.286 E7.93800
G1 X0.318 Y-1.287 E7.96468
G1 X0.951 Y-1.174 E7.99159
G1 X1.556 Y-0.916 E8.01913
G1 X2.034 Y-0.618 E8.04269
G1 X2.420 Y-0.263 E8.06464
G1 X3.348 Y0.304 E8.11019
G1 X3.994 Y0.927 E8.14773
G1 X4.615 Y1.785 E8.19207
G1 X4.914 Y2.276 E8.21616
G1 X4.759 Y2.682 F7800.000
G1 X4.266 Y3.197 F7800.000
G1 X-4.277 Y3.197 E8.66860 F3600.000
G1 X-4.559 Y3.650 E8.69684
G1 X4.564 Y3.650 E9.18000
G1 X4.842 Y4.103 E9.20813
G1 X-4.840 Y4.103 E9.72092
G1 X-5.142 Y4.556 E9.74973
G1 X5.144 Y4.556 E10.29450
G1 X5.408 Y5.008 E10.32225
G1 X-5.386 Y5.008 E10.89392
G1 X-5.589 Y5.461 E10.92020
G1 X5.657 Y5.461 E11.51580
G1 X5.818 Y5.914 E11.54126
G1 X-5.769 Y5.914 E12.15497
G1 X-5.877 Y6.367 E12.17962
G1 X5.884 Y6.367 E12.80252
G1 X6.092 Y6.819 E12.82892
G1 X-6.092 Y6.819 E13.47421
G1 X-6.209 Y7.272 E13.49897
G1 X6.218 Y7.272 E14.15716
G1 X6.218 Y7.725 E14.18114
G1 X-6.200 Y7.725 E14.83886
G1 X-6.067 Y8.178 E14.86386
G1 X6.067 Y8.178 E15.50651
G1 X5.867 Y8.630 E15.53272
G1 X-5.867 Y8.630 E16.15421
G1 X-5.587 Y9.083 E16.18242
G1 X5.587 Y9.083 E16.77423
G1 X5.224 Y9.536 E16.80500
G1 X-5.222 Y9.536 E17.35821
G1 X-4.812 Y9.988 E17.39054
G1 X0.886 Y9.988 E17.69232
G1 X-3.658 Y10.441 F7800.000
G1 X-4.165 Y10.441 E17.71915 F3600.000
G1 E15.71915 F2400.00000
G92 E0
G1 X-3.995 Y2.745 F7800.000
G1 E2.00000 F2400.00000
G1 X-3.539 Y2.745 E2.02417 F3600.000
G1 X1.660 Y2.745 F7800.000
G1 X3.990 Y2.745 E2.14759 F3600.000
G1 X3.384 Y2.292 E2.18766
G1 X3.700 Y2.292 E2.20438
G1 X3.003 Y2.308 F7800.000
G1 X3.234 Y2.076 E2.22210 F1200.000
G1 X3.155 Y1.542 E2.25130
G1 X2.322 Y2.376 E2.31507
G1 X1.641 Y2.444 E2.35209
G1 X2.849 Y1.236 E2.44449
G1 X2.501 Y0.970 E2.46815
G1 X0.960 Y2.512 E2.58604
G1 X0.279 Y2.579 E2.62305
G1 X2.120 Y0.738 E2.76392
G1 X1.753 Y0.492 E2.78782
G1 X-0.403 Y2.647 E2.95270
G1 X-1.084 Y2.715 E2.98972
G1 X1.434 Y0.198 E3.18226
G1 X1.047 Y-0.029 E3.20649
G1 X-1.765 Y2.783 E3.42156
G1 X-2.446 Y2.851 E3.45858
G1 X0.595 Y-0.190 E3.69113
G1 X0.035 Y-0.243 E3.72155
G1 X-3.127 Y2.919 E3.96336
G1 X-3.431 Y2.610 E3.98681
G1 X-0.735 Y-0.086 E4.19302
G1 X-2.673 Y1.238 F7800.000
G1 X-3.301 Y1.867 E4.24110 F1200.000
G1 Z0.700 F7800.000
G1 E2.24110 F2400.00000
G92 E0
G1 X-9.835 Y-1.626 F7800.000
G1 E2.00000 F2400.00000
G1 X-9.845 Y-1.688 E2.00262 F3600.000
G1 X-10.395 Y-1.444 E2.02779
G1 X-10.596 Y-1.119 E2.04379
G1 X-11.272 Y-0.519 E2.08162
G1 X-10.935 Y0.550 E2.12853
G1 X-10.126 Y1.722 E2.18817
G1 X-9.961 Y1.722 E2.19506
G1 X-8.981 Y0.991 E2.24626
G1 X-8.675 Y0.806 E2.26122
G1 X-8.600 Y0.684 E2.26721
G1 X-8.822 Y0.067 E2.29464
G1 X-9.097 Y-0.259 E2.31251
G1 X-9.274 Y-0.295 E2.32006
G1 X-9.488 Y-0.696 E2.33908
G1 X-9.646 Y-0.898 E2.34983
G1 X-9.855 Y-1.375 E2.37161
G1 X-9.835 Y-1.626 E2.38216
G1 X-9.576 Y-2.074 F7800.000
G1 X-9.599 Y-2.164 E2.38603 F3600.000
G1 X-10.626 Y-1.709 E2.43306
G1 X-10.856 Y-1.337 E2.45135
G1 X-11.657 Y-0.626 E2.49621
G1 X-11.240 Y0.699 E2.55434
G1 X-10.148 Y2.281 E2.63481
G1 X-8.793 Y1.269 E2.70558
G1 X-8.432 Y1.051 E2.72324
G1 X-8.243 Y0.745 E2.73832
G1 X-8.318 Y0.444 E2.75129
G1 X-8.530 Y-0.107 E2.77599
G1 X-8.903 Y-0.563 E2.80066
G1 X-9.052 Y-0.593 E2.80701
G1 X-9.205 Y-0.880 E2.82064
G1 X-9.356 Y-1.072 E2.83084
G1 X-9.514 Y-1.432 E2.84732
G1 X-9.498 Y-1.640 E2.85604
G1 X-9.576 Y-2.074 E2.87452
G1 E0.87452 F2400.00000
G92 E0
G1 X3.369 Y-2.607 F7800.000
G1 E2.00000 F2400.00000
G1 X3.442 Y-2.849 E2.01062 F3600.000
G1 X3.270 Y-2.728 E2.01943
G1 X3.369 Y-2.607 E2.02597
G1 E0.02597 F2400.00000
G92 E0
G1 X3.631 Y-6.449 F7800.000
G1 E2.00000 F2400.00000
G1 X3.246 Y-6.648 E2.01817 F3600.000
G1 X2.945 Y-5.999 E2.04808
G1 X2.716 Y-5.696 E2.06398
G1 X2.789 Y-5.517 E2.07209
G1 X3.327 Y-6.449 E2.11715
G1 X3.631 Y-6.449 E2.12989
G1 X3.616 Y-6.834 F7800.000
G1 X3.084 Y-7.108 E2.15493 F3600.000
G1 X2.658 Y-6.178 E2.19777
G1 X2.515 Y-6.001 E2.20728
G1 X2.339 Y-5.732 E2.22074
G1 X3.472 Y-2.947 E2.34660
G1 X3.877 Y-4.287 E2.40519
G1 X4.102 Y-4.791 E2.42832
G1 X4.689 Y-6.282 E2.49537
G1 X3.616 Y-6.834 E2.54590
G1 X4.633 Y-8.134 F7800.000
G1 X4.563 Y-8.172 E2.54924 F3600.000
G1 X4.563 Y-7.944 E2.55881
G1 X4.633 Y-8.134 E2.56729
G1 E0.56729 F2400.00000
G92 E0
G1 X2.352 Y-8.473 F7800.000
G1 E2.00000 F2400.00000
G1 X1.884 Y-9.284 E2.03920 F3600.000
G1 X-1.584 Y-9.284 E2.18438
G1 X-2.193 Y-8.230 E2.23533
G1 X-2.109 Y-8.067 E2.24303
G1 X-1.672 Y-7.702 E2.26684
G1 X-0.880 Y-6.654 E2.32186
G1 X-2.501 Y-6.654 E2.38972
G1 X-2.501 Y-5.537 E2.43648
G1 X-1.662 Y-4.084 E2.50671
G1 X-1.550 Y-4.141 E2.51197
G1 X-1.292 Y-4.212 E2.52316
G1 X-0.675 Y-4.653 E2.55493
G1 X0.667 Y-4.656 E2.61110
G1 X1.228 Y-4.261 E2.63981
G1 X1.228 Y-7.136 E2.76013
G1 X2.142 Y-8.129 E2.81666
G1 X2.261 Y-8.354 E2.82730
G1 X2.352 Y-8.473 E2.83359
G1 X1.304 Y-11.907 F7800.000
G1 X0.699 Y-12.301 E2.86380 F3600.000
G1 X-0.705 Y-12.301 E2.92258
G1 X-1.310 Y-11.902 E2.95294
G1 X-1.780 Y-11.628 E2.97570
G1 X-2.210 Y-11.173 E3.00192
G1 X-2.492 Y-11.192 E3.01374
G1 X-1.584 Y-9.620 E3.08974
G1 X1.884 Y-9.620 E3.23491
G1 X2.769 Y-11.153 E3.30901
G1 X2.275 Y-11.108 E3.32976
G1 X1.776 Y-11.637 E3.36021
G1 X1.304 Y-11.907 E3.38296
G1 X1.479 Y-12.194 F7800.000
G1 X0.799 Y-12.637 E3.41695 F3600.000
G1 X-0.806 Y-12.637 E3.48411
G1 X-1.487 Y-12.187 E3.51829
G1 X-1.991 Y-11.894 E3.54269
G1 X-2.346 Y-11.519 E3.56431
G1 X-3.474 Y-11.596 E3.61164
G1 X-3.798 Y-9.989 E3.68024
G1 X-2.905 Y-9.989 E3.71762
G1 X-2.869 Y-8.603 E3.77566
G1 X-2.546 Y-8.183 E3.79786
G1 X-2.376 Y-7.853 E3.81339
G1 X-1.916 Y-7.469 E3.83844
G1 X-1.554 Y-6.989 E3.86362
G1 X-2.837 Y-6.989 E3.91732
G1 X-2.837 Y-4.605 E4.01714
G1 X-2.637 Y-4.368 E4.03012
G1 X-2.637 Y-3.299 E4.07487
G1 X-2.395 Y-3.490 E4.08777
G1 X-2.329 Y-3.352 E4.09418
G1 X-1.428 Y-3.826 E4.13679
G1 X-1.146 Y-3.904 E4.14907
G1 X-0.567 Y-4.318 E4.17882
G1 X0.563 Y-4.320 E4.22612
G1 X1.148 Y-3.903 E4.25618
G1 X1.426 Y-3.827 E4.26828
G1 X1.563 Y-3.757 E4.27470
G1 X1.563 Y-6.996 E4.41026
G1 X2.419 Y-7.935 E4.46347
G1 X2.545 Y-8.173 E4.47471
G1 X2.857 Y-8.583 E4.49627
G1 X2.922 Y-9.989 E4.55522
G1 X3.803 Y-9.989 E4.59213
G1 X3.484 Y-11.555 E4.65903
G1 X2.407 Y-11.457 E4.70431
G1 X1.986 Y-11.903 E4.73000
G1 X1.479 Y-12.194 E4.75443
G1 E2.75443 F2400.00000
G92 E0
