;FLAVOR:Marlin
;TIME:2377
;Filament used: 2.10427m
;Layer height: 0.2
;MINX:-34.348
;MINY:-21.319
;MINZ:0.3
;MAXX:0.748
;MAXY:23.257
;MAXZ:15.1
;Generated with Cura_SteamEngine 5.2.1
M140 S60
M105
M190 S60
M104 S210
M105
M109 S210
M82 ;absolute extrusion mode
G28 ;Home
G1 Z15.0 F6000 ;Move the platform down 15mm
;Prime the extruder
G92 E0
G1 F200 E3
G92 E0
M141 S28
G92 E0
G92 E0
G1 F1500 E-6.5
;LAYER_COUNT:75
;LAYER:0
M107
G0 F3600 X0.747 Y-17.737 Z0.3
;TYPE:SKIRT
G1 F1500 E0
G1 X0.748 Y18.966 E1.83112
G1 X0.739 Y19.693 E1.86739
G1 X0.692 Y20.227 E1.89414
G1 X0.567 Y20.748 E1.92087
G1 X0.365 Y21.245 E1.94763
G1 X0.092 Y21.707 E1.97441
G1 X-.246 Y22.123 E2.00115
G1 X-.643 Y22.484 E2.02792
G1 X-1.089 Y22.782 E2.05468
G1 X-1.574 Y23.01 E2.08142
G1 X-2.088 Y23.164 E2.10819
G1 X-2.833 Y23.256 E2.14564
G1 X-30.087 Y23.257 E3.50534
G1 X-30.785 Y23.248 E3.54017
G1 X-31.32 Y23.201 E3.56696
G1 X-31.841 Y23.075 E3.59371
G1 X-32.338 Y22.873 E3.62047
G1 X-32.799 Y22.6 E3.6472
G1 X-33.215 Y22.261 E3.67397
G1 X-33.576 Y21.865 E3.70071
G1 X-33.874 Y21.419 E3.72747
G1 X-34.102 Y20.933 E3.75425
G1 X-34.255 Y20.419 E3.78101
G1 X-34.347 Y19.672 E3.81856
G1 X-34.348 Y-17.094 E5.65282
G1 X-34.339 Y-17.759 E5.686
G1 X-34.291 Y-18.293 E5.71275
G1 X-34.165 Y-18.814 E5.73949
G1 X-33.963 Y-19.311 E5.76626
G1 X-33.69 Y-19.772 E5.79298
G1 X-33.351 Y-20.188 E5.81976
G1 X-32.954 Y-20.548 E5.84649
G1 X-32.507 Y-20.846 E5.8733
G1 X-32.022 Y-21.074 E5.90003
G1 X-31.508 Y-21.227 E5.92679
G1 X-30.767 Y-21.318 E5.96404
G1 X-3.507 Y-21.319 E7.32404
G1 X-2.809 Y-21.309 E7.35887
G1 X-2.275 Y-21.261 E7.38562
G1 X-1.754 Y-21.135 E7.41236
G1 X-1.257 Y-20.932 E7.43914
G1 X-.796 Y-20.658 E7.4659
G1 X-.381 Y-20.319 E7.49263
G1 X-0.021 Y-19.921 E7.51941
G1 X0.276 Y-19.475 E7.54614
G1 X0.504 Y-18.989 E7.57292
G1 X0.656 Y-18.475 E7.59966
G1 X0.747 Y-17.737 E7.63676
G0 F3600 X0.347 Y-17.479
G1 F1500 X0.348 Y18.961 E9.45476
G1 X0.339 Y19.688 E9.49103
G1 X0.293 Y20.191 E9.51623
G1 X0.168 Y20.681 E9.54146
G1 X-0.033 Y21.145 E9.56669
G1 X-.304 Y21.572 E9.59192
G1 X-.639 Y21.951 E9.61716
G1 X-1.029 Y22.272 E9.64236
G1 X-1.465 Y22.528 E9.66758
G1 X-1.936 Y22.711 E9.69279
G1 X-2.43 Y22.819 E9.71802
G1 X-2.881 Y22.856 E9.7406
G1 X-30.082 Y22.857 E11.09766
G1 X-30.78 Y22.848 E11.13249
G1 X-31.284 Y22.801 E11.15774
G1 X-31.774 Y22.676 E11.18297
G1 X-32.238 Y22.475 E11.2082
G1 X-32.664 Y22.204 E11.23339
G1 X-33.043 Y21.869 E11.25862
G1 X-33.364 Y21.478 E11.28386
G1 X-33.619 Y21.042 E11.30906
G1 X-33.803 Y20.571 E11.33429
G1 X-33.91 Y20.077 E11.35951
G1 X-33.947 Y19.624 E11.38218
G1 X-33.948 Y-17.088 E13.21375
G1 X-33.939 Y-17.753 E13.24693
G1 X-33.892 Y-18.257 E13.27218
G1 X-33.766 Y-18.746 E13.29738
G1 X-33.565 Y-19.21 E13.3226
G1 X-33.294 Y-19.637 E13.34784
G1 X-32.959 Y-20.015 E13.37303
G1 X-32.568 Y-20.336 E13.39827
G1 X-32.131 Y-20.591 E13.42352
G1 X-31.66 Y-20.775 E13.44874
G1 X-31.166 Y-20.881 E13.47395
G1 X-30.721 Y-20.918 E13.49623
G1 X-3.513 Y-20.919 E14.85364
G1 X-2.815 Y-20.909 E14.88847
G1 X-2.312 Y-20.862 E14.91367
G1 X-1.822 Y-20.736 E14.93891
G1 X-1.358 Y-20.534 E14.96416
G1 X-.932 Y-20.262 E14.98938
G1 X-.554 Y-19.927 E15.01458
G1 X-.234 Y-19.536 E15.03978
G1 X0.021 Y-19.099 E15.06503
G1 X0.204 Y-18.628 E15.09023
G1 X0.311 Y-18.134 E15.11545
G1 X0.347 Y-17.479 E15.14818
G1 F1500 E8.64818
;MESH:v2.stl
G0 F3600 X-2.187 Y-17.305
G0 X-30.548 Y-17.519
;TYPE:WALL-OUTER
G1 F1500 E15.14818
G1 X-30.548 Y19.457 E16.99292
G1 X-3.052 Y19.457 E18.3647
G1 X-3.052 Y-3.771 E19.52355
G1 X-3.052 Y-17.519 E20.20944
G1 X-30.548 Y-17.519 E21.58122
G0 F3600 X-30.548 Y-17.319
G0 X-30.168 Y-17.139
;TYPE:SKIN
G1 F1500 X-30.168 Y19.077 E23.38805
G1 X-3.432 Y19.077 E24.72191
G1 X-3.432 Y-3.771 E25.8618
G1 X-3.432 Y-17.139 E26.52873
G1 X-30.168 Y-17.139 E27.8626
G0 F3600 X-29.878 Y-16.849
G0 X-3.927 Y-16.819
G0 X-3.927 Y-16.938
G1 F1500 X-3.631 Y-16.642 E27.88348
G0 F3600 X-3.631 Y-16.076
G1 F1500 X-4.492 Y-16.938 E27.94427
G0 F3600 X-5.058 Y-16.938
G1 F1500 X-3.631 Y-15.511 E28.04495
G0 F3600 X-3.631 Y-14.945
G1 F1500 X-5.624 Y-16.938 E28.18557
G0 F3600 X-6.19 Y-16.938
G1 F1500 X-3.631 Y-14.379 E28.36612
G0 F3600 X-3.631 Y-13.814
G1 F1500 X-6.755 Y-16.938 E28.58653
G0 F3600 X-7.321 Y-16.938
G1 F1500 X-3.631 Y-13.248 E28.84688
G0 F3600 X-3.631 Y-12.682
G1 F1500 X-7.887 Y-16.938 E29.14716
G0 F3600 X-8.452 Y-16.938
G1 F1500 X-3.631 Y-12.116 E29.48735
G0 F3600 X-3.631 Y-11.551
G1 F1500 X-9.018 Y-16.938 E29.86743
G0 F3600 X-9.584 Y-16.938
G1 F1500 X-3.631 Y-10.985 E30.28745
G0 F3600 X-3.631 Y-10.419
G1 F1500 X-10.149 Y-16.938 E30.74736
G0 F3600 X-10.715 Y-16.938
G1 F1500 X-3.631 Y-9.854 E31.24718
G0 F3600 X-3.631 Y-9.288
G1 F1500 X-11.281 Y-16.938 E31.78692
G0 F3600 X-11.846 Y-16.938
G1 F1500 X-3.631 Y-8.722 E32.36657
G0 F3600 X-3.631 Y-8.157
G1 F1500 X-12.412 Y-16.938 E32.98612
G0 F3600 X-12.978 Y-16.938
G1 F1500 X-3.631 Y-7.591 E33.6456
G0 F3600 X-3.631 Y-7.025
G1 F1500 X-13.543 Y-16.938 E34.34498
G0 F3600 X-14.109 Y-16.938
G1 F1500 X-3.631 Y-6.46 E35.08426
G0 F3600 X-3.631 Y-5.894
G1 F1500 X-14.675 Y-16.938 E35.86347
G0 F3600 X-15.24 Y-16.938
G1 F1500 X-3.631 Y-5.328 E36.68259
G0 F3600 X-3.631 Y-4.763
G1 F1500 X-15.806 Y-16.938 E37.5416
G0 F3600 X-16.372 Y-16.938
G1 F1500 X-3.631 Y-4.197 E38.44055
G0 F3600 X-3.631 Y-3.631
G1 F1500 X-16.938 Y-16.938 E39.37943
G0 F3600 X-17.504 Y-16.938
G1 F1500 X-3.631 Y-3.066 E40.35821
G0 F3600 X-3.631 Y-2.5
G1 F1500 X-18.07 Y-16.938 E41.37692
G0 F3600 X-18.635 Y-16.938
G1 F1500 X-3.631 Y-1.934 E42.43553
G0 F3600 X-3.631 Y-1.368
G1 F1500 X-19.201 Y-16.938 E43.53408
G0 F3600 X-19.767 Y-16.938
G1 F1500 X-3.631 Y-.803 E44.67253
G0 F3600 X-3.631 Y-.237
G1 F1500 X-20.332 Y-16.938 E45.85087
G0 F3600 X-20.898 Y-16.938
G1 F1500 X-3.631 Y0.328 E47.06912
G0 F3600 X-3.631 Y0.893
G1 F1500 X-21.464 Y-16.938 E48.32726
G0 F3600 X-22.029 Y-16.938
G1 F1500 X-3.631 Y1.459 E49.62531
G0 F3600 X-3.631 Y2.025
G1 F1500 X-22.595 Y-16.938 E50.96328
G0 F3600 X-23.161 Y-16.938
G1 F1500 X-3.631 Y2.59 E52.34116
G0 F3600 X-3.631 Y3.156
G1 F1500 X-23.726 Y-16.938 E53.75893
G0 F3600 X-24.292 Y-16.938
G1 F1500 X-3.631 Y3.722 E55.21664
G0 F3600 X-3.631 Y4.287
G1 F1500 X-24.858 Y-16.938 E56.71425
G0 F3600 X-25.424 Y-16.938
G1 F1500 X-3.631 Y4.853 E58.2518
G0 F3600 X-3.631 Y5.419
G1 F1500 X-25.989 Y-16.938 E59.82924
G0 F3600 X-26.555 Y-16.938
G1 F1500 X-3.631 Y5.984 E61.44658
G0 F3600 X-3.631 Y6.55
G1 F1500 X-27.121 Y-16.938 E63.10386
G0 F3600 X-27.686 Y-16.938
G1 F1500 X-3.631 Y7.116 E64.80103
G0 F3600 X-3.631 Y7.682
G1 F1500 X-28.252 Y-16.938 E66.53814
G0 F3600 X-28.818 Y-16.938
G1 F1500 X-3.631 Y8.247 E68.31515
G0 F3600 X-3.631 Y8.813
G1 F1500 X-29.383 Y-16.938 E70.13206
G0 F3600 X-29.949 Y-16.938
G1 F1500 X-3.631 Y9.379 E71.9889
G0 F3600 X-3.631 Y9.944
G1 F1500 X-29.967 Y-16.39 E73.84697
G0 F3600 X-29.967 Y-15.825
G1 F1500 X-3.631 Y10.51 E75.70509
G0 F3600 X-3.631 Y11.076
G1 F1500 X-29.967 Y-15.259 E77.5632
G0 F3600 X-29.967 Y-14.693
G1 F1500 X-3.631 Y11.641 E79.42127
G0 F3600 X-3.631 Y12.207
G1 F1500 X-29.967 Y-14.127 E81.27935
G0 F3600 X-29.967 Y-13.562
G1 F1500 X-3.631 Y12.773 E83.13746
G0 F3600 X-3.631 Y13.338
G1 F1500 X-29.967 Y-12.996 E84.99554
G0 F3600 X-29.967 Y-12.43
G1 F1500 X-3.631 Y13.904 E86.85362
G0 F3600 X-3.631 Y14.47
G1 F1500 X-29.967 Y-11.865 E88.71173
G0 F3600 X-29.967 Y-11.299
G1 F1500 X-3.631 Y15.035 E90.5698
G0 F3600 X-3.631 Y15.601
G1 F1500 X-29.967 Y-10.733 E92.42788
G0 F3600 X-29.967 Y-10.168
G1 F1500 X-3.631 Y16.167 E94.28599
G0 F3600 X-3.631 Y16.732
G1 F1500 X-29.967 Y-9.602 E96.14407
G0 F3600 X-29.967 Y-9.036
G1 F1500 X-3.631 Y17.298 E98.00215
G0 F3600 X-3.631 Y17.864
G1 F1500 X-29.967 Y-8.471 E99.86026
G0 F3600 X-29.967 Y-7.905
G1 F1500 X-3.631 Y18.43 E101.71837
G0 F3600 X-3.751 Y18.876
G1 F1500 X-29.967 Y-7.339 E103.56801
G0 F3600 X-29.967 Y-6.774
G1 F1500 X-4.316 Y18.876 E105.3778
G0 F3600 X-4.882 Y18.876
G1 F1500 X-29.967 Y-6.208 E107.14764
G0 F3600 X-29.967 Y-5.642
G1 F1500 X-5.448 Y18.876 E108.87755
G0 F3600 X-6.013 Y18.876
G1 F1500 X-29.967 Y-5.077 E110.5676
G0 F3600 X-29.967 Y-4.511
G1 F1500 X-6.579 Y18.876 E112.21772
G0 F3600 X-7.145 Y18.876
G1 F1500 X-29.967 Y-3.945 E113.8279
G0 F3600 X-29.967 Y-3.379
G1 F1500 X-7.71 Y18.876 E115.39818
G0 F3600 X-8.276 Y18.876
G1 F1500 X-29.967 Y-2.814 E116.92856
G0 F3600 X-29.967 Y-2.248
G1 F1500 X-8.842 Y18.876 E118.41901
G0 F3600 X-9.408 Y18.876
G1 F1500 X-29.967 Y-1.682 E119.86952
G0 F3600 X-29.967 Y-1.117
G1 F1500 X-9.973 Y18.876 E121.28017
G0 F3600 X-10.539 Y18.876
G1 F1500 X-29.967 Y-.551 E122.65089
G0 F3600 X-29.967 Y0.014
G1 F1500 X-11.105 Y18.876 E123.9817
G0 F3600 X-11.67 Y18.876
G1 F1500 X-29.967 Y0.579 E125.27265
G0 F3600 X-29.967 Y1.145
G1 F1500 X-12.236 Y18.876 E126.52367
G0 F3600 X-12.802 Y18.876
G1 F1500 X-29.967 Y1.711 E127.73476
G0 F3600 X-29.967 Y2.276
G1 F1500 X-13.367 Y18.876 E128.90598
G0 F3600 X-13.933 Y18.876
G1 F1500 X-29.967 Y2.842 E130.03726
G0 F3600 X-29.967 Y3.408
G1 F1500 X-14.499 Y18.876 E131.12861
G0 F3600 X-15.064 Y18.876
G1 F1500 X-29.967 Y3.973 E132.1801
G0 F3600 X-29.967 Y4.539
G1 F1500 X-15.63 Y18.876 E133.19165
G0 F3600 X-16.196 Y18.876
G1 F1500 X-29.967 Y5.105 E134.16327
G0 F3600 X-29.967 Y5.67
G1 F1500 X-16.761 Y18.876 E135.09502
G0 F3600 X-17.327 Y18.876
G1 F1500 X-29.967 Y6.236 E135.98685
G0 F3600 X-29.967 Y6.802
G1 F1500 X-17.893 Y18.876 E136.83873
G0 F3600 X-18.459 Y18.876
G1 F1500 X-29.967 Y7.368 E137.65068
G0 F3600 X-29.967 Y7.933
G1 F1500 X-19.024 Y18.876 E138.42277
G0 F3600 X-19.59 Y18.876
G1 F1500 X-29.967 Y8.499 E139.15492
G0 F3600 X-29.967 Y9.065
G1 F1500 X-20.156 Y18.876 E139.84714
G0 F3600 X-20.721 Y18.876
G1 F1500 X-29.967 Y9.63 E140.4995
G0 F3600 X-29.967 Y10.196
G1 F1500 X-21.287 Y18.876 E141.11192
G0 F3600 X-21.853 Y18.876
G1 F1500 X-29.967 Y10.762 E141.68441
G0 F3600 X-29.967 Y11.327
G1 F1500 X-22.418 Y18.876 E142.21703
G0 F3600 X-22.984 Y18.876
G1 F1500 X-29.967 Y11.893 E142.70972
G0 F3600 X-29.967 Y12.459
G1 F1500 X-23.55 Y18.876 E143.16247
G0 F3600 X-24.115 Y18.876
G1 F1500 X-29.967 Y13.024 E143.57536
G0 F3600 X-29.967 Y13.59
G1 F1500 X-24.681 Y18.876 E143.94832
G0 F3600 X-25.247 Y18.876
G1 F1500 X-29.967 Y14.156 E144.28134
G0 F3600 X-29.967 Y14.721
G1 F1500 X-25.812 Y18.876 E144.5745
G0 F3600 X-26.378 Y18.876
G1 F1500 X-29.967 Y15.287 E144.82772
G0 F3600 X-29.967 Y15.853
G1 F1500 X-26.944 Y18.876 E145.04101
G0 F3600 X-27.509 Y18.876
G1 F1500 X-29.967 Y16.419 E145.2144
G0 F3600 X-29.967 Y16.984
G1 F1500 X-28.075 Y18.876 E145.34789
G0 F3600 X-28.641 Y18.876
G1 F1500 X-29.967 Y17.55 E145.44145
G0 F3600 X-29.967 Y18.116
G1 F1500 X-29.207 Y18.876 E145.49507
G0 F3600 X-29.772 Y18.876
G1 F1500 X-29.967 Y18.681 E145.50883
G0 F3600 X-29.548 Y18.457
;MESH:NONMESH
G0 F600 X-29.548 Y18.457 Z0.5
G0 F3600 X-30.278 Y-17.249
G0 X-30.548 Y-17.519
;TIME_ELAPSED:123.398320
;LAYER:1
M106 S255
;TYPE:WALL-OUTER
;MESH:v2.stl
G1 F1500 X-30.548 Y19.457 E146.73865
G1 X-3.052 Y19.457 E147.65317
G1 X-3.052 Y-3.771 E148.42574
G1 X-3.052 Y-17.519 E148.883
G1 X-30.548 Y-17.519 E149.79752
G0 F5400 X-30.548 Y-17.319
G0 X-30.168 Y-17.139
;TYPE:SKIN
G1 F1500 X-30.168 Y19.077 E151.00207
G1 X-3.432 Y19.077 E151.89131
G1 X-3.432 Y-3.771 E152.65124
G1 X-3.432 Y-17.139 E153.09586
G1 X-30.168 Y-17.139 E153.9851
G0 F5400 X-29.967 Y-16.419
G1 F1500 X-29.446 Y-16.939 E154.00959
G0 F5400 X-28.881 Y-16.939
G1 F1500 X-29.967 Y-15.853 E154.06067
G0 F5400 X-29.967 Y-15.287
G1 F1500 X-28.315 Y-16.939 E154.13837
G0 F5400 X-27.749 Y-16.939
G1 F1500 X-29.967 Y-14.721 E154.2427
G0 F5400 X-29.967 Y-14.156
G1 F1500 X-27.184 Y-16.939 E154.37361
G0 F5400 X-26.618 Y-16.939
G1 F1500 X-29.967 Y-13.59 E154.53113
G0 F5400 X-29.967 Y-13.024
G1 F1500 X-26.052 Y-16.939 E154.71528
G0 F5400 X-25.486 Y-16.939
G1 F1500 X-29.967 Y-12.459 E154.92603
G0 F5400 X-29.967 Y-11.893
G1 F1500 X-24.921 Y-16.939 E155.16338
G0 F5400 X-24.355 Y-16.939
G1 F1500 X-29.967 Y-11.327 E155.42735
G0 F5400 X-29.967 Y-10.762
G1 F1500 X-23.789 Y-16.939 E155.71792
G0 F5400 X-23.224 Y-16.939
G1 F1500 X-29.967 Y-10.196 E156.03509
G0 F5400 X-29.967 Y-9.63
G1 F1500 X-22.658 Y-16.939 E156.37888
G0 F5400 X-22.092 Y-16.939
G1 F1500 X-29.967 Y-9.065 E156.74928
G0 F5400 X-29.967 Y-8.499
G1 F1500 X-21.527 Y-16.939 E157.14627
G0 F5400 X-20.961 Y-16.939
G1 F1500 X-29.967 Y-7.933 E157.56988
G0 F5400 X-29.967 Y-7.368
G1 F1500 X-20.395 Y-16.939 E158.0201
G0 F5400 X-19.83 Y-16.939
G1 F1500 X-29.967 Y-6.802 E158.49691
G0 F5400 X-29.967 Y-6.236
G1 F1500 X-19.264 Y-16.939 E159.00035
G0 F5400 X-18.698 Y-16.939
G1 F1500 X-29.967 Y-5.67 E159.53041
G0 F5400 X-29.967 Y-5.105
G1 F1500 X-18.133 Y-16.939 E160.08704
G0 F5400 X-17.567 Y-16.939
G1 F1500 X-29.967 Y-4.539 E160.6703
G0 F5400 X-29.967 Y-3.973
G1 F1500 X-17.001 Y-16.939 E161.28018
G0 F5400 X-16.436 Y-16.938
G1 F1500 X-29.967 Y-3.408 E161.91661
G0 F5400 X-29.967 Y-2.842
G1 F1500 X-15.871 Y-16.938 E162.57965
G0 F5400 X-15.305 Y-16.938
G1 F1500 X-29.967 Y-2.276 E163.2693
G0 F5400 X-29.967 Y-1.711
G1 F1500 X-14.739 Y-16.938 E163.98556
G0 F5400 X-14.173 Y-16.938
G1 F1500 X-29.967 Y-1.145 E164.72843
G0 F5400 X-29.967 Y-.579
G1 F1500 X-13.608 Y-16.938 E165.49791
G0 F5400 X-13.042 Y-16.938
G1 F1500 X-29.967 Y-0.014 E166.29399
G0 F5400 X-29.967 Y0.551
G1 F1500 X-12.476 Y-16.938 E167.11666
G0 F5400 X-11.911 Y-16.938
G1 F1500 X-29.967 Y1.117 E167.96594
G0 F5400 X-29.967 Y1.682
G1 F1500 X-11.345 Y-16.938 E168.84181
G0 F5400 X-10.779 Y-16.938
G1 F1500 X-29.967 Y2.248 E169.74431
G0 F5400 X-29.967 Y2.814
G1 F1500 X-10.214 Y-16.938 E170.67341
G0 F5400 X-9.648 Y-16.938
G1 F1500 X-29.967 Y3.379 E171.62911
G0 F5400 X-29.967 Y3.945
G1 F1500 X-9.082 Y-16.938 E172.61142
G0 F5400 X-8.517 Y-16.938
G1 F1500 X-29.967 Y4.511 E173.62034
G0 F5400 X-29.967 Y5.077
G1 F1500 X-7.951 Y-16.938 E174.65589
G0 F5400 X-7.385 Y-16.938
G1 F1500 X-29.967 Y5.642 E175.71803
G0 F5400 X-29.967 Y6.208
G1 F1500 X-6.82 Y-16.938 E176.80677
G0 F5400 X-6.254 Y-16.938
G1 F1500 X-29.967 Y6.774 E177.92213
G0 F5400 X-29.967 Y7.339
G1 F1500 X-5.688 Y-16.938 E179.06409
G0 F5400 X-5.122 Y-16.938
G1 F1500 X-29.967 Y7.905 E180.23268
G0 F5400 X-29.967 Y8.471
G1 F1500 X-4.557 Y-16.938 E181.42786
G0 F5400 X-3.991 Y-16.938
G1 F1500 X-29.967 Y9.036 E182.64965
G0 F5400 X-29.967 Y9.602
G1 F1500 X-3.632 Y-16.732 E183.88834
G0 F5400 X-3.632 Y-16.166
G1 F1500 X-29.967 Y10.168 E185.12704
G0 F5400 X-29.967 Y10.733
G1 F1500 X-3.632 Y-15.6 E186.36571
G0 F5400 X-3.632 Y-15.035
G1 F1500 X-29.967 Y11.299 E187.6044
G0 F5400 X-29.967 Y11.865
G1 F1500 X-3.632 Y-14.469 E188.84309
G0 F5400 X-3.632 Y-13.903
G1 F1500 X-29.967 Y12.43 E190.08177
G0 F5400 X-29.967 Y12.996
G1 F1500 X-3.632 Y-13.338 E191.32046
G0 F5400 X-3.632 Y-12.772
G1 F1500 X-29.967 Y13.562 E192.55915
G0 F5400 X-29.967 Y14.127
G1 F1500 X-3.632 Y-12.206 E193.79782
G0 F5400 X-3.632 Y-11.641
G1 F1500 X-29.967 Y14.693 E195.03652
G0 F5400 X-29.967 Y15.259
G1 F1500 X-3.632 Y-11.075 E196.27521
G0 F5400 X-3.632 Y-10.509
G1 F1500 X-29.967 Y15.825 E197.51391
G0 F5400 X-29.967 Y16.39
G1 F1500 X-3.632 Y-9.944 E198.7526
G0 F5400 X-3.632 Y-9.378
G1 F1500 X-29.967 Y16.956 E199.99129
G0 F5400 X-29.967 Y17.522
G1 F1500 X-3.632 Y-8.812 E201.22999
G0 F5400 X-3.632 Y-8.246
G1 F1500 X-29.967 Y18.087 E202.46866
G0 F5400 X-29.967 Y18.653
G1 F1500 X-3.632 Y-7.681 E203.70735
G0 F5400 X-3.632 Y-7.115
G1 F1500 X-29.624 Y18.876 E204.92991
G0 F5400 X-29.059 Y18.876
G1 F1500 X-3.632 Y-6.549 E206.12588
G0 F5400 X-3.632 Y-5.984
G1 F1500 X-28.493 Y18.876 E207.29524
G0 F5400 X-27.927 Y18.876
G1 F1500 X-3.632 Y-5.418 E208.43798
G0 F5400 X-3.632 Y-4.852
G1 F1500 X-27.362 Y18.876 E209.55412
G0 F5400 X-26.796 Y18.876
G1 F1500 X-3.632 Y-4.287 E210.64366
G0 F5400 X-3.632 Y-3.721
G1 F1500 X-26.23 Y18.876 E211.70657
G0 F5400 X-25.665 Y18.876
G1 F1500 X-3.632 Y-3.155 E212.74289
G0 F5400 X-3.632 Y-2.59
G1 F1500 X-25.099 Y18.876 E213.75261
G0 F5400 X-24.533 Y18.876
G1 F1500 X-3.632 Y-2.024 E214.7357
G0 F5400 X-3.632 Y-1.458
G1 F1500 X-23.968 Y18.876 E215.6922
G0 F5400 X-23.402 Y18.876
G1 F1500 X-3.632 Y-.893 E216.6221
G0 F5400 X-3.632 Y-.327
G1 F1500 X-22.836 Y18.876 E217.52537
G0 F5400 X-22.271 Y18.876
G1 F1500 X-3.632 Y0.238 E218.40207
