;FLAVOR:Marlin
;TIME:4584
;Filament used: 4.77855m
;Layer height: 0.2
;MINX:-54.606
;MINY:-55.213
;MINZ:0.3
;MAXX:55.819
;MAXY:55.213
;MAXZ:19.3
;Generated with Cura_SteamEngine 5.2.1
M140 S60
M105
M190 S60
M104 S200
M105
M109 S200
M82 ;absolute extrusion mode
G28 ;Home
G1 Z15.0 F6000 ;Move the platform down 15mm
;Prime the extruder
G92 E0
G1 F200 E3
G92 E0
M141 S28
G92 E0
G92 E0
G1 F1500 E-6.5
;LAYER_COUNT:96
;LAYER:0
M107
G0 F3600 X-54.495 Y-1.316 Z0.3
;TYPE:SKIRT
G1 F1500 E0
G1 F1800 X-52.923 Y-13.245 E0.60029
G1 X-52.828 Y-13.9 E0.63331
G1 X-52.639 Y-14.613 E0.67011
G1 X-52.293 Y-15.491 E0.71719
G1 X-47.67 Y-26.654 E1.31998
G1 X-47.407 Y-27.264 E1.35312
G1 X-47.04 Y-27.901 E1.3898
G1 X-46.48 Y-28.657 E1.43674
G1 X-39.141 Y-38.22 E2.03814
G1 X-38.712 Y-38.762 E2.07263
G1 X-38.193 Y-39.283 E2.10932
G1 X-37.483 Y-39.847 E2.15455
G1 X-27.852 Y-47.238 E2.76023
G1 X-27.343 Y-47.616 E2.79186
G1 X-26.714 Y-47.98 E2.82812
G1 X-25.809 Y-48.374 E2.87736
G1 X-14.691 Y-52.98 E3.47775
G1 X-14.072 Y-53.226 E3.51099
G1 X-13.367 Y-53.416 E3.54741
G1 X-12.38 Y-53.565 E3.59721
G1 X-.504 Y-55.128 E4.19482
G1 X0.212 Y-55.211 E4.23078
G1 X0.944 Y-55.213 E4.2673
G1 X1.9 Y-55.104 E4.3153
G1 X13.813 Y-53.536 E4.91477
G1 X14.508 Y-53.434 E4.94982
G1 X15.218 Y-53.246 E4.98646
G1 X16.127 Y-52.887 E5.03522
G1 X27.225 Y-48.29 E5.63452
G1 X27.868 Y-48.013 E5.66945
G1 X28.508 Y-47.644 E5.70631
G1 X29.293 Y-47.062 E5.75506
G1 X38.811 Y-39.758 E6.35362
G1 X39.361 Y-39.325 E6.38854
G1 X39.888 Y-38.801 E6.42562
G1 X40.487 Y-38.046 E6.4737
G1 X47.804 Y-28.509 E7.07341
G1 X48.224 Y-27.946 E7.10845
G1 X48.594 Y-27.307 E7.14529
G1 X48.958 Y-26.468 E7.19092
G1 X53.586 Y-15.297 E7.79417
G1 X53.832 Y-14.678 E7.8274
G1 X54.022 Y-13.973 E7.86383
G1 X54.171 Y-12.986 E7.91363
G1 X55.734 Y-1.11 E8.51124
G1 X55.817 Y-.397 E8.54705
G1 X55.819 Y0.335 E8.58357
G1 X55.71 Y1.294 E8.63172
G1 X54.142 Y13.206 E9.23114
G1 X54.04 Y13.901 E9.26619
G1 X53.852 Y14.61 E9.30278
G1 X53.493 Y15.521 E9.35163
G1 X48.896 Y26.619 E9.95093
G1 X48.619 Y27.262 E9.98586
G1 X48.25 Y27.902 E10.02272
G1 X47.668 Y28.687 E10.07147
G1 X40.364 Y38.205 E10.67003
G1 X39.931 Y38.755 E10.70495
G1 X39.407 Y39.282 E10.74203
G1 X38.652 Y39.881 E10.79011
G1 X29.115 Y47.198 E11.38982
G1 X28.553 Y47.617 E11.42479
G1 X27.916 Y47.987 E11.46155
G1 X27.125 Y48.331 E11.50458
G1 X15.903 Y52.98 E12.11059
G1 X15.284 Y53.226 E12.14382
G1 X14.579 Y53.416 E12.18025
G1 X13.592 Y53.565 E12.23005
G1 X1.716 Y55.128 E12.82765
G1 X1.001 Y55.211 E12.86356
G1 X0.27 Y55.213 E12.90003
G1 X-.688 Y55.104 E12.94814
G1 X-12.643 Y53.53 E13.54972
G1 X-13.295 Y53.435 E13.58259
G1 X-14.006 Y53.246 E13.6193
G1 X-14.915 Y52.887 E13.66806
G1 X-26.014 Y48.29 E14.2674
G1 X-26.659 Y48.012 E14.30244
G1 X-27.295 Y47.646 E14.33905
G1 X-28.043 Y47.092 E14.38549
G1 X-37.659 Y39.712 E14.99024
G1 X-38.154 Y39.321 E15.02171
G1 X-38.674 Y38.802 E15.05836
G1 X-39.246 Y38.083 E15.1042
G1 X-46.62 Y28.473 E15.70853
G1 X-47.009 Y27.951 E15.74101
G1 X-47.378 Y27.313 E15.77778
G1 X-47.765 Y26.421 E15.82629
G1 X-52.376 Y15.288 E16.42747
G1 X-52.619 Y14.677 E16.46027
G1 X-52.81 Y13.97 E16.49681
G1 X-52.953 Y13.022 E16.54464
G1 X-54.521 Y1.119 E17.14361
G1 X-54.605 Y0.396 E17.17993
G1 X-54.606 Y-.337 E17.2165
G1 X-54.495 Y-1.316 E17.26565
G1 F1500 E10.76565
;MESH:outer 2.stl
G0 F3600 X-51.981 Y-.983
G0 X-50.906 Y-.842
G0 X-50.533 Y0.00
G1 F1500 E17.26565
G0 F3600 X-50.834 Y0.002
;TYPE:WALL-INNER
G1 F1800 X-49.08 Y13.315 E17.93558
G1 X-43.943 Y25.717 E18.6053
G1 X-35.768 Y36.371 E19.27527
G1 X-25.111 Y44.549 E19.94546
G1 X-12.709 Y49.687 E20.61519
G1 X0.606 Y51.44 E21.28521
G1 X13.921 Y49.687 E21.95524
G1 X26.323 Y44.549 E22.62497
G1 X36.981 Y36.371 E23.2952
G1 X45.155 Y25.717 E23.96514
G1 X50.293 Y13.315 E24.63488
G1 X52.046 Y-0.002 E25.305
G1 X50.293 Y-13.317 E25.97502
G1 X45.155 Y-25.717 E26.64466
G1 X36.982 Y-36.372 E27.31461
G1 X26.323 Y-44.549 E27.98485
G1 X13.921 Y-49.687 E28.65458
G1 X0.928 Y-51.398 E29.3084
G1 X0.606 Y-51.44 E29.3246
G1 X-12.709 Y-49.687 E29.99463
G1 X-25.111 Y-44.549 E30.66436
G1 X-35.768 Y-36.371 E31.33455
G1 X-43.943 Y-25.717 E32.00452
G1 X-49.08 Y-13.317 E32.67415
G1 X-50.834 Y0.002 E33.34437
G0 F3600 X-50.533 Y0.00
G0 X-46.182 Y-0.04
G0 X-45.885 Y0.00
G1 F1800 X-44.294 Y-12.055 E33.95101
G1 X-39.646 Y-23.264 E34.5564
G1 X-32.253 Y-32.888 E35.16186
G1 X-22.658 Y-40.252 E35.76529
G1 X-11.449 Y-44.9 E36.37068
G1 X0.606 Y-46.487 E36.9773
G1 X12.661 Y-44.9 E37.58391
G1 X23.851 Y-40.26 E38.18828
G1 X33.481 Y-32.875 E38.79373
G1 X40.859 Y-23.264 E39.39822
G1 X45.506 Y-12.055 E40.00359
G1 X47.093 Y-0.001 E40.61016
G1 X45.515 Y12.034 E41.21572
G1 X40.87 Y23.25 E41.82138
G1 X33.478 Y32.872 E42.42673
G1 X23.851 Y40.26 E43.03215
G1 X12.661 Y44.9 E43.63652
G1 X0.606 Y46.491 E44.24316
G1 X-11.449 Y44.9 E44.8498
G1 X-22.658 Y40.252 E45.45519
G1 X-32.253 Y32.888 E46.05862
G1 X-39.646 Y23.264 E46.66408
G1 X-44.294 Y12.055 E47.26947
G1 X-45.885 Y0.00 E47.87611
G0 F3600 X-45.483 Y0.00
;TYPE:WALL-OUTER
G1 F1800 X-43.911 Y-11.931 E48.4765
G1 X-39.307 Y-23.045 E49.07667
G1 X-31.983 Y-32.589 E49.67687
G1 X-22.439 Y-39.913 E50.27706
G1 X-11.325 Y-44.517 E50.87723
G1 X0.606 Y-46.087 E51.47761
G1 X12.537 Y-44.517 E52.07798
G1 X23.651 Y-39.913 E52.67815
G1 X33.195 Y-32.589 E53.27835
G1 X40.52 Y-23.045 E53.87857
G1 X45.123 Y-11.931 E54.47873
G1 X46.693 Y-0.001 E55.07905
G1 X45.123 Y11.931 E55.67947
G1 X40.52 Y23.045 E56.27962
G1 X33.195 Y32.589 E56.87985
G1 X23.651 Y39.913 E57.48004
G1 X12.537 Y44.517 E58.08022
G1 X0.606 Y46.089 E58.6806
G1 X-11.325 Y44.517 E59.28099
G1 X-22.439 Y39.913 E59.88116
G1 X-31.983 Y32.589 E60.48135
G1 X-39.307 Y23.045 E61.08155
G1 X-43.911 Y11.931 E61.68172
G1 X-45.483 Y0.00 E62.28211
G0 F3600 X-45.457 Y-.198
G0 X-46.149 Y-.29
G0 X-50.533 Y0.00
G0 X-51.238 Y0.002
G1 F1800 X-49.47 Y13.419 E62.95727
G1 X-44.293 Y25.919 E63.63227
G1 X-36.054 Y36.657 E64.30751
G1 X-25.313 Y44.899 E64.98297
G1 X-12.813 Y50.077 E65.65798
G1 X0.606 Y51.844 E66.33324
G1 X14.025 Y50.077 E67.00849
G1 X26.525 Y44.899 E67.68351
G1 X37.267 Y36.657 E68.359
G1 X45.505 Y25.919 E69.03422
G1 X50.683 Y13.419 E69.70923
G1 X52.45 Y-0.002 E70.38459
G1 X50.683 Y-13.421 E71.05984
G1 X45.505 Y-25.919 E71.73477
G1 X37.267 Y-36.657 E72.40998
G1 X26.525 Y-44.899 E73.08548
G1 X14.025 Y-50.077 E73.76049
G1 X0.98 Y-51.794 E74.41692
G1 X0.606 Y-51.844 E74.43575
G1 X-12.813 Y-50.077 E75.111
G1 X-25.313 Y-44.899 E75.78602
G1 X-36.054 Y-36.657 E76.46147
G1 X-44.293 Y-25.919 E77.13672
G1 X-49.47 Y-13.421 E77.81162
G1 X-51.238 Y0.002 E78.48708
G0 F3600 X-51.212 Y0.2
G0 X-50.451 Y0.004
;TYPE:SKIN
G1 F1800 X-48.708 Y13.217 E79.15199
G1 X-43.612 Y25.522 E79.81646
G1 X-35.499 Y36.098 E80.48146
G1 X-24.916 Y44.218 E81.14696
G1 X-12.611 Y49.315 E81.81144
G1 X0.606 Y51.057 E82.47654
G1 X13.823 Y49.315 E83.14164
G1 X26.128 Y44.218 E83.80612
G1 X36.712 Y36.098 E84.47166
G1 X44.824 Y25.522 E85.13663
G1 X49.921 Y13.217 E85.80111
G1 X51.625 Y0.267 E86.45276
G1 X51.662 Y-0.004 E86.46641
G1 X49.921 Y-13.22 E87.13145
G1 X44.824 Y-25.522 E87.7958
G1 X36.712 Y-36.098 E88.46077
G1 X26.128 Y-44.218 E89.12631
G1 X13.823 Y-49.315 E89.79079
G1 X0.606 Y-51.056 E90.45588
G1 X-12.611 Y-49.315 E91.12098
G1 X-24.916 Y-44.218 E91.78546
G1 X-35.499 Y-36.098 E92.45095
G1 X-43.612 Y-25.522 E93.11596
G1 X-48.708 Y-13.221 E93.78024
G1 X-50.451 Y0.004 E94.44574
G0 F3600 X-46.253 Y0.128
G1 F1800 X-46.253 Y-.128 E94.45851
G1 X-44.672 Y-12.134 E95.06267
G1 X-40.027 Y-23.35 E95.66832
G1 X-39.927 Y-23.523 E95.67829
G1 X-32.525 Y-33.158 E96.28446
G1 X-22.835 Y-40.593 E96.89381
G1 X-11.532 Y-45.277 E97.50422
G1 X0.607 Y-46.876 E98.11507
G1 X12.737 Y-45.278 E98.72546
G1 X23.932 Y-40.644 E99.32994
G1 X24.149 Y-40.518 E99.34246
G1 X33.765 Y-33.129 E99.94748
G1 X41.202 Y-23.439 E100.55689
G1 X45.881 Y-12.142 E101.16693
G1 X47.48 Y-0.002 E101.77782
G1 X45.885 Y12.115 E102.38756
G1 X41.24 Y23.35 E102.99409
G1 X41.14 Y23.523 E103.00406
G1 X33.737 Y33.158 E103.61026
G1 X24.027 Y40.601 E104.22064
G1 X12.743 Y45.277 E104.83002
G1 X0.734 Y46.859 E105.43433
G1 X0.478 Y46.859 E105.4471
G1 X-11.525 Y45.278 E106.05111
G1 X-22.72 Y40.644 E106.65558
G1 X-22.94 Y40.516 E106.66828
G1 X-32.544 Y33.142 E107.27237
G1 X-39.988 Y23.44 E107.88247
G1 X-44.671 Y12.139 E108.49277
G1 X-46.253 Y0.128 E109.09717
G0 F3600 X-44.534 Y12.095
G0 X-35.21 Y36.065
G1 F1800 X-35.468 Y35.807 E109.11538
G0 F3600 X-37.33 Y33.379
G1 F1800 X-32.78 Y37.93 E109.43644
G1 X-32.71 Y38
G0 F3600 X-30.349 Y39.795
G1 F1800 X-39.194 Y30.95 E110.0605
G1 X-39.264 Y30.88
G0 F3600 X-41.056 Y28.522
G1 F1800 X-27.919 Y41.659 E110.98739
G1 X-27.849 Y41.729
G0 F3600 X-25.489 Y43.524
G1 F1800 X-42.919 Y26.094 E112.21717
G1 X-42.989 Y26.024
G0 F3600 X-43.725 Y24.722
G1 F1800 X-24.117 Y44.33 E113.60062
G1 X-24.047 Y44.4
G0 F3600 X-23.151 Y44.73
G1 F1800 X-44.125 Y23.756 E115.08045
G1 X-44.195 Y23.686
G0 F3600 X-44.525 Y22.791
G1 F1800 X-22.185 Y45.131 E116.65666
G1 X-22.115 Y45.201
G0 F3600 X-21.219 Y45.531
G1 F1800 X-44.925 Y21.825 E118.32924
G1 X-44.995 Y21.755
G0 F3600 X-45.324 Y20.86
G1 F1800 X-20.254 Y45.93 E120.09807
G1 X-20.184 Y46
G0 F3600 X-19.288 Y46.331
G1 F1800 X-31.179 Y34.439 E120.93707
G1 X-31.249 Y34.369
G0 F3600 X-28.741 Y36.312
G1 F1800 X-18.322 Y46.731 E121.67219
G1 X-18.252 Y46.801
G0 F3600 X-17.356 Y47.131
G1 F1800 X-26.303 Y38.184 E122.30345
G1 X-26.373 Y38.114
G0 F3600 X-23.865 Y40.056
G1 F1800 X-16.39 Y47.531 E122.83085
G1 X-16.32 Y47.601
G0 F3600 X-15.425 Y47.931
G1 F1800 X-22.338 Y41.018 E123.3186
G1 X-22.408 Y40.948
G0 F3600 X-21.373 Y41.417
G1 F1800 X-14.459 Y48.331 E123.80642
G1 X-14.389 Y48.401
G0 F3600 X-13.493 Y48.731
G1 F1800 X-20.408 Y41.816 E124.29431
G1 X-20.478 Y41.746
G0 F3600 X-19.443 Y42.216
G1 F1800 X-12.538 Y49.121 E124.7815
G0 F3600 X-11.886 Y49.207
G1 F1800 X-18.478 Y42.615 E125.2466
G1 X-18.548 Y42.545
G0 F3600 X-17.513 Y43.014
G1 F1800 X-11.235 Y49.293 E125.68958
G0 F3600 X-10.583 Y49.379
G1 F1800 X-16.549 Y43.413 E126.11051
G1 X-16.619 Y43.343
G0 F3600 X-15.583 Y43.813
G1 F1800 X-9.932 Y49.464 E126.50922
G0 F3600 X-9.28 Y49.551
G1 F1800 X-14.618 Y44.212 E126.88588
G1 X-14.688 Y44.142
G0 F3600 X-13.654 Y44.611
G1 F1800 X-8.628 Y49.636 E127.24046
G0 F3600 X-7.976 Y49.723
G1 F1800 X-12.689 Y45.01 E127.57299
G1 X-12.759 Y44.94
G0 F3600 X-11.724 Y45.409
G1 F1800 X-7.325 Y49.808 E127.88336
G0 F3600 X-6.673 Y49.894
G1 F1800 X-11.025 Y45.543 E128.19038
G0 F3600 X-10.373 Y45.629
G1 F1800 X-6.022 Y49.98 E128.49737
G0 F3600 X-5.371 Y50.065
G1 F1800 X-9.722 Y45.715 E128.80432
G0 F3600 X-9.07 Y45.801
G1 F1800 X-4.719 Y50.152 E129.11131
G0 F3600 X-4.067 Y50.237
G1 F1800 X-8.418 Y45.886 E129.41829
G0 F3600 X-7.766 Y45.973
G1 F1800 X-3.416 Y50.324 E129.72524
G0 F3600 X-2.764 Y50.409
G1 F1800 X-7.115 Y46.058 E130.03223
G0 F3600 X-6.464 Y46.144
G1 F1800 X-2.112 Y50.495 E130.33925
G0 F3600 X-1.461 Y50.581
G1 F1800 X-5.812 Y46.23 E130.64624
G0 F3600 X-5.161 Y46.316
G1 F1800 X-.809 Y50.667 E130.95326
G0 F3600 X-.158 Y50.753
G1 F1800 X-4.509 Y46.402 E131.26025
G0 F3600 X-3.857 Y46.488
G1 F1800 X0.493 Y50.839 E131.5672
G0 F3600 X1.018 Y50.799
G1 F1800 X-3.206 Y46.574 E131.86526
G0 F3600 X-2.554 Y46.659
G1 F1800 X1.518 Y50.733 E132.15263
G0 F3600 X2.018 Y50.667
G1 F1800 X-1.902 Y46.746 E132.42924
G0 F3600 X-1.251 Y46.831
G1 F1800 X2.518 Y50.601 E132.6952
G0 F3600 X3.018 Y50.536
G1 F1800 X-.6 Y46.917 E132.95051
G0 F3600 X0.051 Y47.003
G1 F1800 X3.518 Y50.47 E133.19512
G0 F3600 X4.017 Y50.403
G1 F1800 X0.669 Y47.055 E133.43134
G0 F3600 X1.18 Y47
G1 F1800 X4.517 Y50.338 E133.66682
G0 F3600 X5.017 Y50.272
G1 F1800 X1.68 Y46.934 E133.9023
G0 F3600 X2.18 Y46.869
G1 F1800 X5.517 Y50.206 E134.13774
G0 F3600 X6.017 Y50.14
G1 F1800 X2.679 Y46.803 E134.37322
G0 F3600 X3.179 Y46.736
G1 F1800 X6.517 Y50.075 E134.60877
G0 F3600 X7.016 Y50.008
G1 F1800 X3.679 Y46.671 E134.84421
G0 F3600 X4.179 Y46.605
G1 F1800 X7.516 Y49.942 E135.07966
G0 F3600 X8.016 Y49.877
G1 F1800 X4.678 Y46.539 E135.31517
G0 F3600 X5.178 Y46.473
G1 F1800 X8.516 Y49.811 E135.55069
G0 F3600 X9.016 Y49.745
G1 F1800 X5.678 Y46.408 E135.78616
G0 F3600 X6.177 Y46.341
G1 F1800 X9.516 Y49.679 E136.02171
G0 F3600 X10.015 Y49.613
G1 F1800 X6.677 Y46.275 E136.25723
G0 F3600 X7.177 Y46.21
G1 F1800 X10.515 Y49.547 E136.49271
G0 F3600 X11.015 Y49.481
G1 F1800 X7.677 Y46.144 E136.72819
G0 F3600 X8.177 Y46.078
G1 F1800 X11.515 Y49.416 E136.9637
G0 F3600 X12.015 Y49.35
G1 F1800 X8.676 Y46.012 E137.19925
G0 F3600 X9.176 Y45.946
G1 F1800 X12.515 Y49.284 E137.4348
G0 F3600 X13.014 Y49.218
G1 F1800 X9.676 Y45.88 E137.67031
G0 F3600 X10.176 Y45.814
G1 F1800 X13.514 Y49.152 E137.90583
G0 F3600 X13.965 Y49.037
G1 F1800 X10.676 Y45.749 E138.13785
G0 F3600 X11.175 Y45.682
G1 F1800 X14.365 Y48.872 E138.36292
G0 F3600 X14.765 Y48.706
G1 F1800 X11.675 Y45.616 E138.58093
G0 F3600 X12.175 Y45.551
G1 F1800 X15.165 Y48.54 E138.79186
G0 F3600 X15.565 Y48.375
G1 F1800 X12.675 Y45.485 E138.99577
G0 F3600 X13.099 Y45.343
G1 F1800 X15.965 Y48.209 E139.19798
G0 F3600 X16.365 Y48.043
G1 F1800 X13.499 Y45.177 E139.40019
G0 F3600 X13.899 Y45.012
G1 F1800 X16.765 Y47.878 E139.6024
G0 F3600 X17.165 Y47.712
G1 F1800 X14.299 Y44.846 E139.80461
G0 F3600 X14.7 Y44.681
G1 F1800 X17.565 Y47.546 E140.00675
G0 F3600 X17.965 Y47.381
G1 F1800 X15.099 Y44.515 E140.20897
G0 F3600 X15.499 Y44.349
G1 F1800 X18.365 Y47.215 E140.41118
G0 F3600 X18.765 Y47.049
G1 F1800 X15.9 Y44.184 E140.61332
G0 F3600 X16.3 Y44.018
G1 F1800 X19.165 Y46.884 E140.81549
G0 F3600 X19.565 Y46.718
G1 F1800 X16.699 Y43.852 E141.01771
G0 F3600 X17.099 Y43.687
G1 F1800 X19.965 Y46.552 E141.21988
G0 F3600 X20.365 Y46.386
G1 F1800 X17.5 Y43.521 E141.42202
G0 F3600 X17.9 Y43.356
G1 F1800 X20.765 Y46.221 E141.62417
G0 F3600 X21.165 Y46.055
G1 F1800 X18.3 Y43.19 E141.82631
G0 F3600 X18.7 Y43.024
G1 F1800 X21.565 Y45.889 E142.02845
G0 F3600 X21.965 Y45.724
G1 F1800 X19.1 Y42.859 E142.23059
G0 F3600 X19.5 Y42.693
G1 F1800 X22.365 Y45.558 E142.43273
G0 F3600 X22.765 Y45.392
G1 F1800 X19.9 Y42.528 E142.63484
G0 F3600 X20.3 Y42.362
G1 F1800 X23.165 Y45.227 E142.83698
G0 F3600 X23.565 Y45.061
G1 F1800 X20.7 Y42.196 E143.03912
G0 F3600 X21.1 Y42.031
G1 F1800 X23.965 Y44.895 E143.24122
G0 F3600 X24.365 Y44.73
G1 F1800 X21.5 Y41.865 E143.44337
G0 F3600 X21.901 Y41.7
G1 F1800 X24.765 Y44.563 E143.6454
G0 F3600 X25.165 Y44.398
G1 F1800 X22.3 Y41.534 E143.84751
G0 F3600 X22.7 Y41.368
G1 F1800 X25.565 Y44.233 E144.04965
G0 F3600 X25.964 Y44.066
G1 F1800 X23.101 Y41.203 E144.25165
G0 F3600 X23.501 Y41.037
G1 F1800 X26.297 Y43.833 E144.44892
G0 F3600 X26.617 Y43.588
G1 F1800 X23.9 Y40.871 E144.64062
G0 F3600 X24.266 Y40.671
G1 F1800 X26.937 Y43.342 E144.82907
G0 F3600 X27.257 Y43.096
G1 F1800 X24.586 Y40.426 E145.01749
G0 F3600 X24.907 Y40.18
G1 F1800 X27.577 Y42.851 E145.20591
G0 F3600 X27.898 Y42.606
G1 F1800 X25.227 Y39.935 E145.39436
G0 F3600 X25.547 Y39.689
G1 F1800 X28.217 Y42.359 E145.58275
G0 F3600 X28.538 Y42.114
G1 F1800 X25.867 Y39.443 E145.7712
G0 F3600 X26.187 Y39.198
G1 F1800 X28.858 Y41.869 E145.95965
G0 F3600 X29.178 Y41.623
G1 F1800 X26.508 Y38.953 E146.14804
G0 F3600 X26.827 Y38.707
G1 F1800 X29.498 Y41.377 E146.33646
G0 F3600 X29.818 Y41.132
G1 F1800 X27.147 Y38.461 E146.52491
G0 F3600 X27.468 Y38.216
G1 F1800 X30.139 Y40.887 E146.71336
G0 F3600 X30.458 Y40.64
G1 F1800 X27.788 Y37.97 E146.90174
G0 F3600 X28.108 Y37.724
G1 F1800 X30.778 Y40.395 E147.09016
G0 F3600 X31.099 Y40.15
G1 F1800 X28.428 Y37.479 E147.27862
G0 F3600 X28.748 Y37.234
G1 F1800 X31.419 Y39.904 E147.46703
G0 F3600 X31.739 Y39.658
G1 F1800 X29.069 Y36.988 E147.65542
G0 F3600 X29.388 Y36.742
G1 F1800 X32.059 Y39.413 E147.84387
G0 F3600 X32.379 Y39.168
G1 F1800 X29.709 Y36.497 E148.03229
G0 F3600 X30.029 Y36.251
G1 F1800 X32.699 Y38.921 E148.22067
G0 F3600 X33.019 Y38.676
G1 F1800 X30.349 Y36.006 E148.40906
G0 F3600 X30.669 Y35.76
G1 F1800 X33.34 Y38.431 E148.59751
G0 F3600 X33.66 Y38.185
G1 F1800 X30.989 Y35.515 E148.78593
G0 F3600 X31.309 Y35.269
G1 F1800 X33.98 Y37.939 E148.97435
G0 F3600 X34.3 Y37.694
G1 F1800 X31.63 Y35.024 E149.16273
G0 F3600 X31.95 Y34.779
G1 F1800 X34.62 Y37.449 E149.35111
