;FLAVOR:Marlin
;TIME:3061
;Filament used: 3.00719m
;Layer height: 0.2
;MINX:-39.087
;MINY:-39.087
;MINZ:0.3
;MAXX:39.087
;MAXY:39.087
;MAXZ:19.3
;Generated with Cura_SteamEngine 5.2.1
M140 S60
M105
M190 S60
M104 S200
M105
M109 S200
M82 ;absolute extrusion mode
G28 ;Home
G1 Z15.0 F6000 ;Move the platform down 15mm
;Prime the extruder
G92 E0
G1 F200 E3
G92 E0
M141 S28
G92 E0
G92 E0
G1 F1500 E-6.5
;LAYER_COUNT:96
;LAYER:0
M107
G0 F3600 X26.873 Y-28.313 Z0.3
;TYPE:SKIRT
G1 F1500 E0
G1 F1800 X27.475 Y-27.801 E0.03943
G1 X28.108 Y-27.14 E0.08509
G1 X33.287 Y-20.391 E0.50951
G1 X33.735 Y-19.741 E0.54889
G1 X34.175 Y-18.942 E0.5944
G1 X37.429 Y-11.085 E1.01868
G1 X37.694 Y-10.341 E1.05808
G1 X37.911 Y-9.46 E1.10335
G1 X39.023 Y-1.019 E1.52811
G1 X39.087 Y-.232 E1.5675
G1 X39.067 Y0.683 E1.61316
G1 X37.956 Y9.119 E2.03767
G1 X37.814 Y9.895 E2.07703
G1 X37.559 Y10.772 E2.12259
G1 X34.305 Y18.628 E2.54682
G1 X33.967 Y19.341 E2.58619
G1 X33.495 Y20.12 E2.63163
G1 X28.313 Y26.873 E3.0563
G1 X27.801 Y27.475 E3.09573
G1 X27.14 Y28.108 E3.14139
G1 X20.392 Y33.286 E3.56574
G1 X19.742 Y33.735 E3.60515
G1 X18.942 Y34.174 E3.65068
G1 X11.085 Y37.429 E4.07497
G1 X10.341 Y37.694 E4.11438
G1 X9.45 Y37.912 E4.16014
G1 X1.019 Y39.023 E4.5844
G1 X0.232 Y39.087 E4.62379
G1 X-.683 Y39.067 E4.66945
G1 X-9.119 Y37.956 E5.09396
G1 X-9.895 Y37.814 E5.13332
G1 X-10.772 Y37.559 E5.17889
G1 X-18.629 Y34.304 E5.60318
G1 X-19.342 Y33.965 E5.64257
G1 X-20.123 Y33.493 E5.68809
G1 X-26.873 Y28.313 E6.11259
G1 X-27.475 Y27.801 E6.15201
G1 X-28.108 Y27.14 E6.19767
G1 X-33.287 Y20.391 E6.62209
G1 X-33.735 Y19.741 E6.66148
G1 X-34.175 Y18.942 E6.70699
G1 X-37.429 Y11.085 E7.13126
G1 X-37.694 Y10.341 E7.17066
G1 X-37.911 Y9.46 E7.21593
G1 X-39.023 Y1.019 E7.64069
G1 X-39.087 Y0.232 E7.68009
G1 X-39.067 Y-.683 E7.72575
G1 X-37.956 Y-9.119 E8.15025
G1 X-37.814 Y-9.895 E8.18961
G1 X-37.559 Y-10.772 E8.23518
G1 X-34.305 Y-18.628 E8.65941
G1 X-33.967 Y-19.341 E8.69877
G1 X-33.495 Y-20.12 E8.74421
G1 X-28.313 Y-26.873 E9.16889
G1 X-27.801 Y-27.475 E9.20831
G1 X-27.14 Y-28.108 E9.25397
G1 X-20.392 Y-33.286 E9.67833
G1 X-19.742 Y-33.735 E9.71774
G1 X-18.942 Y-34.174 E9.76327
G1 X-11.085 Y-37.429 E10.18756
G1 X-10.341 Y-37.694 E10.22696
G1 X-9.45 Y-37.912 E10.27273
G1 X-1.019 Y-39.023 E10.69699
G1 X-.232 Y-39.087 E10.73638
G1 X0.683 Y-39.067 E10.78204
G1 X9.119 Y-37.956 E11.20655
G1 X9.895 Y-37.814 E11.24591
G1 X10.772 Y-37.559 E11.29147
G1 X18.629 Y-34.304 E11.71576
G1 X19.342 Y-33.965 E11.75515
G1 X20.123 Y-33.493 E11.80068
G1 X26.873 Y-28.313 E12.22517
G0 F3600 X26.63 Y-27.996
G1 F1800 X27.215 Y-27.497 E12.26353
G1 X27.817 Y-26.863 E12.30715
G1 X32.97 Y-20.148 E12.72944
G1 X33.406 Y-19.514 E12.76782
G1 X33.824 Y-18.744 E12.81154
G1 X37.06 Y-10.932 E13.23339
G1 X37.317 Y-10.207 E13.27177
G1 X37.522 Y-9.356 E13.31544
G1 X38.627 Y-.966 E13.73763
G1 X38.687 Y-.2 E13.77597
G1 X38.665 Y0.675 E13.81963
G1 X37.56 Y9.066 E14.24188
G1 X37.42 Y9.823 E14.28028
G1 X37.172 Y10.662 E14.32393
G1 X33.936 Y18.475 E14.74584
G1 X33.605 Y19.169 E14.7842
G1 X33.15 Y19.914 E14.82775
G1 X27.996 Y26.63 E15.2501
G1 X27.496 Y27.215 E15.2885
G1 X26.864 Y27.817 E15.33204
G1 X20.149 Y32.969 E15.7543
G1 X19.515 Y33.405 E15.79269
G1 X18.746 Y33.823 E15.83635
G1 X10.932 Y37.06 E16.25832
G1 X10.207 Y37.317 E16.2967
G1 X9.356 Y37.522 E16.34037
G1 X0.966 Y38.627 E16.76256
G1 X0.2 Y38.687 E16.8009
G1 X-.675 Y38.665 E16.84456
G1 X-9.066 Y37.56 E17.26681
G1 X-9.823 Y37.42 E17.30521
G1 X-10.662 Y37.172 E17.34886
G1 X-18.476 Y33.935 E17.77083
G1 X-19.17 Y33.604 E17.80919
G1 X-19.91 Y33.152 E17.85245
G1 X-26.63 Y27.996 E18.27503
G1 X-27.215 Y27.497 E18.31339
G1 X-27.817 Y26.863 E18.35701
G1 X-32.97 Y20.148 E18.77929
G1 X-33.406 Y19.514 E18.81768
G1 X-33.824 Y18.744 E18.86139
G1 X-37.06 Y10.932 E19.28325
G1 X-37.317 Y10.207 E19.32162
G1 X-37.522 Y9.356 E19.3653
G1 X-38.627 Y0.966 E19.78749
G1 X-38.687 Y0.2 E19.82582
G1 X-38.665 Y-.675 E19.86949
G1 X-37.56 Y-9.066 E20.29173
G1 X-37.42 Y-9.823 E20.33014
G1 X-37.172 Y-10.662 E20.37379
G1 X-33.936 Y-18.475 E20.79569
G1 X-33.605 Y-19.169 E20.83405
G1 X-33.15 Y-19.914 E20.8776
G1 X-27.996 Y-26.63 E21.29996
G1 X-27.496 Y-27.215 E21.33835
G1 X-26.864 Y-27.817 E21.3819
G1 X-20.149 Y-32.969 E21.80416
G1 X-19.515 Y-33.405 E21.84254
G1 X-18.746 Y-33.823 E21.88621
G1 X-10.932 Y-37.06 E22.30818
G1 X-10.207 Y-37.317 E22.34655
G1 X-9.356 Y-37.522 E22.39023
G1 X-.966 Y-38.627 E22.81242
G1 X-.2 Y-38.687 E22.85075
G1 X0.675 Y-38.665 E22.89442
G1 X9.066 Y-37.56 E23.31666
G1 X9.823 Y-37.42 E23.35507
G1 X10.662 Y-37.172 E23.39872
G1 X18.476 Y-33.935 E23.82069
G1 X19.17 Y-33.604 E23.85905
G1 X19.91 Y-33.152 E23.90231
G1 X26.63 Y-27.996 E24.32488
G0 F3600 X26.386 Y-27.678
G1 F1800 X26.955 Y-27.192 E24.36222
G1 X27.678 Y-26.386 E24.41624
G1 X32.652 Y-19.904 E24.82386
G1 X33.075 Y-19.287 E24.86118
G1 X33.566 Y-18.321 E24.91525
G1 X36.69 Y-10.778 E25.32257
G1 X36.939 Y-10.073 E25.35987
G1 X37.163 Y-9.014 E25.41387
G1 X38.23 Y-.914 E25.82147
G1 X38.288 Y-.168 E25.8588
G1 X38.23 Y0.914 E25.91286
G1 X37.163 Y9.014 E26.32046
G1 X37.026 Y9.75 E26.35781
G1 X36.69 Y10.778 E26.41177
G1 X33.566 Y18.321 E26.81909
G1 X33.244 Y18.996 E26.8564
G1 X32.652 Y19.904 E26.91048
G1 X27.678 Y26.386 E27.31811
G1 X27.192 Y26.955 E27.35544
G1 X26.386 Y27.678 E27.40946
G1 X19.905 Y32.651 E27.81702
G1 X19.288 Y33.075 E27.85437
G1 X18.323 Y33.565 E27.90836
G1 X10.779 Y36.69 E28.31575
G1 X10.073 Y36.939 E28.3531
G1 X9.014 Y37.163 E28.4071
G1 X0.914 Y38.23 E28.8147
G1 X0.168 Y38.288 E28.85203
G1 X-.914 Y38.23 E28.90609
G1 X-9.014 Y37.163 E29.31369
G1 X-9.75 Y37.026 E29.35104
G1 X-10.779 Y36.69 E29.40505
G1 X-18.323 Y33.565 E29.81243
G1 X-18.998 Y33.242 E29.84976
G1 X-19.905 Y32.651 E29.90377
G1 X-26.386 Y27.678 E30.31133
G1 X-26.955 Y27.192 E30.34866
G1 X-27.678 Y26.386 E30.40268
G1 X-32.652 Y19.904 E30.81031
G1 X-33.075 Y19.287 E30.84763
G1 X-33.566 Y18.321 E30.90169
G1 X-36.69 Y10.778 E31.30901
G1 X-36.939 Y10.073 E31.34632
G1 X-37.163 Y9.014 E31.40032
G1 X-38.23 Y0.914 E31.80792
G1 X-38.288 Y0.168 E31.84525
G1 X-38.23 Y-.914 E31.89931
G1 X-37.163 Y-9.014 E32.30691
G1 X-37.026 Y-9.75 E32.34426
G1 X-36.69 Y-10.778 E32.39822
G1 X-33.566 Y-18.321 E32.80554
G1 X-33.244 Y-18.996 E32.84285
G1 X-32.652 Y-19.904 E32.89693
G1 X-27.678 Y-26.386 E33.30456
G1 X-27.192 Y-26.955 E33.34189
G1 X-26.386 Y-27.678 E33.39591
G1 X-19.905 Y-32.651 E33.80346
G1 X-19.288 Y-33.075 E33.84081
G1 X-18.323 Y-33.565 E33.89481
G1 X-10.779 Y-36.69 E34.3022
G1 X-10.073 Y-36.939 E34.33954
G1 X-9.014 Y-37.163 E34.39355
G1 X-.914 Y-38.23 E34.80115
G1 X-.168 Y-38.288 E34.83848
G1 X0.914 Y-38.23 E34.89254
G1 X9.014 Y-37.163 E35.30014
G1 X9.75 Y-37.026 E35.33749
G1 X10.779 Y-36.69 E35.39149
G1 X18.323 Y-33.565 E35.79888
G1 X18.998 Y-33.242 E35.83621
G1 X19.905 Y-32.651 E35.89022
G1 X26.386 Y-27.678 E36.29778
G0 F3600 X26.143 Y-27.361
G1 F1800 X26.694 Y-26.888 E36.33401
G1 X27.361 Y-26.143 E36.3839
G1 X32.335 Y-19.661 E36.79152
G1 X32.745 Y-19.061 E36.82778
G1 X33.197 Y-18.168 E36.87771
G1 X36.321 Y-10.625 E37.28503
G1 X36.561 Y-9.94 E37.32124
G1 X36.766 Y-8.962 E37.3711
G1 X37.833 Y-.862 E37.7787
G1 X37.889 Y-.138 E37.81493
G1 X37.833 Y0.862 E37.8649
G1 X36.766 Y8.962 E38.2725
G1 X36.632 Y9.676 E38.30874
G1 X36.321 Y10.625 E38.35856
G1 X33.197 Y18.168 E38.76588
G1 X32.882 Y18.823 E38.80214
G1 X32.335 Y19.661 E38.85207
G1 X27.361 Y26.143 E39.2597
G1 X26.888 Y26.694 E39.29593
G1 X26.143 Y27.361 E39.34582
G1 X19.662 Y32.334 E39.75337
G1 X19.062 Y32.744 E39.78963
G1 X18.17 Y33.196 E39.83952
G1 X10.626 Y36.321 E40.2469
G1 X9.94 Y36.561 E40.28316
G1 X8.962 Y36.766 E40.33302
G1 X0.862 Y37.833 E40.74062
G1 X0.138 Y37.889 E40.77685
G1 X-.862 Y37.833 E40.82681
G1 X-8.962 Y36.766 E41.23442
G1 X-9.676 Y36.632 E41.27066
G1 X-10.626 Y36.321 E41.32053
G1 X-18.17 Y33.196 E41.72791
G1 X-18.825 Y32.881 E41.76418
G1 X-19.662 Y32.334 E41.81406
G1 X-26.143 Y27.361 E42.22162
G1 X-26.694 Y26.888 E42.25785
G1 X-27.361 Y26.143 E42.30773
G1 X-32.335 Y19.661 E42.71536
G1 X-32.745 Y19.061 E42.75162
G1 X-33.197 Y18.168 E42.80155
G1 X-36.321 Y10.625 E43.20887
G1 X-36.561 Y9.94 E43.24508
G1 X-36.766 Y8.962 E43.29494
G1 X-37.833 Y0.862 E43.70254
G1 X-37.889 Y0.138 E43.73877
G1 X-37.833 Y-.862 E43.78873
G1 X-36.766 Y-8.962 E44.19634
G1 X-36.632 Y-9.676 E44.23258
G1 X-36.321 Y-10.625 E44.2824
G1 X-33.197 Y-18.168 E44.68972
G1 X-32.882 Y-18.823 E44.72598
G1 X-32.335 Y-19.661 E44.77591
G1 X-27.361 Y-26.143 E45.18354
G1 X-26.888 Y-26.694 E45.21977
G1 X-26.143 Y-27.361 E45.26966
G1 X-19.662 Y-32.334 E45.67721
G1 X-19.062 Y-32.744 E45.71347
G1 X-18.17 Y-33.196 E45.76336
G1 X-10.626 Y-36.321 E46.17074
G1 X-9.94 Y-36.561 E46.207
G1 X-8.962 Y-36.766 E46.25685
G1 X-.862 Y-37.833 E46.66446
G1 X-.138 Y-37.889 E46.70068
G1 X0.862 Y-37.833 E46.75065
G1 X8.962 Y-36.766 E47.15825
G1 X9.676 Y-36.632 E47.1945
G1 X10.626 Y-36.321 E47.24437
G1 X18.17 Y-33.196 E47.65175
G1 X18.825 Y-32.881 E47.68801
G1 X19.662 Y-32.334 E47.7379
G1 X26.143 Y-27.361 E48.14546
G0 F3600 X25.899 Y-27.044
G1 F1800 X26.433 Y-26.584 E48.18062
G1 X27.044 Y-25.899 E48.22641
G1 X32.018 Y-19.417 E48.63404
G1 X32.414 Y-18.835 E48.66916
G1 X32.827 Y-18.015 E48.71497
G1 X35.951 Y-10.472 E49.12229
G1 X36.183 Y-9.808 E49.15738
G1 X36.37 Y-8.91 E49.20314
G1 X37.437 Y-.81 E49.61074
G1 X37.489 Y-.108 E49.64586
G1 X37.437 Y0.81 E49.69173
G1 X36.37 Y8.91 E50.09934
G1 X36.238 Y9.601 E50.13443
G1 X35.951 Y10.472 E50.18019
G1 X32.827 Y18.015 E50.58751
G1 X32.521 Y18.649 E50.62263
G1 X32.018 Y19.417 E50.66843
G1 X27.044 Y25.899 E51.07606
G1 X26.584 Y26.433 E51.11122
G1 X25.899 Y27.044 E51.15702
G1 X19.418 Y32.017 E51.56457
G1 X18.836 Y32.413 E51.59969
G1 X18.017 Y32.826 E51.64545
G1 X10.473 Y35.951 E52.05284
G1 X9.808 Y36.183 E52.08798
G1 X8.91 Y36.37 E52.13374
G1 X0.81 Y37.437 E52.54134
G1 X0.108 Y37.489 E52.57646
G1 X-.81 Y37.437 E52.62233
G1 X-8.91 Y36.37 E53.02993
G1 X-9.601 Y36.238 E53.06503
G1 X-10.473 Y35.951 E53.11083
G1 X-18.017 Y32.826 E53.51822
G1 X-18.651 Y32.52 E53.55334
G1 X-19.418 Y32.017 E53.5991
G1 X-25.899 Y27.044 E54.00666
G1 X-26.433 Y26.584 E54.04182
G1 X-27.044 Y25.899 E54.08761
G1 X-32.018 Y19.417 E54.49524
G1 X-32.414 Y18.835 E54.53036
G1 X-32.827 Y18.015 E54.57617
G1 X-35.951 Y10.472 E54.98349
G1 X-36.183 Y9.808 E55.01858
G1 X-36.37 Y8.91 E55.06434
G1 X-37.437 Y0.81 E55.47194
G1 X-37.489 Y0.108 E55.50706
G1 X-37.437 Y-.81 E55.55294
G1 X-36.37 Y-8.91 E55.96054
G1 X-36.238 Y-9.601 E55.99563
G1 X-35.951 Y-10.472 E56.04139
G1 X-32.827 Y-18.015 E56.44871
G1 X-32.521 Y-18.649 E56.48383
G1 X-32.018 Y-19.417 E56.52963
G1 X-27.044 Y-25.899 E56.93726
G1 X-26.584 Y-26.433 E56.97242
G1 X-25.899 Y-27.044 E57.01822
G1 X-19.418 Y-32.017 E57.42577
G1 X-18.836 Y-32.413 E57.46089
G1 X-18.017 Y-32.826 E57.50665
G1 X-10.473 Y-35.951 E57.91404
G1 X-9.808 Y-36.183 E57.94918
G1 X-8.91 Y-36.37 E57.99494
G1 X-.81 Y-37.437 E58.40254
G1 X-.108 Y-37.489 E58.43766
G1 X0.81 Y-37.437 E58.48353
G1 X8.91 Y-36.37 E58.89114
G1 X9.601 Y-36.238 E58.92623
G1 X10.473 Y-35.951 E58.97203
G1 X18.017 Y-32.826 E59.37942
G1 X18.651 Y-32.52 E59.41454
G1 X19.418 Y-32.017 E59.4603
G1 X25.899 Y-27.044 E59.86786
G0 F3600 X25.656 Y-26.726
G1 F1800 X26.171 Y-26.281 E59.90181
G1 X26.726 Y-25.656 E59.94352
G1 X31.7 Y-19.174 E60.35114
G1 X32.082 Y-18.61 E60.38513
G1 X32.458 Y-17.862 E60.4269
G1 X35.582 Y-10.319 E60.83422
G1 X35.805 Y-9.676 E60.86817
G1 X35.973 Y-8.857 E60.90988
G1 X37.04 Y-.757 E61.31748
G1 X37.089 Y-0.078 E61.35145
G1 X37.04 Y0.757 E61.39318
G1 X35.973 Y8.857 E61.80078
G1 X35.845 Y9.526 E61.83476
G1 X35.582 Y10.319 E61.87644
G1 X32.458 Y17.862 E62.28376
G1 X32.161 Y18.475 E62.31774
G1 X31.7 Y19.174 E62.35952
G1 X26.726 Y25.656 E62.76715
G1 X26.281 Y26.171 E62.8011
G1 X25.656 Y26.726 E62.8428
G1 X19.175 Y31.699 E63.25036
G1 X18.611 Y32.082 E63.28437
G1 X17.864 Y32.456 E63.32605
G1 X10.32 Y35.581 E63.73344
G1 X9.676 Y35.805 E63.76745
G1 X8.857 Y35.973 E63.80917
G1 X0.757 Y37.04 E64.21677
G1 X0.078 Y37.089 E64.25073
G1 X-.757 Y37.04 E64.29246
G1 X-8.857 Y35.973 E64.70006
G1 X-9.526 Y35.845 E64.73404
G1 X-10.32 Y35.581 E64.77579
G1 X-17.864 Y32.456 E65.18317
G1 X-18.476 Y32.159 E65.21711
G1 X-19.175 Y31.699 E65.25886
G1 X-25.656 Y26.726 E65.66642
G1 X-26.171 Y26.281 E65.70037
G1 X-26.726 Y25.656 E65.74207
G1 X-31.7 Y19.174 E66.1497
G1 X-32.082 Y18.61 E66.18369
G1 X-32.458 Y17.862 E66.22545
G1 X-35.582 Y10.319 E66.63277
G1 X-35.805 Y9.676 E66.66673
G1 X-35.973 Y8.857 E66.70844
G1 X-37.04 Y0.757 E67.11604
G1 X-37.089 Y0.078 E67.15
G1 X-37.04 Y-.757 E67.19173
G1 X-35.973 Y-8.857 E67.59934
G1 X-35.845 Y-9.526 E67.63332
G1 X-35.582 Y-10.319 E67.675
G1 X-32.458 Y-17.862 E68.08232
G1 X-32.161 Y-18.475 E68.1163
G1 X-31.7 Y-19.174 E68.15808
G1 X-26.726 Y-25.656 E68.56571
G1 X-26.281 Y-26.171 E68.59966
G1 X-25.656 Y-26.726 E68.64136
G1 X-19.175 Y-31.699 E69.04892
G1 X-18.611 Y-32.082 E69.08293
G1 X-17.864 Y-32.456 E69.12461
G1 X-10.32 Y-35.581 E69.532
G1 X-9.676 Y-35.805 E69.56601
G1 X-8.857 Y-35.973 E69.60772
G1 X-.757 Y-37.04 E70.01533
G1 X-0.078 Y-37.089 E70.04929
G1 X0.757 Y-37.04 E70.09102
G1 X8.857 Y-35.973 E70.49862
G1 X9.526 Y-35.845 E70.5326
G1 X10.32 Y-35.581 E70.57435
G1 X17.864 Y-32.456 E70.98173
G1 X18.476 Y-32.159 E71.01567
G1 X19.175 Y-31.699 E71.05742
G1 X25.656 Y-26.726 E71.46498
G0 F3600 X25.412 Y-26.409
G1 F1800 X25.908 Y-25.978 E71.49776
G1 X26.409 Y-25.412 E71.53547
G1 X31.383 Y-18.93 E71.9431
G1 X31.751 Y-18.386 E71.97587
G1 X32.088 Y-17.709 E72.01359
G1 X35.212 Y-10.166 E72.42091
G1 X35.426 Y-9.545 E72.45368
G1 X35.577 Y-8.805 E72.49136
G1 X36.644 Y-.705 E72.89897
G1 X36.69 Y-0.05 E72.93172
G1 X36.644 Y0.705 E72.96946
G1 X35.577 Y8.805 E73.37706
G1 X35.451 Y9.45 E73.40985
G1 X35.212 Y10.166 E73.44751
G1 X32.088 Y17.709 E73.85483
G1 X31.8 Y18.3 E73.88763
G1 X31.383 Y18.93 E73.92532
G1 X26.409 Y25.412 E74.33295
G1 X25.978 Y25.908 E74.36573
G1 X25.412 Y26.409 E74.40344
G1 X18.931 Y31.382 E74.811
G1 X18.387 Y31.75 E74.84377
G1 X17.711 Y32.087 E74.88145
G1 X10.167 Y35.212 E75.28884
G1 X9.545 Y35.426 E75.32165
G1 X8.805 Y35.577 E75.35933
G1 X0.705 Y36.644 E75.76693
G1 X0.05 Y36.69 E75.79969
G1 X-.705 Y36.644 E75.83743
G1 X-8.805 Y35.577 E76.24503
G1 X-9.45 Y35.451 E76.27782
G1 X-10.167 Y35.212 E76.31553
G1 X-17.711 Y32.087 E76.72291
G1 X-18.301 Y31.799 E76.75567
G1 X-18.931 Y31.382 E76.79336
G1 X-25.412 Y26.409 E77.20092
G1 X-25.908 Y25.978 E77.2337
G1 X-26.409 Y25.412 E77.27141
G1 X-31.383 Y18.93 E77.67904
G1 X-31.751 Y18.386 E77.7118
G1 X-32.088 Y17.709 E77.74953
G1 X-35.212 Y10.166 E78.15685
G1 X-35.426 Y9.545 E78.18962
G1 X-35.577 Y8.805 E78.2273
G1 X-36.644 Y0.705 E78.6349
G1 X-36.69 Y0.05 E78.66766
G1 X-36.644 Y-.705 E78.7054
G1 X-35.577 Y-8.805 E79.113
G1 X-35.451 Y-9.45 E79.14579
G1 X-35.212 Y-10.166 E79.18345
G1 X-32.088 Y-17.709 E79.59077
G1 X-31.8 Y-18.3 E79.62357
G1 X-31.383 Y-18.93 E79.66126
G1 X-26.409 Y-25.412 E80.06889
G1 X-25.978 Y-25.908 E80.10167
G1 X-25.412 Y-26.409 E80.13938
G1 X-18.931 Y-31.382 E80.54694
G1 X-18.387 Y-31.75 E80.57971
G1 X-17.711 Y-32.087 E80.61739
G1 X-10.167 Y-35.212 E81.02477
G1 X-9.545 Y-35.426 E81.05759
G1 X-8.805 Y-35.577 E81.09527
G1 X-.705 Y-36.644 E81.50287
G1 X-0.05 Y-36.69 E81.53563
G1 X0.705 Y-36.644 E81.57337
G1 X8.805 Y-35.577 E81.98097
G1 X9.45 Y-35.451 E82.01376
G1 X10.167 Y-35.212 E82.05146
G1 X17.711 Y-32.087 E82.45885
G1 X18.301 Y-31.799 E82.4916
G1 X18.931 Y-31.382 E82.5293
G1 X25.412 Y-26.409 E82.93685
G0 F3600 X25.169 Y-26.092
G1 F1800 X25.645 Y-25.676 E82.96839
G1 X26.092 Y-25.169 E83.00211
G1 X31.066 Y-18.687 E83.40974
G1 X31.418 Y-18.162 E83.44128
G1 X31.718 Y-17.556 E83.47501
G1 X34.842 Y-10.013 E83.88233
G1 X35.047 Y-9.415 E83.91387
G1 X35.18 Y-8.753 E83.94756
G1 X36.247 Y-.653 E84.35516
G1 X36.29 Y-0.022 E84.38671
G1 X36.247 Y0.653 E84.42046
G1 X35.18 Y8.753 E84.82806
G1 X35.058 Y9.373 E84.85958
G1 X34.842 Y10.013 E84.89328
G1 X31.718 Y17.556 E85.3006
G1 X31.44 Y18.124 E85.33215
G1 X31.066 Y18.687 E85.36587
G1 X26.092 Y25.169 E85.7735
G1 X25.676 Y25.645 E85.80504
G1 X25.169 Y26.092 E85.83876
G1 X18.688 Y31.065 E86.24632
G1 X18.163 Y31.417 E86.27785
