;FLAVOR:Marlin
;TIME:984
;Filament used: 0.953036m
;Layer height: 0.2
;MINX:-38.262
;MINY:-23.033
;MINZ:0.3
;MAXX:38.256
;MAXY:23.03
;MAXZ:13.1
;Generated with Cura_SteamEngine 5.2.1
M140 S60
M105
M190 S60
M104 S200
M105
M109 S200
M82 ;absolute extrusion mode
G28 ;Home
G1 Z15.0 F6000 ;Move the platform down 15mm
;Prime the extruder
G92 E0
G1 F200 E3
G92 E0
M141 S28
G92 E0
G92 E0
G1 F1500 E-6.5
;LAYER_COUNT:65
;LAYER:0
M107
G0 F3600 X0.00 Y3.76 Z0.3
;TYPE:SKIRT
G1 F1500 E0
G1 F1800 X4.916 Y3.112 E0.24738
G1 X9.497 Y1.214 E0.49477
G1 X13.429 Y-1.803 E0.74203
G1 X16.449 Y-5.738 E0.9895
G1 X18.345 Y-10.318 E1.2368
G1 X19.127 Y-16.252 E1.53541
G1 X19.269 Y-17.028 E1.57477
G1 X19.49 Y-17.787 E1.61421
G1 X19.786 Y-18.519 E1.6536
G1 X20.154 Y-19.217 E1.69297
G1 X20.592 Y-19.875 E1.7324
G1 X21.093 Y-20.485 E1.77178
G1 X21.654 Y-21.041 E1.81119
G1 X22.268 Y-21.538 E1.8506
G1 X22.929 Y-21.97 E1.89
G1 X23.63 Y-22.333 E1.92938
G1 X24.364 Y-22.623 E1.96875
G1 X25.124 Y-22.837 E2.00814
G1 X25.902 Y-22.974 E2.04756
G1 X26.86 Y-23.033 E2.09544
G1 X30.466 Y-23.033 E2.27535
G1 X31.255 Y-22.993 E2.31476
G1 X32.035 Y-22.874 E2.35412
G1 X32.8 Y-22.676 E2.39355
G1 X33.54 Y-22.402 E2.43292
G1 X34.249 Y-22.054 E2.47232
G1 X34.92 Y-21.636 E2.51176
G1 X35.544 Y-21.153 E2.55113
G1 X36.117 Y-20.61 E2.59051
G1 X36.632 Y-20.011 E2.62992
G1 X37.083 Y-19.363 E2.66931
G1 X37.467 Y-18.672 E2.70875
G1 X37.779 Y-17.947 E2.74813
G1 X38.016 Y-17.194 E2.78751
G1 X38.175 Y-16.42 E2.82693
G1 X38.256 Y-15.635 E2.86631
G1 X38.256 Y-14.845 E2.90572
G1 X38.199 Y-14.214 E2.93733
G1 X37.16 Y-6.328 E3.33416
G1 X37.018 Y-5.551 E3.37357
G1 X36.761 Y-4.67 E3.41935
G1 X33.593 Y2.981 E3.83249
G1 X33.254 Y3.694 E3.87188
G1 X32.783 Y4.473 E3.9173
G1 X27.731 Y11.057 E4.33133
G1 X27.22 Y11.658 E4.37069
G1 X26.564 Y12.288 E4.41606
G1 X19.98 Y17.339 E4.83007
G1 X19.33 Y17.788 E4.86948
G1 X18.53 Y18.228 E4.91503
G1 X10.872 Y21.399 E5.32855
G1 X10.128 Y21.664 E5.36795
G1 X9.246 Y21.881 E5.41327
G1 X1.02 Y22.966 E5.82722
G1 X0.233 Y23.03 E5.86661
G1 X-.684 Y23.01 E5.91237
G1 X-8.907 Y21.926 E6.32617
G1 X-9.683 Y21.783 E6.36553
G1 X-10.555 Y21.53 E6.41083
G1 X-18.217 Y18.357 E6.82457
G1 X-18.93 Y18.019 E6.86394
G1 X-19.709 Y17.547 E6.90938
G1 X-26.291 Y12.497 E7.32327
G1 X-26.892 Y11.986 E7.36263
G1 X-27.522 Y11.33 E7.40801
G1 X-32.574 Y4.745 E7.82208
G1 X-33.023 Y4.095 E7.86149
G1 X-33.465 Y3.29 E7.90731
G1 X-36.634 Y-4.363 E8.32056
G1 X-36.898 Y-5.107 E8.35995
G1 X-37.115 Y-5.988 E8.40521
G1 X-38.198 Y-14.215 E8.8192
G1 X-38.262 Y-15.002 E8.8586
G1 X-38.245 Y-15.792 E8.89802
G1 X-38.149 Y-16.576 E8.93742
G1 X-37.973 Y-17.346 E8.97683
G1 X-37.721 Y-18.094 E9.01621
G1 X-37.395 Y-18.813 E9.05559
G1 X-36.997 Y-19.495 E9.09499
G1 X-36.533 Y-20.134 E9.13439
G1 X-36.006 Y-20.722 E9.17378
G1 X-35.423 Y-21.255 E9.21319
G1 X-34.789 Y-21.725 E9.25256
G1 X-34.11 Y-22.129 E9.29198
G1 X-33.394 Y-22.462 E9.33138
G1 X-32.648 Y-22.721 E9.37078
G1 X-31.88 Y-22.904 E9.41016
G1 X-31.097 Y-23.007 E9.44956
G1 X-30.465 Y-23.033 E9.48112
G1 X-26.86 Y-23.033 E9.66098
G1 X-26.071 Y-22.993 E9.70039
G1 X-25.291 Y-22.874 E9.73975
G1 X-24.526 Y-22.676 E9.77918
G1 X-23.786 Y-22.402 E9.81855
G1 X-23.077 Y-22.054 E9.85795
G1 X-22.406 Y-21.636 E9.89739
G1 X-21.782 Y-21.153 E9.93676
G1 X-21.209 Y-20.61 E9.97614
G1 X-20.694 Y-20.011 E10.01555
G1 X-20.243 Y-19.363 E10.05494
G1 X-19.859 Y-18.672 E10.09438
G1 X-19.547 Y-17.947 E10.13376
G1 X-19.31 Y-17.194 E10.17314
G1 X-19.127 Y-16.252 E10.22102
G1 X-18.345 Y-10.318 E10.51963
G1 X-16.449 Y-5.738 E10.76693
G1 X-13.429 Y-1.803 E11.0144
G1 X-9.497 Y1.214 E11.26166
G1 X-4.916 Y3.112 E11.50905
G1 X0.00 Y3.76 E11.75643
G0 F3600 X0.00 Y4.163
G1 F1800 X5.023 Y3.501 E12.00919
G1 X9.695 Y1.565 E12.2615
G1 X13.715 Y-1.519 E12.51428
G1 X16.799 Y-5.538 E12.76702
G1 X18.734 Y-10.21 E13.01931
G1 X19.523 Y-16.2 E13.32073
G1 X19.663 Y-16.956 E13.35909
G1 X19.881 Y-17.694 E13.39748
G1 X20.174 Y-18.405 E13.43585
G1 X20.539 Y-19.082 E13.47422
G1 X20.973 Y-19.717 E13.51259
G1 X21.47 Y-20.304 E13.55096
G1 X22.026 Y-20.836 E13.58935
G1 X22.633 Y-21.307 E13.62769
G1 X23.287 Y-21.713 E13.66609
G1 X23.979 Y-22.049 E13.70447
G1 X24.702 Y-22.311 E13.74283
G1 X25.448 Y-22.497 E13.78119
G1 X26.21 Y-22.604 E13.81958
G1 X26.86 Y-22.633 E13.85204
G1 X30.466 Y-22.633 E14.03195
G1 X31.234 Y-22.593 E14.07031
G1 X31.994 Y-22.474 E14.10869
G1 X32.737 Y-22.276 E14.14705
G1 X33.456 Y-22.002 E14.18544
G1 X34.142 Y-21.655 E14.2238
G1 X34.789 Y-21.239 E14.26217
G1 X35.389 Y-20.758 E14.30054
G1 X35.936 Y-20.217 E14.33892
G1 X36.424 Y-19.622 E14.37731
G1 X36.847 Y-18.98 E14.41567
G1 X37.202 Y-18.297 E14.45407
G1 X37.483 Y-17.582 E14.4924
G1 X37.689 Y-16.84 E14.53082
G1 X37.817 Y-16.082 E14.56917
G1 X37.866 Y-15.314 E14.60756
G1 X37.803 Y-14.266 E14.65994
G1 X36.764 Y-6.38 E15.05678
G1 X36.624 Y-5.624 E15.09513
G1 X36.378 Y-4.792 E15.13842
G1 X33.223 Y2.828 E15.54988
G1 X32.892 Y3.522 E15.58824
G1 X32.437 Y4.267 E15.63179
G1 X27.414 Y10.814 E16.04348
G1 X26.915 Y11.399 E16.08184
G1 X26.285 Y11.997 E16.12518
G1 X19.736 Y17.022 E16.53701
G1 X19.103 Y17.458 E16.57535
G1 X18.337 Y17.875 E16.61887
G1 X10.719 Y21.03 E17.03023
G1 X9.994 Y21.287 E17.06861
G1 X9.151 Y21.49 E17.11187
G1 X0.967 Y22.569 E17.5237
G1 X0.201 Y22.63 E17.56204
G1 X-.667 Y22.609 E17.60536
G1 X-8.854 Y21.529 E18.01735
G1 X-9.611 Y21.389 E18.05576
G1 X-10.445 Y21.143 E18.09914
G1 X-18.064 Y17.988 E18.51055
G1 X-18.758 Y17.657 E18.54891
G1 X-19.498 Y17.205 E18.59217
G1 X-26.047 Y12.18 E19.004
G1 X-26.633 Y11.681 E19.0424
G1 X-27.235 Y11.047 E19.08602
G1 X-32.257 Y4.502 E19.4976
G1 X-32.693 Y3.868 E19.53598
G1 X-33.108 Y3.105 E19.57932
G1 X-36.264 Y-4.516 E19.99084
G1 X-36.521 Y-5.241 E20.02922
G1 X-36.726 Y-6.094 E20.07299
G1 X-37.802 Y-14.267 E20.48426
G1 X-37.862 Y-15.034 E20.52264
G1 X-37.843 Y-15.803 E20.56102
G1 X-37.744 Y-16.566 E20.5994
G1 X-37.566 Y-17.314 E20.63776
G1 X-37.312 Y-18.04 E20.67614
G1 X-36.984 Y-18.736 E20.71452
G1 X-36.585 Y-19.393 E20.75287
G1 X-36.12 Y-20.006 E20.79126
G1 X-35.594 Y-20.567 E20.82962
G1 X-35.013 Y-21.071 E20.868
G1 X-34.382 Y-21.511 E20.90638
G1 X-33.709 Y-21.884 E20.94476
G1 X-33.001 Y-22.185 E20.98315
G1 X-32.266 Y-22.41 E21.02149
G1 X-31.511 Y-22.559 E21.05989
G1 X-30.465 Y-22.633 E21.1122
G1 X-26.86 Y-22.633 E21.29206
G1 X-26.092 Y-22.593 E21.33043
G1 X-25.332 Y-22.474 E21.3688
G1 X-24.589 Y-22.276 E21.40717
G1 X-23.87 Y-22.002 E21.44555
G1 X-23.184 Y-21.655 E21.48391
G1 X-22.537 Y-21.239 E21.52228
G1 X-21.937 Y-20.758 E21.56065
G1 X-21.39 Y-20.217 E21.59903
G1 X-20.902 Y-19.622 E21.63742
G1 X-20.479 Y-18.98 E21.67578
G1 X-20.124 Y-18.297 E21.71418
G1 X-19.843 Y-17.582 E21.75251
G1 X-19.637 Y-16.84 E21.79093
G1 X-19.523 Y-16.2 E21.82336
G1 X-18.734 Y-10.21 E22.12479
G1 X-16.799 Y-5.538 E22.37707
G1 X-13.715 Y-1.519 E22.62981
G1 X-9.695 Y1.565 E22.88259
G1 X-5.023 Y3.501 E23.1349
G1 X0.00 Y4.163 E23.38766
G0 F3600 X0.00 Y4.567
G1 F1800 X5.124 Y3.892 E23.64551
G1 X9.899 Y1.913 E23.90338
G1 X14.001 Y-1.234 E24.16132
G1 X17.147 Y-5.334 E24.41915
G1 X19.125 Y-10.109 E24.67701
G1 X19.92 Y-16.147 E24.98084
G1 X20.057 Y-16.883 E25.01819
G1 X20.272 Y-17.599 E25.05549
G1 X20.562 Y-18.289 E25.09283
G1 X20.924 Y-18.943 E25.13012
G1 X21.354 Y-19.556 E25.16748
G1 X21.847 Y-20.118 E25.20478
G1 X22.397 Y-20.626 E25.24213
G1 X22.998 Y-21.071 E25.27944
G1 X23.643 Y-21.45 E25.31676
G1 X24.325 Y-21.758 E25.3541
G1 X25.035 Y-21.991 E25.39138
G1 X25.767 Y-22.147 E25.42872
G1 X26.86 Y-22.233 E25.48342
G1 X30.466 Y-22.233 E25.66332
G1 X31.213 Y-22.193 E25.70064
G1 X31.951 Y-22.074 E25.73794
G1 X32.673 Y-21.876 E25.77529
G1 X33.369 Y-21.603 E25.81259
G1 X34.032 Y-21.256 E25.84992
G1 X34.655 Y-20.841 E25.88727
G1 X35.229 Y-20.362 E25.92456
G1 X35.75 Y-19.825 E25.96189
G1 X36.209 Y-19.235 E25.99919
G1 X36.604 Y-18.599 E26.03654
G1 X36.928 Y-17.925 E26.07385
G1 X37.178 Y-17.22 E26.11117
G1 X37.352 Y-16.492 E26.14851
G1 X37.447 Y-15.75 E26.18583
G1 X37.462 Y-15.002 E26.22316
G1 X37.406 Y-14.319 E26.25734
G1 X36.367 Y-6.433 E26.65418
G1 X36.23 Y-5.697 E26.69153
G1 X35.894 Y-4.669 E26.74549
G1 X32.853 Y2.675 E27.14205
G1 X32.531 Y3.35 E27.17936
G1 X31.94 Y4.258 E27.23341
G1 X27.097 Y10.57 E27.63033
G1 X26.61 Y11.138 E27.66766
G1 X25.804 Y11.863 E27.72174
G1 X19.493 Y16.705 E28.1186
G1 X18.876 Y17.128 E28.15592
G1 X17.91 Y17.618 E28.20996
G1 X10.565 Y20.66 E28.60658
G1 X9.86 Y20.909 E28.64389
G1 X8.802 Y21.133 E28.69784
G1 X0.915 Y22.173 E29.09473
G1 X0.169 Y22.231 E29.13206
G1 X-.915 Y22.173 E29.18622
G1 X-8.802 Y21.133 E29.58311
G1 X-9.537 Y20.996 E29.62041
G1 X-10.565 Y20.66 E29.67437
G1 X-17.91 Y17.618 E30.071
G1 X-18.585 Y17.296 E30.10831
G1 X-19.493 Y16.705 E30.16236
G1 X-25.804 Y11.863 E30.55921
G1 X-26.372 Y11.376 E30.59654
G1 X-27.097 Y10.57 E30.65062
G1 X-31.94 Y4.258 E31.04754
G1 X-32.363 Y3.641 E31.08486
G1 X-32.853 Y2.675 E31.1389
G1 X-35.894 Y-4.669 E31.53547
G1 X-36.143 Y-5.374 E31.57277
G1 X-36.367 Y-6.433 E31.62677
G1 X-37.405 Y-14.319 E32.0236
G1 X-37.463 Y-15.065 E32.06093
G1 X-37.441 Y-15.813 E32.09826
G1 X-37.339 Y-16.554 E32.13558
G1 X-37.159 Y-17.28 E32.1729
G1 X-36.902 Y-17.983 E32.21024
G1 X-36.572 Y-18.654 E32.24755
G1 X-36.172 Y-19.286 E32.28486
G1 X-35.707 Y-19.872 E32.32218
G1 X-35.182 Y-20.405 E32.35951
G1 X-34.603 Y-20.879 E32.39684
G1 X-33.977 Y-21.288 E32.43414
G1 X-33.311 Y-21.628 E32.47145
G1 X-32.612 Y-21.896 E32.5088
G1 X-31.889 Y-22.087 E32.54611
G1 X-31.149 Y-22.199 E32.58345
G1 X-30.465 Y-22.233 E32.61761
G1 X-26.86 Y-22.233 E32.79747
G1 X-26.113 Y-22.193 E32.83479
G1 X-25.375 Y-22.074 E32.87208
G1 X-24.653 Y-21.876 E32.90943
G1 X-23.957 Y-21.603 E32.94673
G1 X-23.294 Y-21.256 E32.98407
G1 X-22.671 Y-20.841 E33.02141
G1 X-22.097 Y-20.362 E33.05871
G1 X-21.576 Y-19.825 E33.09604
G1 X-21.117 Y-19.235 E33.13333
G1 X-20.722 Y-18.599 E33.17069
G1 X-20.398 Y-17.925 E33.208
G1 X-20.148 Y-17.22 E33.24531
G1 X-19.92 Y-16.147 E33.30004
G1 X-19.125 Y-10.109 E33.60388
G1 X-17.147 Y-5.334 E33.86173
G1 X-14.001 Y-1.234 E34.11956
G1 X-9.899 Y1.913 E34.3775
G1 X-5.124 Y3.892 E34.63538
G1 X0.00 Y4.567 E34.89322
G0 F3600 X0.00 Y4.97
G1 F1800 X5.23 Y4.281 E35.1564
G1 X10.099 Y2.264 E35.41934
G1 X14.286 Y-.948 E35.68261
G1 X17.498 Y-5.133 E35.94581
G1 X19.515 Y-10.005 E36.20888
G1 X20.317 Y-16.095 E36.51533
G1 X20.451 Y-16.809 E36.55158
G1 X20.663 Y-17.504 E36.58783
G1 X20.95 Y-18.171 E36.62406
G1 X21.309 Y-18.803 E36.66032
G1 X21.734 Y-19.391 E36.69651
G1 X22.222 Y-19.929 E36.73275
G1 X22.766 Y-20.41 E36.76898
G1 X23.36 Y-20.829 E36.80525
G1 X23.996 Y-21.179 E36.84146
G1 X24.667 Y-21.458 E36.87772
G1 X25.364 Y-21.661 E36.91394
G1 X26.08 Y-21.787 E36.95021
G1 X26.86 Y-21.833 E36.98919
G1 X30.466 Y-21.833 E37.16909
G1 X31.191 Y-21.793 E37.20532
G1 X31.908 Y-21.674 E37.24158
G1 X32.607 Y-21.476 E37.27782
G1 X33.28 Y-21.203 E37.31406
G1 X33.919 Y-20.858 E37.35029
G1 X34.516 Y-20.444 E37.38653
G1 X35.064 Y-19.968 E37.42275
G1 X35.557 Y-19.434 E37.459
G1 X35.987 Y-18.849 E37.49523
G1 X36.351 Y-18.22 E37.53148
G1 X36.644 Y-17.555 E37.56774
G1 X36.862 Y-16.862 E37.60398
G1 X37.002 Y-16.15 E37.64018
G1 X37.063 Y-15.426 E37.67643
G1 X37.009 Y-14.371 E37.72914
G1 X35.97 Y-6.485 E38.12597
G1 X35.836 Y-5.771 E38.16221
G1 X35.525 Y-4.822 E38.21204
G1 X32.484 Y2.522 E38.6086
G1 X32.169 Y3.177 E38.64486
G1 X31.622 Y4.015 E38.69479
G1 X26.779 Y10.327 E39.09171
G1 X26.306 Y10.878 E39.12794
G1 X25.561 Y11.545 E39.17782
G1 X19.25 Y16.387 E39.57467
G1 X18.65 Y16.797 E39.61093
G1 X17.757 Y17.249 E39.66086
G1 X10.412 Y20.291 E40.05749
G1 X9.727 Y20.531 E40.0937
G1 X8.75 Y20.736 E40.14351
G1 X0.863 Y21.776 E40.5404
G1 X0.139 Y21.832 E40.57663
G1 X-.863 Y21.776 E40.62669
G1 X-8.75 Y20.736 E41.02358
G1 X-9.464 Y20.602 E41.05983
G1 X-10.412 Y20.291 E41.1096
G1 X-17.757 Y17.249 E41.50623
G1 X-18.412 Y16.934 E41.54249
G1 X-19.25 Y16.387 E41.59242
G1 X-25.561 Y11.545 E41.98927
G1 X-26.112 Y11.072 E42.0255
G1 X-26.779 Y10.327 E42.07539
G1 X-31.622 Y4.015 E42.47231
G1 X-32.032 Y3.415 E42.50856
G1 X-32.484 Y2.522 E42.5585
G1 X-35.525 Y-4.822 E42.95506
G1 X-35.765 Y-5.507 E42.99127
G1 X-35.971 Y-6.486 E43.04118
G1 X-37.009 Y-14.372 E43.43801
G1 X-37.064 Y-15.096 E43.47424
G1 X-37.039 Y-15.822 E43.51048
G1 X-36.934 Y-16.541 E43.54673
G1 X-36.751 Y-17.244 E43.58297
G1 X-36.492 Y-17.922 E43.61918
G1 X-36.16 Y-18.568 E43.65542
G1 X-35.759 Y-19.174 E43.69167
G1 X-35.294 Y-19.732 E43.72791
G1 X-34.77 Y-20.235 E43.76414
G1 X-34.195 Y-20.678 E43.80036
G1 X-33.574 Y-21.055 E43.8366
G1 X-32.915 Y-21.361 E43.87285
G1 X-32.227 Y-21.593 E43.90908
G1 X-31.517 Y-21.749 E43.94534
G1 X-30.465 Y-21.833 E43.99799
G1 X-26.86 Y-21.833 E44.17785
G1 X-26.135 Y-21.793 E44.21407
G1 X-25.418 Y-21.674 E44.25033
G1 X-24.719 Y-21.476 E44.28658
G1 X-24.046 Y-21.203 E44.32281
G1 X-23.407 Y-20.858 E44.35904
G1 X-22.81 Y-20.444 E44.39529
G1 X-22.262 Y-19.968 E44.4315
G1 X-21.769 Y-19.434 E44.46776
G1 X-21.339 Y-18.849 E44.50398
G1 X-20.975 Y-18.22 E44.54024
G1 X-20.682 Y-17.555 E44.57649
G1 X-20.464 Y-16.862 E44.61274
G1 X-20.317 Y-16.095 E44.6517
G1 X-19.515 Y-10.005 E44.95815
G1 X-17.498 Y-5.133 E45.22123
G1 X-14.286 Y-.948 E45.48442
G1 X-10.099 Y2.264 E45.7477
G1 X-5.23 Y4.281 E46.01063
G1 X0.00 Y4.97 E46.27381
G0 F3600 X0.00 Y5.373
G1 F1800 X5.335 Y4.671 E46.54227
G1 X10.302 Y2.612 E46.81052
G1 X14.57 Y-.662 E47.07889
G1 X17.849 Y-4.935 E47.3476
G1 X19.903 Y-9.897 E47.61553
G1 X20.713 Y-16.043 E47.92481
G1 X20.845 Y-16.734 E47.9599
G1 X21.054 Y-17.407 E47.99506
G1 X21.337 Y-18.051 E48.03016
G1 X21.692 Y-18.659 E48.06528
G1 X22.114 Y-19.223 E48.10043
G1 X22.597 Y-19.735 E48.13554
G1 X23.135 Y-20.189 E48.17066
G1 X23.721 Y-20.579 E48.20578
G1 X24.347 Y-20.901 E48.2409
G1 X25.006 Y-21.149 E48.27603
G1 X25.688 Y-21.321 E48.31112
G1 X26.52 Y-21.433 E48.353
G1 X30.466 Y-21.433 E48.54987
G1 X31.169 Y-21.393 E48.585
G1 X31.863 Y-21.274 E48.62013
G1 X32.538 Y-21.076 E48.65522
G1 X33.187 Y-20.804 E48.69033
G1 X33.801 Y-20.459 E48.72547
G1 X34.372 Y-20.048 E48.76057
G1 X34.893 Y-19.574 E48.79571
G1 X35.357 Y-19.044 E48.83085
G1 X35.757 Y-18.465 E48.86596
G1 X36.089 Y-17.844 E48.90109
G1 X36.349 Y-17.19 E48.9362
G1 X36.533 Y-16.51 E48.97135
G1 X36.639 Y-15.814 E49.00647
G1 X36.665 Y-15.111 E49.04157
G1 X36.613 Y-14.423 E49.07599
G1 X35.574 Y-6.537 E49.47283
G1 X35.442 Y-5.846 E49.50792
G1 X35.155 Y-4.975 E49.55368
G1 X32.114 Y2.369 E49.95024
G1 X31.809 Y3.003 E49.98534
G1 X31.305 Y3.771 E50.03117
G1 X26.462 Y10.083 E50.42809
G1 X26.002 Y10.616 E50.46322
G1 X25.317 Y11.228 E50.50904
G1 X19.006 Y16.07 E50.90589
G1 X18.424 Y16.466 E50.94101
G1 X17.604 Y16.879 E50.98682
G1 X10.259 Y19.921 E51.38345
G1 X9.595 Y20.153 E51.41854
G1 X8.698 Y20.34 E51.46425
G1 X0.811 Y21.38 E51.86114
G1 X0.108 Y21.432 E51.89631
G1 X-.811 Y21.38 E51.94223
G1 X-8.698 Y20.34 E52.33912
G1 X-9.389 Y20.208 E52.37422
G1 X-10.259 Y19.921 E52.41993
G1 X-17.604 Y16.879 E52.81655
G1 X-18.238 Y16.573 E52.85168
G1 X-19.006 Y16.07 E52.89748
G1 X-25.317 Y11.228 E53.29433
G1 X-25.85 Y10.768 E53.32945
G1 X-26.462 Y10.083 E53.37528
G1 X-31.305 Y3.771 E53.7722
G1 X-31.701 Y3.189 E53.80732
G1 X-32.114 Y2.369 E53.85313
G1 X-35.155 Y-4.975 E54.24969
G1 X-35.387 Y-5.64 E54.28483
G1 X-35.574 Y-6.538 E54.33059
G1 X-36.612 Y-14.424 E54.72742
G1 X-36.664 Y-15.126 E54.76254
G1 X-36.636 Y-15.829 E54.79764
G1 X-36.529 Y-16.525 E54.83277
G1 X-36.343 Y-17.204 E54.86789
G1 X-36.082 Y-17.858 E54.90302
G1 X-35.748 Y-18.478 E54.93816
G1 X-35.346 Y-19.056 E54.97328
G1 X-34.881 Y-19.584 E55.00839
G1 X-34.36 Y-20.057 E55.04349
G1 X-33.788 Y-20.467 E55.0786
G1 X-33.173 Y-20.81 E55.11373
G1 X-32.523 Y-21.081 E55.14887
G1 X-31.847 Y-21.277 E55.18398
G1 X-31.153 Y-21.395 E55.2191
G1 X-30.465 Y-21.433 E55.25348
G1 X-26.86 Y-21.433 E55.43334
G1 X-26.157 Y-21.393 E55.46846
G1 X-25.463 Y-21.274 E55.50359
G1 X-24.788 Y-21.076 E55.53869
G1 X-24.139 Y-20.804 E55.5738
G1 X-23.525 Y-20.459 E55.60893
G1 X-22.954 Y-20.048 E55.64403
G1 X-22.433 Y-19.574 E55.67917
G1 X-21.969 Y-19.044 E55.71432
G1 X-21.569 Y-18.465 E55.74943
G1 X-21.237 Y-17.844 E55.78456
G1 X-20.977 Y-17.19 E55.81967
G1 X-20.757 Y-16.377 E55.86169
