;FLAVOR:Marlin
;TIME:3659
;Filament used: 4.00999m
;Layer height: 0.2
;MINX:-65.239
;MINY:-64.172
;MINZ:0.3
;MAXX:63.105
;MAXY:64.172
;MAXZ:5.7
;Generated with Cura_SteamEngine 5.2.1
M140 S60
M105
M190 S60
M104 S200
M105
M109 S200
M82 ;absolute extrusion mode
G28 ;Home
G1 Z15.0 F6000 ;Move the platform down 15mm
;Prime the extruder
G92 E0
G1 F200 E3
G92 E0
M141 S28
G92 E0
G92 E0
G1 F1500 E-6.5
;LAYER_COUNT:28
;LAYER:0
M107
;MESH:Yeti Outer Ring v1.stl
G0 F3600 X-57.667 Y-0.019 Z0.3
;TYPE:WALL-INNER
G1 F1500 E0
G1 F1800 X-57.55 Y-3.646 E0.18105
G1 X-57.2 Y-7.257 E0.36204
G1 X-56.622 Y-10.826 E0.54242
G1 X-55.82 Y-14.346 E0.72254
G1 X-54.776 Y-17.861 E0.90547
G1 X-53.528 Y-21.245 E1.08542
G1 X-52.07 Y-24.541 E1.26522
G1 X-50.374 Y-27.793 E1.4482
G1 X-48.493 Y-30.893 E1.62911
G1 X-46.417 Y-33.869 E1.81014
G1 X-44.178 Y-36.675 E1.98923
G1 X-41.713 Y-39.39 E2.17219
G1 X-39.106 Y-41.912 E2.35315
G1 X-36.342 Y-44.265 E2.53425
G1 X-33.432 Y-46.433 E2.71529
G1 X-30.41 Y-48.401 E2.89521
G1 X-27.26 Y-50.176 E3.0756
G1 X-23.966 Y-51.761 E3.25797
G1 X-20.618 Y-53.117 E3.43818
G1 X-17.152 Y-54.267 E3.62037
G1 X-13.669 Y-55.18 E3.80001
G1 X-10.079 Y-55.878 E3.98247
G1 X-6.52 Y-56.337 E4.1615
G1 X-2.9 Y-56.571 E4.34248
G1 X0.768 Y-56.571 E4.52548
G1 X4.387 Y-56.337 E4.70641
G1 X7.948 Y-55.878 E4.88553
G1 X11.549 Y-55.177 E5.06856
G1 X15.019 Y-54.265 E5.24756
G1 X18.485 Y-53.115 E5.42975
G1 X21.846 Y-51.756 E5.61062
G1 X25.13 Y-50.173 E5.7925
G1 X28.292 Y-48.391 E5.97358
G1 X31.333 Y-46.411 E6.15462
G1 X34.221 Y-44.254 E6.33445
G1 X36.982 Y-41.905 E6.51531
G1 X39.586 Y-39.382 E6.6962
G1 X42.025 Y-36.7 E6.87706
G1 X44.285 Y-33.865 E7.05794
G1 X46.379 Y-30.863 E7.24055
G1 X48.247 Y-27.781 E7.42035
G1 X49.938 Y-24.539 E7.60277
G1 X51.395 Y-21.246 E7.78242
G1 X52.656 Y-17.823 E7.96442
G1 X53.689 Y-14.338 E8.14576
G1 X54.498 Y-10.788 E8.32741
G1 X55.067 Y-7.257 E8.50585
G1 X55.418 Y-3.623 E8.68799
G1 X55.533 Y0.019 E8.86978
G1 X55.418 Y3.624 E9.04973
G1 X55.071 Y7.232 E9.23056
G1 X54.489 Y10.826 E9.4122
G1 X53.687 Y14.347 E9.59237
G1 X52.642 Y17.861 E9.77527
G1 X51.396 Y21.245 E9.95518
G1 X49.938 Y24.541 E10.13499
G1 X48.246 Y27.782 E10.31739
G1 X46.379 Y30.863 E10.49712
G1 X44.307 Y33.838 E10.67799
G1 X42.019 Y36.704 E10.86095
G1 X39.58 Y39.39 E11.04196
G1 X36.972 Y41.912 E11.22296
G1 X34.209 Y44.265 E11.40402
G1 X31.299 Y46.434 E11.58509
G1 X28.276 Y48.402 E11.76506
G1 X25.126 Y50.176 E11.94542
G1 X21.832 Y51.761 E12.12779
G1 X18.485 Y53.117 E12.30796
G1 X15.019 Y54.267 E12.49015
G1 X11.536 Y55.18 E12.66978
G1 X7.976 Y55.873 E12.85073
G1 X4.381 Y56.338 E13.03158
G1 X0.763 Y56.571 E13.21245
G1 X-2.902 Y56.57 E13.3953
G1 X-6.52 Y56.337 E13.57618
G1 X-10.081 Y55.878 E13.75531
G1 X-13.683 Y55.177 E13.93838
G1 X-17.152 Y54.265 E14.11733
G1 X-20.618 Y53.115 E14.29952
G1 X-23.98 Y51.756 E14.48044
G1 X-27.264 Y50.173 E14.66232
G1 X-30.411 Y48.4 E14.84253
G1 X-33.466 Y46.411 E15.0244
G1 X-36.355 Y44.253 E15.2043
G1 X-39.117 Y41.904 E15.38519
G1 X-41.72 Y39.381 E15.56605
G1 X-44.159 Y36.699 E15.74691
G1 X-46.419 Y33.864 E15.92779
G1 X-48.514 Y30.861 E16.11047
G1 X-50.395 Y27.757 E16.29154
G1 X-52.054 Y24.574 E16.47062
G1 X-53.528 Y21.246 E16.65221
G1 X-54.778 Y17.86 E16.83228
G1 X-55.82 Y14.344 E17.01524
G1 X-56.631 Y10.788 E17.1972
G1 X-57.205 Y7.217 E17.37764
G1 X-57.55 Y3.644 E17.55673
G1 X-57.667 Y-0.019 E17.73957
G0 F3600 X-57.965 Y-0.029
G0 X-59.253 Y19.449
G0 X-59.329 Y19.737
G1 F1800 X-58.709 Y19.902 E17.77158
G1 X-58.137 Y20.191 E17.80355
G1 X-57.63 Y20.596 E17.83593
G1 X-57.226 Y21.094 E17.86792
G1 X-56.941 Y21.652 E17.89918
G1 X-55.881 Y24.209 E18.03728
G1 X-55.699 Y24.775 E18.06694
G1 X-55.627 Y25.43 E18.09981
G1 X-55.696 Y26.069 E18.13188
G1 X-55.901 Y26.692 E18.1646
G1 X-56.222 Y27.244 E18.19646
G1 X-56.654 Y27.718 E18.22845
G1 X-57.176 Y28.098 E18.26067
G1 X-57.709 Y28.332 E18.28971
G1 X-58.17 Y28.442 E18.31335
G1 X-56.468 Y31.639 E18.49404
G1 X-54.498 Y34.861 E18.68246
G1 X-52.34 Y37.963 E18.87098
G1 X-50.005 Y40.931 E19.05939
G1 X-47.496 Y43.757 E19.24793
G1 X-44.825 Y46.427 E19.43634
G1 X-41.999 Y48.936 E19.62488
G1 X-39.03 Y51.274 E19.81342
G1 X-35.931 Y53.431 E20.00179
G1 X-32.708 Y55.399 E20.1902
G1 X-29.508 Y57.104 E20.37109
G1 X-29.426 Y56.703 E20.39151
G1 X-29.168 Y56.111 E20.42373
G1 X-28.783 Y55.585 E20.45625
G1 X-28.308 Y55.154 E20.48825
G1 X-27.755 Y54.832 E20.52018
G1 X-27.143 Y54.63 E20.55233
G1 X-26.496 Y54.561 E20.58479
G1 X-25.859 Y54.627 E20.61674
G1 X-25.298 Y54.807 E20.64614
G1 X-22.717 Y55.873 E20.78545
G1 X-22.162 Y56.158 E20.81658
G1 X-21.666 Y56.561 E20.84846
G1 X-21.258 Y57.068 E20.88093
G1 X-20.969 Y57.642 E20.91299
G1 X-20.804 Y58.258 E20.94481
G1 X-20.772 Y58.903 E20.97703
G1 X-20.874 Y59.544 E21.00941
G1 X-21.086 Y60.088 E21.03854
G1 X-21.333 Y60.49 E21.06208
G1 X-17.868 Y61.546 E21.2428
G1 X-14.194 Y62.434 E21.43137
G1 X-10.478 Y63.102 E21.61973
G1 X-6.726 Y63.547 E21.80823
G1 X-2.956 Y63.772 E21.99665
G1 X0.821 Y63.772 E22.18509
G1 X4.592 Y63.548 E22.37356
G1 X8.341 Y63.102 E22.56191
G1 X12.061 Y62.434 E22.75047
G1 X15.721 Y61.55 E22.93832
G1 X19.2 Y60.49 E23.11977
G1 X18.95 Y60.086 E23.14347
G1 X18.74 Y59.549 E23.17224
G1 X18.639 Y58.901 E23.20496
G1 X18.67 Y58.259 E23.23702
G1 X18.835 Y57.644 E23.26879
G1 X19.128 Y57.063 E23.30126
G1 X19.528 Y56.564 E23.33316
G1 X20.038 Y56.156 E23.36575
G1 X20.585 Y55.874 E23.39645
G1 X23.142 Y54.814 E23.53455
G1 X23.727 Y54.627 E23.56519
G1 X24.363 Y54.561 E23.59709
G1 X25.01 Y54.63 E23.62955
G1 X25.622 Y54.832 E23.6617
G1 X26.179 Y55.157 E23.69388
G1 X26.65 Y55.585 E23.72563
G1 X27.033 Y56.113 E23.75817
G1 X27.266 Y56.64 E23.78692
G1 X27.375 Y57.103 E23.81065
G1 X30.573 Y55.401 E23.99138
G1 X33.795 Y53.431 E24.1798
G1 X36.897 Y51.274 E24.36829
G1 X39.866 Y48.936 E24.55683
G1 X42.69 Y46.429 E24.74523
G1 X45.362 Y43.757 E24.93375
G1 X47.869 Y40.932 E25.12219
G1 X50.207 Y37.963 E25.31072
G1 X52.364 Y34.863 E25.49914
G1 X54.335 Y31.639 E25.68766
G1 X56.037 Y28.442 E25.86836
G1 X55.577 Y28.333 E25.89194
G1 X55.042 Y28.101 E25.92103
G1 X54.518 Y27.715 E25.9535
G1 X54.099 Y27.253 E25.98462
G1 X53.768 Y26.691 E26.01716
G1 X53.563 Y26.069 E26.04983
G1 X53.494 Y25.436 E26.0816
G1 X53.556 Y24.805 E26.11323
G1 X53.732 Y24.254 E26.14209
G1 X54.828 Y21.605 E26.28512
G1 X55.093 Y21.092 E26.31392
G1 X55.495 Y20.599 E26.34566
G1 X56.001 Y20.192 E26.37806
G1 X56.576 Y19.902 E26.41018
G1 X57.195 Y19.737 E26.44215
G1 X57.838 Y19.705 E26.47426
G1 X58.481 Y19.808 E26.50675
G1 X59.02 Y20.018 E26.53561
G1 X59.424 Y20.267 E26.55929
G1 X60.479 Y16.801 E26.74004
G1 X61.367 Y13.128 E26.92857
G1 X62.035 Y9.412 E27.11693
G1 X62.48 Y5.659 E27.30548
G1 X62.705 Y1.89 E27.49385
G1 X62.705 Y-1.783 E27.6771
G1 X62.705 Y-1.89 E27.68244
G1 X62.481 Y-5.659 E27.8708
G1 X62.035 Y-9.412 E28.05936
G1 X61.367 Y-13.128 E28.24772
G1 X60.483 Y-16.787 E28.43552
G1 X59.424 Y-20.267 E28.617
G1 X59.021 Y-20.019 E28.64061
G1 X58.483 Y-19.807 E28.66946
G1 X57.836 Y-19.705 E28.70214
G1 X57.195 Y-19.737 E28.73416
G1 X56.576 Y-19.902 E28.76612
G1 X56.004 Y-20.191 E28.79809
G1 X55.5 Y-20.594 E28.83028
G1 X55.095 Y-21.091 E28.86227
G1 X54.808 Y-21.651 E28.89366
G1 X53.747 Y-24.209 E29.03183
G1 X53.557 Y-24.8 E29.0628
G1 X53.494 Y-25.431 E29.09443
G1 X53.563 Y-26.074 E29.1267
G1 X53.765 Y-26.687 E29.1589
G1 X54.09 Y-27.245 E29.19111
G1 X54.523 Y-27.72 E29.22318
G1 X55.041 Y-28.097 E29.25514
G1 X55.576 Y-28.332 E29.2843
G1 X56.036 Y-28.442 E29.30789
G1 X54.335 Y-31.639 E29.48856
G1 X52.364 Y-34.861 E29.677
G1 X50.207 Y-37.963 E29.8655
G1 X47.869 Y-40.932 E30.05404
G1 X45.362 Y-43.757 E30.24247
G1 X42.69 Y-46.429 E30.43099
G1 X39.866 Y-48.936 E30.61939
G1 X36.897 Y-51.274 E30.80793
G1 X33.796 Y-53.431 E30.99639
G1 X30.575 Y-55.399 E31.1847
G1 X27.376 Y-57.104 E31.36555
G1 X27.267 Y-56.644 E31.38914
G1 X27.034 Y-56.11 E31.41821
G1 X26.651 Y-55.586 E31.45059
G1 X26.176 Y-55.155 E31.48259
G1 X25.619 Y-54.831 E31.51474
G1 X25.01 Y-54.63 E31.54673
G1 X24.363 Y-54.561 E31.57919
G1 X23.725 Y-54.627 E31.61119
G1 X23.164 Y-54.807 E31.64059
G1 X20.584 Y-55.873 E31.77986
G1 X20.029 Y-56.158 E31.81098
G1 X19.529 Y-56.564 E31.84312
G1 X19.125 Y-57.069 E31.87538
G1 X18.836 Y-57.64 E31.90731
G1 X18.67 Y-58.262 E31.93943
G1 X18.639 Y-58.903 E31.97144
G1 X18.742 Y-59.551 E32.00418
G1 X18.95 Y-60.085 E32.03277
G1 X19.199 Y-60.488 E32.0564
G1 X15.734 Y-61.546 E32.23715
G1 X12.063 Y-62.434 E32.42558
G1 X8.343 Y-63.102 E32.61414
G1 X4.592 Y-63.547 E32.80259
G1 X0.823 Y-63.772 E32.99096
G1 X-2.954 Y-63.772 E33.1794
G1 X-6.726 Y-63.547 E33.36792
G1 X-10.474 Y-63.102 E33.55622
G1 X-14.194 Y-62.434 E33.74478
G1 X-17.853 Y-61.55 E33.93258
G1 X-21.333 Y-60.49 E34.11407
G1 X-21.083 Y-60.085 E34.13782
G1 X-20.874 Y-59.547 E34.16661
G1 X-20.772 Y-58.902 E34.19919
G1 X-20.804 Y-58.262 E34.23116
G1 X-20.969 Y-57.643 E34.26312
G1 X-21.261 Y-57.064 E34.29548
G1 X-21.661 Y-56.566 E34.32734
G1 X-22.16 Y-56.159 E34.35947
G1 X-22.718 Y-55.874 E34.39073
G1 X-25.276 Y-54.814 E34.52887
G1 X-25.861 Y-54.627 E34.55951
G1 X-26.496 Y-54.561 E34.59136
G1 X-27.138 Y-54.63 E34.62358
G1 X-27.757 Y-54.833 E34.65608
G1 X-28.311 Y-55.155 E34.68805
G1 X-28.785 Y-55.587 E34.72004
G1 X-29.166 Y-56.113 E34.75245
G1 X-29.399 Y-56.642 E34.78128
G1 X-29.509 Y-57.102 E34.80488
G1 X-32.706 Y-55.401 E34.98555
G1 X-35.929 Y-53.431 E35.174
G1 X-39.03 Y-51.274 E35.36246
G1 X-41.999 Y-48.936 E35.551
G1 X-44.823 Y-46.428 E35.73943
G1 X-47.496 Y-43.757 E35.92795
G1 X-50.003 Y-40.932 E36.11639
G1 X-52.34 Y-37.963 E36.30489
G1 X-54.498 Y-34.863 E36.49334
G1 X-56.468 Y-31.639 E36.68183
G1 X-58.17 Y-28.442 E36.86253
G1 X-57.711 Y-28.333 E36.88606
G1 X-57.176 Y-28.101 E36.91516
G1 X-56.651 Y-27.715 E36.94767
G1 X-56.233 Y-27.253 E36.97875
G1 X-55.899 Y-26.691 E37.01137
G1 X-55.696 Y-26.072 E37.04387
G1 X-55.63 Y-25.438 E37.07567
G1 X-55.69 Y-24.797 E37.10779
G1 X-55.866 Y-24.253 E37.13631
G1 X-56.94 Y-21.651 E37.27675
G1 X-57.211 Y-21.122 E37.3064
G1 X-57.628 Y-20.599 E37.33978
G1 X-58.141 Y-20.188 E37.37257
G1 X-58.709 Y-19.902 E37.4043
G1 X-59.329 Y-19.737 E37.43631
G1 X-59.971 Y-19.705 E37.46838
G1 X-60.613 Y-19.808 E37.50081
G1 X-61.153 Y-20.018 E37.52972
G1 X-61.558 Y-20.267 E37.55344
G1 X-62.613 Y-16.801 E37.73419
G1 X-63.5 Y-13.128 E37.92271
G1 X-64.168 Y-9.412 E38.11107
G1 X-64.614 Y-5.659 E38.29963
G1 X-64.838 Y-1.89 E38.48799
G1 X-64.839 Y1.89 E38.67658
G1 X-64.615 Y5.659 E38.86495
G1 X-64.168 Y9.408 E39.05331
G1 X-63.5 Y13.128 E39.24187
G1 X-62.617 Y16.787 E39.42966
G1 X-61.557 Y20.267 E39.61115
G1 X-61.155 Y20.019 E39.63472
G1 X-60.616 Y19.807 E39.66361
G1 X-59.97 Y19.705 E39.69624
G1 X-59.329 Y19.737 E39.72826
G0 F3600 X-59.253 Y19.449
G0 X-57.79 Y-3.641
G0 X-57.44 Y-7.268
G0 X-56.859 Y-10.865
G0 X-56.047 Y-14.418
G0 X-55.011 Y-17.91
G0 X-53.753 Y-21.33
G0 X-52.278 Y-24.662
G0 X-50.592 Y-27.892
G0 X-48.704 Y-31.008
G0 X-46.619 Y-33.996
G0 X-44.347 Y-36.845
G0 X-41.897 Y-39.542
G0 X-39.28 Y-42.077
G0 X-36.505 Y-44.44
G0 X-33.585 Y-46.618
G0 X-30.532 Y-48.606
G0 X-27.357 Y-50.395
G0 X-24.7 Y-51.674
G0 X-6.614 Y-59.455
G0 X-6.315 Y-59.415
G1 F1800 X-6.273 Y-59.766 E39.7459
G1 X-6.121 Y-60.186 E39.76818
G1 X-5.755 Y-60.664 E39.79822
G1 X-5.386 Y-60.921 E39.82065
G1 X-5.027 Y-61.061 E39.83988
G1 X-4.631 Y-61.115 E39.85981
G1 X-4.225 Y-61.073 E39.88018
G1 X-3.72 Y-60.879 E39.90717
G1 X-3.326 Y-60.555 E39.93262
G1 X-3.085 Y-60.223 E39.95308
G1 X-2.934 Y-59.846 E39.97335
G1 X-2.876 Y-59.448 E39.99341
G1 X-2.931 Y-58.957 E40.01806
G1 X-3.148 Y-58.466 E40.04484
G1 X-3.421 Y-58.138 E40.06613
G1 X-3.804 Y-57.868 E40.08951
G1 X-4.161 Y-57.729 E40.10863
G1 X-4.555 Y-57.675 E40.12847
G1 X-4.966 Y-57.717 E40.14908
G1 X-5.387 Y-57.869 E40.17141
G1 X-5.806 Y-58.171 E40.19718
G1 X-6.121 Y-58.604 E40.22389
G1 X-6.273 Y-59.024 E40.24617
G1 X-6.315 Y-59.415 E40.26579
G0 F3600 X-6.614 Y-59.455
G0 X-6.298 Y-58.412
G0 X-5.578 Y-57.692
G0 X-4.692 Y-57.442
G0 X1.352 Y-57.713
G0 X1.533 Y-57.948
G1 F1800 X1.288 Y-58.137 E40.28123
G1 X1.015 Y-58.466 E40.30256
G1 X0.797 Y-58.957 E40.32936
G1 X0.746 Y-59.317 E40.3475
G1 X0.8 Y-59.846 E40.37403
G1 X0.952 Y-60.223 E40.39431
G1 X1.193 Y-60.555 E40.41478
G1 X1.588 Y-60.879 E40.44027
G1 X2.091 Y-61.073 E40.46716
G1 X2.498 Y-61.115 E40.48758
G1 X2.833 Y-61.073 E40.50442
G1 X3.391 Y-60.842 E40.53455
G1 X3.731 Y-60.555 E40.55675
G1 X3.988 Y-60.186 E40.57918
G1 X4.14 Y-59.766 E40.60147
G1 X4.182 Y-59.415 E40.6191
G1 X4.14 Y-59.024 E40.63872
G1 X3.988 Y-58.604 E40.66101
G1 X3.674 Y-58.171 E40.68769
G1 X3.254 Y-57.869 E40.7135
G1 X2.833 Y-57.717 E40.73583
G1 X2.423 Y-57.675 E40.75639
G1 X2.092 Y-57.717 E40.77304
G1 X1.533 Y-57.948 E40.80321
G0 F3600 X1.352 Y-57.713
G0 X0.759 Y-58.412
G0 X0.495 Y-59.395
G0 X0.721 Y-60.287
G0 X1.354 Y-61.079
G0 X1.777 Y-60.525
;TYPE:WALL-OUTER
G1 F1800 X2.143 Y-60.676 E40.82297
G1 X2.488 Y-60.714 E40.84028
G1 X2.781 Y-60.676 E40.85502
G1 X3.147 Y-60.525 E40.87478
G1 X3.414 Y-60.311 E40.89185
G1 X3.592 Y-60.08 E40.9064
G1 X3.743 Y-59.714 E40.92615
G1 X3.781 Y-59.369 E40.94347
G1 X3.743 Y-59.076 E40.95821
G1 X3.618 Y-58.756 E40.97535
G1 X3.404 Y-58.467 E40.99329
G1 X3.147 Y-58.265 E41.00959
G1 X2.781 Y-58.114 E41.02935
G1 X2.436 Y-58.076 E41.04666
G1 X2.143 Y-58.114 E41.0614
G1 X1.777 Y-58.265 E41.08116
G1 X1.51 Y-58.479 E41.09823
G1 X1.332 Y-58.71 E41.11278
G1 X1.185 Y-59.053 E41.13139
G1 X1.142 Y-59.377 E41.1477
G1 X1.186 Y-59.741 E41.16599
G1 X1.311 Y-60.046 E41.18244
G1 X1.51 Y-60.311 E41.19897
G1 X1.777 Y-60.525 E41.21604
G0 F3600 X1.962 Y-60.601
G0 X1.694 Y-61.253
G0 X-4.595 Y-61.362
G0 X-5.578 Y-61.098
G0 X-6.395 Y-60.301
G0 X-5.751 Y-60.034
G1 F1800 X-5.511 Y-60.347 E41.23572
G1 X-5.28 Y-60.525 E41.25027
G1 X-4.935 Y-60.672 E41.26898
G1 X-4.607 Y-60.715 E41.28548
G1 X-4.226 Y-60.663 E41.30467
G1 X-3.91 Y-60.525 E41.32187
G1 X-3.643 Y-60.311 E41.33894
G1 X-3.444 Y-60.046 E41.35548
G1 X-3.32 Y-59.741 E41.3719
G1 X-3.275 Y-59.413 E41.38842
G1 X-3.319 Y-59.053 E41.40651
G1 X-3.465 Y-58.71 E41.42511
G1 X-3.679 Y-58.443 E41.44218
G1 X-3.956 Y-58.238 E41.45938
G1 X-4.255 Y-58.118 E41.47545
G1 X-4.581 Y-58.075 E41.49185
G1 X-4.914 Y-58.114 E41.50858
G1 X-5.28 Y-58.265 E41.52833
G1 X-5.537 Y-58.467 E41.54464
G1 X-5.725 Y-58.71 E41.55997
G1 X-5.876 Y-59.076 E41.57972
G1 X-5.914 Y-59.421 E41.59704
G1 X-5.876 Y-59.714 E41.61178
G1 X-5.751 Y-60.034 E41.62892
G0 F3600 X-5.63 Y-60.192
G0 X-6.188 Y-60.621
G0 X-27.357 Y-50.395
G0 X-30.532 Y-48.606
G0 X-33.585 Y-46.618
G0 X-36.505 Y-44.44
G0 X-39.28 Y-42.077
G0 X-41.897 Y-39.542
G0 X-44.347 Y-36.845
G0 X-46.619 Y-33.996
G0 X-48.704 Y-31.008
G0 X-50.592 Y-27.892
G0 X-52.278 Y-24.662
G0 X-53.753 Y-21.33
G0 X-55.011 Y-17.91
G0 X-56.047 Y-14.418
G0 X-56.859 Y-10.865
G0 X-57.44 Y-7.268
G0 X-57.723 Y-4.331
G0 X-57.965 Y-0.029
G0 X-57.267 Y-0.006
G1 F1800 X-57.152 Y-3.608 E41.80871
G1 X-56.805 Y-7.193 E41.98841
G1 X-56.232 Y-10.737 E42.16751
G1 X-55.428 Y-14.262 E42.34789
G1 X-54.4 Y-17.723 E42.52802
G1 X-53.156 Y-21.096 E42.70738
G1 X-51.699 Y-24.391 E42.88712
G1 X-50.032 Y-27.585 E43.06687
G1 X-48.165 Y-30.664 E43.24651
G1 X-46.104 Y-33.619 E43.42626
G1 X-43.857 Y-36.435 E43.60599
G1 X-41.435 Y-39.102 E43.78573
G1 X-38.846 Y-41.608 E43.96549
G1 X-36.103 Y-43.944 E44.14524
G1 X-33.214 Y-46.098 E44.32503
G1 X-30.195 Y-48.064 E44.50477
G1 X-27.056 Y-49.831 E44.68448
G1 X-23.816 Y-51.39 E44.86386
G1 X-20.468 Y-52.746 E45.04407
G1 X-17.05 Y-53.88 E45.22374
G1 X-13.567 Y-54.793 E45.40338
G1 X-10.028 Y-55.481 E45.58324
G1 X-6.456 Y-55.941 E45.76292
G1 X-2.874 Y-56.171 E45.942
G1 X0.742 Y-56.171 E46.1224
G1 X4.336 Y-55.94 E46.30208
G1 X7.91 Y-55.479 E46.48186
G1 X11.447 Y-54.79 E46.66164
G1 X14.929 Y-53.874 E46.84127
G1 X18.335 Y-52.744 E47.0203
G1 X21.694 Y-51.386 E47.20106
G1 X24.934 Y-49.825 E47.38049
G1 X28.074 Y-48.055 E47.56032
G1 X31.093 Y-46.091 E47.74
G1 X33.979 Y-43.935 E47.91973
G1 X36.723 Y-41.6 E48.09948
G1 X39.309 Y-39.092 E48.27921
G1 X41.732 Y-36.426 E48.45894
G1 X43.978 Y-33.608 E48.63872
G1 X46.037 Y-30.655 E48.81833
G1 X47.905 Y-27.573 E48.99813
G1 X49.572 Y-24.377 E49.17796
G1 X51.028 Y-21.085 E49.35755
G1 X52.272 Y-17.709 E49.53705
G1 X53.299 Y-14.249 E49.71711
