;FLAVOR:Marlin
;TIME:1678
;Filament used: 1.30799m
;Layer height: 0.15
;MINX:-20.35
;MINY:-23.6
;MINZ:0.3
;MAXX:20.35
;MAXY:23.6
;MAXZ:6.45
;Generated with Cura_SteamEngine 5.2.1
M140 S60
M105
M190 S60
M104 S200
M105
M109 S200
M82 ;absolute extrusion mode
G28 ;Home
G1 Z15.0 F6000 ;Move the platform down 15mm
;Prime the extruder
G92 E0
G1 F200 E3
G92 E0
M141 S28
G92 E0
G92 E0
G1 F1500 E-6.5
;LAYER_COUNT:42
;LAYER:0
M107
G0 F3600 X20.35 Y6.039 Z0.3
;TYPE:SKIRT
G1 F1500 E0
G1 F1800 X20.338 Y6.91 E0.04346
G1 X20.276 Y8.05 E0.10042
G1 X20.143 Y8.796 E0.13822
G1 X20.01 Y9.404 E0.16927
G1 X19.706 Y10.493 E0.22568
G1 X19.517 Y10.997 E0.25253
G1 X19.189 Y11.727 E0.29246
G1 X18.897 Y12.243 E0.32204
G1 X18.433 Y12.943 E0.36394
G1 X18.354 Y13.045 E0.37038
G1 X17.562 Y14.183 E0.43955
G1 X17.191 Y14.634 E0.46868
G1 X16.599 Y15.244 E0.51109
G1 X11.728 Y20.114 E0.85473
G1 X11.122 Y20.704 E0.89693
G1 X10.243 Y21.413 E0.95327
G1 X9.74 Y21.752 E0.98353
G1 X8.935 Y22.201 E1.02952
G1 X8.234 Y22.565 E1.06892
G1 X7.234 Y22.942 E1.12224
G1 X6.562 Y23.171 E1.15766
G1 X5.67 Y23.361 E1.20316
G1 X5.168 Y23.452 E1.22862
G1 X4.11 Y23.573 E1.28174
G1 X2.73 Y23.6 E1.3506
G1 X-3.029 Y23.6 E1.63792
G1 X-4.078 Y23.583 E1.69026
G1 X-5.671 Y23.457 E1.76999
G1 X-6.201 Y23.375 E1.79674
G1 X-6.795 Y23.181 E1.82792
G1 X-7.936 Y22.694 E1.88981
G1 X-9.235 Y22.036 E1.96246
G1 X-9.702 Y21.78 E1.98903
G1 X-10.225 Y21.428 E2.02048
G1 X-11.088 Y20.728 E2.07592
G1 X-11.883 Y19.958 E2.13114
G1 X-16.902 Y14.933 E2.48547
G1 X-17.48 Y14.304 E2.52808
G1 X-18.853 Y12.312 E2.64878
G1 X-19.18 Y11.753 E2.68109
G1 X-19.594 Y10.824 E2.73184
G1 X-19.817 Y10.114 E2.76896
G1 X-19.972 Y9.546 E2.79834
G1 X-20.236 Y8.336 E2.86013
G1 X-20.319 Y7.385 E2.90775
G1 X-20.349 Y6.666 E2.94365
G1 X-20.35 Y-8.323 E3.69146
G1 X-20.337 Y-9.105 E3.73048
G1 X-20.267 Y-10.084 E3.77945
G1 X-20.048 Y-11.267 E3.83947
G1 X-19.698 Y-12.521 E3.90442
G1 X-19.496 Y-13.044 E3.93239
G1 X-19.165 Y-13.762 E3.97184
G1 X-18.875 Y-14.276 E4.00128
G1 X-18.374 Y-15.014 E4.04578
G1 X-17.572 Y-16.161 E4.11561
G1 X-17.218 Y-16.592 E4.14343
G1 X-16.415 Y-17.428 E4.20126
G1 X-13.947 Y-19.896 E4.3754
G1 X-13.169 Y-20.643 E4.42921
G1 X-12.416 Y-21.251 E4.47749
G1 X-11.699 Y-21.771 E4.52168
G1 X-10.925 Y-22.203 E4.5659
G1 X-10.181 Y-22.593 E4.60781
G1 X-9.022 Y-23.064 E4.67022
G1 X-8.276 Y-23.287 E4.70907
G1 X-7.287 Y-23.447 E4.75905
G1 X-6.567 Y-23.552 E4.79535
G1 X-6.061 Y-23.598 E4.8207
G1 X5.446 Y-23.6 E5.39479
G1 X6.156 Y-23.589 E5.43022
G1 X6.804 Y-23.533 E5.46266
G1 X8.517 Y-23.199 E5.54974
G1 X9.203 Y-22.992 E5.58548
G1 X9.675 Y-22.797 E5.61096
G1 X10.324 Y-22.506 E5.64645
G1 X11.323 Y-21.994 E5.70245
G1 X11.819 Y-21.678 E5.73179
G1 X12.493 Y-21.19 E5.77331
G1 X13.089 Y-20.732 E5.81081
G1 X13.837 Y-20.006 E5.86281
G1 X16.882 Y-16.954 E6.0779
G1 X17.483 Y-16.302 E6.12214
G1 X18.877 Y-14.277 E6.24479
G1 X19.19 Y-13.724 E6.27649
G1 X19.578 Y-12.869 E6.32334
G1 X19.928 Y-11.747 E6.38197
G1 X20.186 Y-10.556 E6.44277
G1 X20.324 Y-9.358 E6.50294
G1 X20.35 Y-7.99 E6.5712
G1 X20.35 Y6.039 E7.27111
G0 F3600 X19.95 Y6.033
G1 F1800 X19.938 Y6.904 E7.31457
G1 X19.879 Y8 E7.36932
G1 X19.749 Y8.726 E7.40612
G1 X19.624 Y9.297 E7.43528
G1 X19.262 Y10.595 E7.50251
G1 X18.698 Y11.819 E7.56975
G1 X18.099 Y12.722 E7.62381
G1 X18.036 Y12.802 E7.62889
G1 X17.234 Y13.955 E7.69896
G1 X16.904 Y14.355 E7.72483
G1 X16.316 Y14.961 E7.76696
G1 X11.449 Y19.827 E8.11032
G1 X10.858 Y20.403 E8.15149
G1 X9.992 Y21.101 E8.20698
G1 X9.545 Y21.403 E8.23389
G1 X8.751 Y21.846 E8.27926
G1 X8.07 Y22.199 E8.31752
G1 X6.798 Y22.68 E8.38537
G1 X6.276 Y22.823 E8.41237
G1 X5.587 Y22.97 E8.44752
G1 X5.001 Y23.069 E8.47717
G1 X4.087 Y23.173 E8.52306
G1 X2.73 Y23.2 E8.59078
G1 X-3.023 Y23.2 E8.8778
G1 X-3.728 Y23.19 E8.91297
G1 X-4.302 Y23.164 E8.94164
G1 X-5.64 Y23.058 E9.0086
G1 X-6.139 Y22.978 E9.03381
G1 X-6.638 Y22.813 E9.06004
G1 X-7.79 Y22.322 E9.12251
G1 X-9.054 Y21.68 E9.19324
G1 X-9.508 Y21.431 E9.21907
G1 X-9.973 Y21.117 E9.24707
G1 X-10.822 Y20.429 E9.30158
G1 X-11.6 Y19.675 E9.35564
G1 X-16.619 Y14.65 E9.70997
G1 X-17.168 Y14.053 E9.75043
G1 X-18.524 Y12.085 E9.86966
G1 X-18.816 Y11.585 E9.89855
G1 X-19.22 Y10.681 E9.94795
G1 X-19.435 Y9.994 E9.98386
G1 X-19.581 Y9.461 E10.01144
G1 X-19.839 Y8.278 E10.07184
G1 X-19.91 Y7.507 E10.11047
G1 X-19.949 Y6.666 E10.15247
G1 X-19.95 Y-8.317 E10.89998
G1 X-19.937 Y-9.212 E10.94464
G1 X-19.866 Y-10.056 E10.98689
G1 X-19.659 Y-11.175 E11.04367
G1 X-19.318 Y-12.395 E11.10686
G1 X-19.133 Y-12.877 E11.13262
G1 X-18.802 Y-13.595 E11.17207
G1 X-18.544 Y-14.051 E11.19821
G1 X-18.047 Y-14.785 E11.24243
G1 X-17.245 Y-15.932 E11.31225
G1 X-16.93 Y-16.315 E11.337
G1 X-16.132 Y-17.145 E11.39444
G1 X-13.664 Y-19.613 E11.56857
G1 X-12.903 Y-20.344 E11.62121
G1 X-12.181 Y-20.927 E11.66751
G1 X-11.482 Y-21.434 E11.71059
G1 X-10.652 Y-21.896 E11.75798
G1 X-10.013 Y-22.23 E11.79396
G1 X-8.871 Y-22.694 E11.85545
G1 X-8.202 Y-22.893 E11.89028
G1 X-7.229 Y-23.052 E11.93946
G1 X-6.228 Y-23.198 E11.98993
G1 X5.44 Y-23.2 E12.57205
G1 X6.15 Y-23.189 E12.60748
G1 X6.732 Y-23.139 E12.63662
G1 X8.44 Y-22.806 E12.72344
G1 X9.05 Y-22.623 E12.75521
G1 X9.522 Y-22.428 E12.78069
G1 X10.159 Y-22.142 E12.81552
G1 X11.129 Y-21.643 E12.86995
G1 X11.585 Y-21.354 E12.89688
G1 X12.249 Y-20.873 E12.93779
G1 X12.826 Y-20.429 E12.97411
G1 X13.553 Y-19.723 E13.02467
G1 X16.598 Y-16.671 E13.23976
G1 X17.169 Y-16.05 E13.28184
G1 X18.547 Y-14.05 E13.40301
G1 X18.826 Y-13.558 E13.43123
G1 X19.203 Y-12.729 E13.47667
G1 X19.541 Y-11.642 E13.53346
G1 X19.792 Y-10.486 E13.59248
G1 X19.924 Y-9.336 E13.65023
G1 X19.95 Y-7.99 E13.71739
G1 X19.95 Y6.033 E14.417
G1 F1500 E7.917
G0 F3600 X16.268 Y11.031
G0 X15.239 Y10.805
G0 X14.6 Y5.334
;TYPE:SUPPORT
G1 F1500 E14.417
G1 F1800 X-14.599 Y5.333 E15.87375
G0 F3600 X-14.599 Y2.666
G1 F1800 X14.599 Y2.667 E17.33044
G0 F3600 X14.605 Y0.00
G1 F1800 X-14.605 Y0.00 E18.78773
G0 F3600 X-14.6 Y-2.667
G1 F1800 X14.599 Y-2.666 E20.24448
G0 F3600 X14.599 Y-5.333
G1 F1800 X-14.6 Y-5.334 E21.70122
G0 F3600 X-14.601 Y-8.001
G1 F1800 X14.599 Y-8 E23.15801
G0 F3600 X14.6 Y-10.668
G1 F1800 X-14.602 Y-10.668 E24.61491
G0 F3600 X-14.602 Y-13.335
G1 F1800 X14.6 Y-13.335 E26.0718
G0 F3600 X13.335 Y-15.528
G1 F1800 X13.335 Y13.523 E27.52116
G0 F3600 X13.522 Y13.335
G1 F1800 X-13.528 Y13.335 E28.87069
G0 F3600 X-13.335 Y13.528
G1 F1800 X-13.335 Y-15.528 E30.3203
G0 F3600 X-12.86 Y-16.002
G1 F1800 X12.861 Y-16.002 E31.60353
G1 F1500 E25.10353
G0 F3600 X10.668 Y-18.162
G1 F1500 E31.60353
G1 F1800 X10.668 Y16.193 E33.31751
G0 F3600 X10.857 Y16.002
G1 F1800 X-10.861 Y16.002 E34.40102
G0 F3600 X-10.668 Y16.195
G1 F1800 X-10.668 Y-18.155 E36.11475
G0 F3600 X-9.991 Y-18.669
G1 F1800 X9.991 Y-18.669 E37.11166
G0 F3600 X8.001 Y-19.687
G1 F1800 X8.001 Y18.708 E39.02719
G1 X8.048 Y18.669
G1 X-8.049 Y18.669 E39.83027
G1 X-8.001 Y18.709
G1 X-8.001 Y-19.687 E41.74586
G0 F3600 X-5.334 Y-20.08
G1 F1800 X-5.334 Y19.961 E43.74351
G0 F3600 X-2.667 Y20.08
G1 F1800 X-2.667 Y-20.08 E45.7471
G0 F3600 X0.00 Y-20.08
G1 F1800 X0.00 Y20.08 E47.75069
G0 F3600 X2.667 Y20.08
G1 F1800 X2.667 Y-20.08 E49.75428
G0 F3600 X5.334 Y-20.08
G1 F1800 X5.334 Y19.846 E51.7462
G1 F1500 E45.2462
G0 F3600 X14.602 Y10.668
G1 F1500 E51.7462
G1 F1800 X-14.6 Y10.668 E53.20309
G0 F3600 X-14.6 Y8
G1 F1800 X14.601 Y8.001 E54.65994
G1 F1500 E48.15994
;MESH:Garmin_Frame_Mount.stl
G0 F3600 X16.331 Y6.714
G0 X16.108 Y-8.946
;TYPE:WALL-OUTER
G1 F1500 E54.65994
G1 F1682.2 X16.108 Y6.704 E55.49537
G1 F1730.8 X16.097 Y7.597 E55.54171
G1 F1782.2 X16.097 Y9.297 E55.62737
G1 X16.316 Y8.561 E55.66606
G1 X16.501 Y7.622 E55.71429
G1 F1730.8 X16.536 Y6.709 E55.7617
G1 F1682.2 X16.536 Y-8.946 E56.5974
G1 F1764.7 X16.474 Y-9.796 E56.64077
G1 F1855.7 X16.324 Y-10.555 E56.67821
G1 X16.088 Y-11.355 E56.71857
G1 X16.089 Y-9.759 E56.79581
G1 F1764.7 X16.108 Y-8.946 E56.83719
G0 F3600 X16.108 Y-8.746
G1 F1500 E50.33719
G0 F3600 X16.3 Y-8.746
G0 X15.23 Y-8.931
G0 X-15.23 Y-8.932
G0 X-16.109 Y-8.932
G1 F1500 E56.83719
G1 F1739.1 X-16.095 Y-9.639 E56.87371
G1 F1795.5 X-16.095 Y-11.307 E56.95713
G1 X-16.316 Y-10.566 E56.99581
G1 X-16.495 Y-9.666 E57.0417
G1 F1739.1 X-16.536 Y-8.94 E57.07925
G1 F1682.2 X-16.536 Y6.946 E57.92728
G1 F1739.1 X-16.495 Y7.662 E57.96432
G1 F1795.5 X-16.316 Y8.567 E58.01046
G1 X-16.095 Y9.307 E58.04908
G1 X-16.095 Y7.635 E58.13271
G1 F1739.1 X-16.109 Y6.931 E58.16907
G1 F1682.2 X-16.109 Y-8.932 E59.01587
G0 F3600 X-16.106 Y-9.132
G1 F1500 E52.51587
;MESH:NONMESH
G0 F600 X-16.106 Y-9.132 Z0.45
G0 F3600 X-15.23 Y-9.124
G0 X-13.335 Y13.19
;TIME_ELAPSED:47.604864
;LAYER:1
M106 S255
;TYPE:SUPPORT
G1 F1500 E59.01587
G1 F2700 X-13.335 Y-15.19 E59.72382
G1 X-13.364 Y-15.161 E59.72484
G1 X-13.362 Y-5.876 E59.95645
G1 X-13.747 Y-4.78 E59.98543
G1 X-13.951 Y-4.164 E60.00162
G1 X-14.159 Y-3.394 E60.02152
G1 X-14.159 Y-2.57 E60.04207
G1 X-14.26 Y-1.924 E60.05838
G1 X-14.331 Y-1.324 E60.07345
G1 X-14.165 Y-.907 E60.08465
G1 X-14.165 Y-.587 E60.09263
G1 X-13.962 Y-.192 E60.10371
G1 X-13.971 Y0.292 E60.11578
G1 X-14.165 Y0.613 E60.12514
G1 X-14.165 Y0.907 E60.13247
G1 X-14.331 Y1.326 E60.14372
G1 X-14.26 Y1.926 E60.15879
G1 X-14.159 Y2.57 E60.17505
G1 X-14.159 Y3.377 E60.19518
G1 X-14.002 Y3.981 E60.21075
G1 X-13.852 Y4.48 E60.22375
G1 X-13.685 Y4.973 E60.23673
G1 X-13.363 Y5.795 E60.25875
G1 X-13.349 Y13.176 E60.44287
G1 X-10.668 Y15.857 E60.53745
G1 X-10.668 Y-17.865 E61.37865
G1 X-9.655 Y-18.621 E61.41018
G1 X-8.607 Y-19.185 E61.43987
G1 X-8.001 Y-19.426 E61.45614
G1 X-8.001 Y18.395 E62.39959
G1 X-7.865 Y18.51 E62.40403
G1 X-6.801 Y19.079 E62.43413
G1 X-5.334 Y19.736 E62.47422
G1 X-5.334 Y-19.84 E63.46145
G1 X-2.667 Y-19.84 E63.52798
G1 X-2.667 Y19.84 E64.5178
G1 X0.00 Y19.84 E64.58433
G1 X0.00 Y-19.84 E65.57415
G1 X2.667 Y-19.84 E65.64068
G1 X2.667 Y19.84 E66.6305
G1 X3.706 Y19.84 E66.65642
G1 X4.492 Y19.765 E66.67612
G1 X5.334 Y19.603 E66.6975
G1 X5.334 Y-19.84 E67.68141
G1 X6.081 Y-19.84 E67.70005
G1 X7.781 Y-19.521 E67.74319
G1 X8.001 Y-19.425 E67.74918
G1 X8.001 Y18.397 E68.69266
G1 X8.634 Y17.89 E68.71289
G1 X10.668 Y15.857 E68.78462
G1 X10.668 Y-17.856 E69.6256
G1 X13.364 Y-15.16 E69.72071
G1 X13.363 Y-5.853 E69.95287
G1 X13.892 Y-4.381 E69.99189
G1 X14.159 Y-3.419 E70.01679
G1 X14.159 Y-2.57 E70.03797
G1 X14.258 Y-1.942 E70.05383
G1 X14.331 Y-1.326 E70.0693
G1 X14.165 Y-.907 E70.08055
G1 X14.165 Y-.576 E70.0888
G1 X13.976 Y-.245 E70.09831
G1 X13.975 Y0.236 E70.11031
G1 X14.165 Y0.574 E70.11998
G1 X14.165 Y0.907 E70.12829
G1 X14.331 Y1.324 E70.13949
G1 X14.26 Y1.924 E70.15456
G1 X14.158 Y2.571 E70.1709
G1 X14.158 Y3.468 E70.19327
G1 X13.861 Y4.45 E70.21886
G1 X13.7 Y4.932 E70.23154
G1 X13.363 Y5.791 E70.25456
G1 X13.35 Y13.175 E70.43875
G1 X13.335 Y13.19 E70.43928
G1 X13.335 Y-15.189 E71.1472
G1 F1500 E64.6472
;MESH:Garmin_Frame_Mount.stl
G0 F5400 X14.927 Y-13.088
G0 X15.584 Y-1.377
G1 F1500 E71.1472
G0 F5400 X15.285 Y-1.405
;TYPE:WALL-INNER
G1 F3300 X15.257 Y-1.082 E71.15529
G1 X15.125 Y-.723 E71.16483
G1 X15.125 Y0.722 E71.20087
G1 X15.263 Y1.129 E71.21159
G1 X15.285 Y1.404 E71.21848
G1 X15.213 Y2.053 E71.23476
G1 X15.119 Y2.647 E71.24977
G1 X15.122 Y10.438 E71.44411
G1 X15.437 Y9.851 E71.46073
G1 X15.723 Y9.153 E71.47955
G1 X15.983 Y8.287 E71.5021
G1 X16.149 Y7.158 E71.53057
G1 X16.149 Y-8.914 E71.93149
G1 X16.07 Y-9.757 E71.95261
G1 X15.927 Y-10.473 E71.97082
G1 X15.719 Y-11.164 E71.98882
G1 X15.43 Y-11.866 E72.00776
G1 X15.12 Y-12.441 E72.02405
G1 X15.119 Y-2.643 E72.26847
G1 X15.213 Y-2.053 E72.28337
G1 X15.285 Y-1.405 E72.29963
G0 F5400 X14.885 Y-1.405
;TYPE:WALL-OUTER
G1 F2100 X14.862 Y-1.151 E72.306
G1 X14.725 Y-.8 E72.31539
G1 X14.725 Y0.8 E72.35531
G1 X14.864 Y1.165 E72.36505
G1 X14.885 Y1.404 E72.37103
G1 X14.814 Y2.014 E72.38635
G1 X14.719 Y2.615 E72.40153
G1 X14.722 Y11.706 E72.62831
G1 X15.34 Y10.876 E72.65412
G1 X15.799 Y10.022 E72.67831
G1 X16.101 Y9.287 E72.69813
G1 X16.375 Y8.374 E72.72191
G1 X16.549 Y7.187 E72.75183
G1 X16.549 Y-8.914 E73.15347
G1 X16.466 Y-9.815 E73.17604
G1 X16.315 Y-10.57 E73.19525
G1 X16.097 Y-11.298 E73.21421
G1 X15.796 Y-12.03 E73.23395
G1 X15.334 Y-12.886 E73.25822
G1 X14.722 Y-13.699 E73.2836
G1 X14.719 Y-2.611 E73.56019
G1 X14.815 Y-2.006 E73.57547
G1 X14.885 Y-1.405 E73.59057
G0 F5400 X14.867 Y-1.206
G0 X15.562 Y-1.142
G0 X15.598 Y-9.687
;TYPE:SKIN
G1 F1141 X15.635 Y-8.913 E73.62106
G1 F1076.2 X15.634 Y-2.683 E73.88098
G1 F1148.3 X15.677 Y-2.137 E73.90239
G1 F1258.7 X15.73 Y-1.171 E73.9369
G1 F1176.5 X15.637 Y-.632 E73.95778
G1 F1084.3 X15.637 Y0.635 E74.01024
G1 F1232.9 X15.717 Y1.404 E74.0384
G1 F1326 X15.678 Y2.119 E74.06265
G1 F1150.2 X15.634 Y2.689 E74.08497
G1 F1076.2 X15.635 Y7.119 E74.26979
G1 F1218.3 X15.56 Y8.179 E74.30896
G0 F5400 X15.721 Y8.156
G1 F1500 E67.80896
G0 F5400 X15.7 Y8.153
G0 X14.937 Y2.629
G0 X13.867 Y2.459
G0 X-13.86 Y-.758
G0 X-14.944 Y-.758
G0 X-15.585 Y-1.377
G1 F1500 E74.30896
G0 F5400 X-15.284 Y-1.404
;TYPE:WALL-INNER
G1 F3300 X-15.213 Y-2.053 E74.32524
G1 X-15.119 Y-2.645 E74.3402
G1 X-15.121 Y-12.442 E74.58458
G1 X-15.435 Y-11.858 E74.60112
G1 X-15.719 Y-11.164 E74.61983
G1 X-15.927 Y-10.47 E74.6379
G1 X-16.098 Y-9.614 E74.65968
G1 X-16.15 Y-8.927 E74.67686
G1 X-16.15 Y7.148 E75.07785
G1 X-15.982 Y8.288 E75.1066
G1 X-15.722 Y9.154 E75.12915
G1 X-15.431 Y9.86 E75.1482
G1 X-15.121 Y10.439 E75.16459
G1 X-15.12 Y2.683 E75.35806
G1 X-15.12 Y2.643 E75.35906
G1 X-15.213 Y2.053 E75.37396
G1 X-15.284 Y1.405 E75.39022
G1 X-15.262 Y1.13 E75.3971
G1 X-15.125 Y0.723 E75.40781
G1 X-15.125 Y-.723 E75.44388
G1 X-15.256 Y-1.081 E75.45339
G1 X-15.284 Y-1.404 E75.46148
G0 F5400 X-14.884 Y-1.385
;TYPE:WALL-OUTER
G1 F2100 X-14.814 Y-2.014 E75.47727
G1 X-14.719 Y-2.614 E75.49242
G1 X-14.722 Y-13.7 E75.76896
G1 X-15.338 Y-12.881 E75.79453
G1 X-15.797 Y-12.029 E75.81867
G1 X-16.097 Y-11.298 E75.83838
G1 X-16.316 Y-10.567 E75.85741
G1 X-16.495 Y-9.668 E75.88028
G1 X-16.55 Y-8.942 E75.89844
G1 X-16.55 Y7.173 E76.30043
G1 X-16.374 Y8.375 E76.33074
G1 X-16.1 Y9.288 E76.35451
G1 X-15.798 Y10.023 E76.37434
G1 X-15.337 Y10.881 E76.39863
G1 X-14.721 Y11.699 E76.42418
G1 X-14.72 Y2.683 E76.64908
G1 X-14.72 Y2.611 E76.65088
G1 X-14.815 Y2.006 E76.66615
G1 X-14.884 Y1.386 E76.68172
G1 X-14.864 Y1.166 E76.68723
G1 X-14.725 Y0.8 E76.69699
G1 X-14.725 Y-.8 E76.7369
G1 X-14.862 Y-1.15 E76.74628
G1 X-14.884 Y-1.385 E76.75217
G0 F5400 X-14.862 Y-1.584
G0 X-15.559 Y-1.666
G0 X-15.611 Y-9.546
;TYPE:SKIN
G1 F1114.6 X-15.635 Y-8.906 E76.77797
G1 F1073 X-15.635 Y-2.687 E77.03821
G1 F1150.2 X-15.68 Y-2.105 E77.06099
G1 F1263.2 X-15.729 Y-1.17 E77.09428
G1 F1174.6 X-15.638 Y-.631 E77.11517
G1 F1081.1 X-15.638 Y0.622 E77.16721
G1 F1155.7 X-15.679 Y0.853 E77.17633
G1 F1323.5 X-15.716 Y1.372 E77.19398
G1 F1316.3 X-15.677 Y2.151 E77.22059
G1 F1148.3 X-15.635 Y2.682 E77.24142
G1 F1077.8 X-15.635 Y7.103 E77.42559
G1 F1222.4 X-15.556 Y8.191 E77.46566
G0 F5400 X-15.719 Y8.169
G1 F1500 E70.96566
;MESH:NONMESH
G0 F600 X-15.719 Y8.169 Z0.6
G0 F5400 X-15.697 Y8.167
G0 X-14.939 Y5.405
G0 X-13.335 Y5.407
;TIME_ELAPSED:67.853055
;LAYER:2
;TYPE:SUPPORT
G1 F1500 E77.46566
G1 F3600 X-13.335 Y-5.408 E77.73544
G1 X-13.622 Y-4.66 E77.75542
G1 X-13.953 Y-3.557 E77.78415
G1 X-13.474 Y-3.504 E77.79617
G1 X-13.69 Y-2.342 E77.82565
G1 X-13.829 Y-1.433 E77.84859
G1 X-13.634 Y-.615 E77.86957
G1 X-13.926 Y-.532 E77.87714
G1 X-13.844 Y-.135 E77.88725
G1 X-13.844 Y0.139 E77.89409
G1 X-13.919 Y0.487 E77.90297
G1 X-13.651 Y0.557 E77.90988
G1 X-13.812 Y1.417 E77.9317
G1 X-13.691 Y2.342 E77.95498
G1 X-13.47 Y3.504 E77.98448
G1 X-13.956 Y3.558 E77.99668
G1 X-13.699 Y4.408 E78.01883
G1 X-13.533 Y4.894 E78.03164
G1 X-13.347 Y5.379 E78.0446
G1 X-13.163 Y5.812 E78.05634
G1 X-13.162 Y6.217 E78.06644
G1 X-12.995 Y6.582 E78.07645
G1 X-12.28 Y7.853 E78.11283
G1 X-12.265 Y14.26 E78.27265
G1 X-10.668 Y15.857 E78.32899
G1 X-10.668 Y-17.865 E79.17019
G1 X-9.659 Y-18.618 E79.2016
G1 X-8.606 Y-19.184 E79.23142
G1 X-8.001 Y-19.426 E79.24767
G1 X-8.001 Y18.395 E80.19112
G1 X-7.865 Y18.51 E80.19556
G1 X-6.8 Y19.08 E80.22569
G1 X-5.334 Y19.737 E80.26577
G1 X-5.334 Y-19.84 E81.25302
