;FLAVOR:Marlin
;TIME:1713
;Filament used: 1.32822m
;Layer height: 0.15
;MINX:-21.68
;MINY:-22.973
;MINZ:0.3
;MAXX:21.676
;MAXY:22.973
;MAXZ:6.45
;Generated with Cura_SteamEngine 5.2.1
M140 S60
M105
M190 S60
M104 S200
M105
M109 S200
M82 ;absolute extrusion mode
G28 ;Home
G1 Z15.0 F6000 ;Move the platform down 15mm
;Prime the extruder
G92 E0
G1 F200 E3
G92 E0
M141 S28
G92 E0
G92 E0
G1 F1500 E-6.5
;LAYER_COUNT:42
;LAYER:0
M107
G0 F3600 X21.617 Y-.94 Z0.3
;TYPE:SKIRT
G1 F1500 E0
G1 F1800 X21.674 Y-.221 E0.03598
G1 X21.676 Y0.321 E0.06302
G1 X21.633 Y0.908 E0.09239
G1 X21.39 Y3.462 E0.22038
G1 X21.317 Y4.132 E0.25401
G1 X21.226 Y4.635 E0.27951
G1 X20.982 Y5.588 E0.32859
G1 X20.053 Y9.58 E0.53307
G1 X19.727 Y11.115 E0.61136
G1 X19.551 Y11.843 E0.64873
G1 X19.381 Y12.498 E0.68249
G1 X19.161 Y13.144 E0.71654
G1 X18.672 Y13.976 E0.76468
G1 X18.092 Y14.906 E0.81936
G1 X17.378 Y15.843 E0.87814
G1 X16.818 Y16.43 E0.91861
G1 X15.8 Y17.424 E0.9896
G1 X13.159 Y20.096 E1.17703
G1 X12.6 Y20.553 E1.21305
G1 X11.856 Y21.108 E1.25936
G1 X11.169 Y21.524 E1.29943
G1 X10.588 Y21.781 E1.33112
G1 X9.63 Y22.107 E1.38161
G1 X8.559 Y22.436 E1.43751
G1 X7.997 Y22.575 E1.46639
G1 X7.165 Y22.723 E1.50855
G1 X6.328 Y22.805 E1.55051
G1 X4.994 Y22.831 E1.61707
G1 X4.337 Y22.831 E1.64985
G1 X1.804 Y22.794 E1.77624
G1 X-.931 Y22.804 E1.91269
G1 X-3.636 Y22.889 E2.04771
G1 X-5.341 Y22.973 E2.13287
G1 X-5.991 Y22.961 E2.16531
G1 X-6.654 Y22.89 E2.19857
G1 X-7.541 Y22.745 E2.24341
G1 X-8.224 Y22.573 E2.27855
G1 X-10.044 Y21.935 E2.37477
G1 X-10.535 Y21.721 E2.40149
G1 X-11.092 Y21.357 E2.43469
G1 X-11.505 Y21.029 E2.461
G1 X-12.599 Y20.108 E2.53235
G1 X-13.182 Y19.541 E2.57292
G1 X-15.238 Y17.377 E2.72184
G1 X-16.892 Y15.721 E2.83861
G1 X-17.477 Y15.039 E2.88344
G1 X-18.042 Y14.102 E2.93803
G1 X-18.297 Y13.649 E2.96396
G1 X-18.544 Y13.145 E2.99196
G1 X-18.881 Y12.217 E3.04122
G1 X-19.659 Y9.785 E3.16861
G1 X-19.902 Y9.083 E3.20567
G1 X-20.228 Y8.091 E3.25777
G1 X-21.015 Y5.397 E3.39779
G1 X-21.208 Y4.696 E3.43406
G1 X-21.327 Y4.105 E3.46414
G1 X-21.616 Y1.089 E3.6153
G1 X-21.674 Y0.332 E3.65317
G1 X-21.68 Y-.243 E3.68186
G1 X-21.394 Y-3.284 E3.83425
G1 X-21.318 Y-3.992 E3.86977
G1 X-21.21 Y-4.563 E3.89877
G1 X-21.041 Y-5.175 E3.93044
G1 X-20.374 Y-7.466 E4.04949
G1 X-20.151 Y-8.195 E4.08752
G1 X-19.938 Y-8.731 E4.11629
G1 X-19.668 Y-9.28 E4.14682
G1 X-18.54 Y-11.478 E4.27007
G1 X-18.2 Y-12.112 E4.30597
G1 X-17.893 Y-12.59 E4.33431
G1 X-17.53 Y-13.066 E4.36417
G1 X-16.004 Y-15.001 E4.48712
G1 X-15.592 Y-15.51 E4.51979
G1 X-15.171 Y-15.948 E4.5501
G1 X-14.203 Y-16.799 E4.6144
G1 X-14.147 Y-16.859 E4.6185
G1 X-13.583 Y-17.348 E4.65574
G1 X-11.107 Y-19.635 E4.8239
G1 X-10.52 Y-20.193 E4.8643
G1 X-10.002 Y-20.611 E4.89751
G1 X-9.343 Y-21.111 E4.93878
G1 X-8.683 Y-21.497 E4.97693
G1 X-8.007 Y-21.804 E5.01397
G1 X-7.194 Y-22.076 E5.05674
G1 X-6.044 Y-22.43 E5.11677
G1 X-5.419 Y-22.584 E5.14888
G1 X-4.619 Y-22.725 E5.18941
G1 X-3.835 Y-22.804 E5.22872
G1 X-2.52 Y-22.83 E5.29434
G1 X-.263 Y-22.83 E5.40694
G1 X2.85 Y-22.924 E5.56232
G1 X3.919 Y-22.973 E5.61571
G1 X4.651 Y-22.957 E5.65224
G1 X5.231 Y-22.9 E5.68131
G1 X6.397 Y-22.674 E5.74057
G1 X7.64 Y-22.273 E5.80573
G1 X8.207 Y-22.069 E5.83579
G1 X8.77 Y-21.818 E5.86655
G1 X9.956 Y-21.045 E5.93717
G1 X10.486 Y-20.681 E5.96925
G1 X10.889 Y-20.359 E5.99499
G1 X12.232 Y-19.12 E6.08615
G1 X14.292 Y-17.294 E6.22348
G1 X16.215 Y-15.677 E6.34883
G1 X17.186 Y-14.883 E6.41141
G1 X17.588 Y-14.498 E6.43918
G1 X18.134 Y-13.889 E6.47999
G1 X18.695 Y-13.106 E6.52804
G1 X19.073 Y-12.477 E6.56465
G1 X19.346 Y-11.937 E6.59484
G1 X19.847 Y-10.398 E6.67559
G1 X20.123 Y-9.115 E6.74106
G1 X20.731 Y-6.457 E6.8771
G1 X20.982 Y-5.496 E6.92665
G1 X21.235 Y-4.463 E6.97971
G1 X21.329 Y-3.963 E7.00509
G1 X21.617 Y-.94 E7.15659
G0 F3600 X21.218 Y-.908
G1 F1800 X21.294 Y0.054 E7.20474
G1 X21.235 Y0.87 E7.24555
G1 X20.992 Y3.419 E7.3733
G1 X20.894 Y4.317 E7.41837
G1 X20.611 Y5.421 E7.47523
G1 X19.653 Y9.536 E7.68601
G1 X19.338 Y11.021 E7.76175
G1 X19.163 Y11.743 E7.79881
G1 X18.993 Y12.398 E7.83257
G1 X18.79 Y12.987 E7.86366
G1 X18.327 Y13.774 E7.90921
G1 X17.837 Y14.559 E7.95538
G1 X17.417 Y15.144 E7.99131
G1 X16.955 Y15.706 E8.0276
G1 X16.445 Y16.238 E8.06437
G1 X15.486 Y17.173 E8.13119
G1 X12.889 Y19.801 E8.31552
G1 X12.347 Y20.243 E8.35041
G1 X11.618 Y20.787 E8.39579
G1 X10.975 Y21.174 E8.43323
G1 X10.459 Y21.402 E8.46138
G1 X9.406 Y21.759 E8.51685
G1 X8.442 Y22.054 E8.56715
G1 X7.919 Y22.183 E8.59402
G1 X7.126 Y22.325 E8.63421
G1 X6.307 Y22.405 E8.67527
G1 X4.994 Y22.431 E8.74079
G1 X4.343 Y22.431 E8.77326
G1 X1.808 Y22.394 E8.89975
G1 X-.944 Y22.404 E9.03705
G1 X-3.669 Y22.49 E9.17307
G1 X-5.361 Y22.573 E9.25758
G1 X-5.976 Y22.562 E9.28827
G1 X-6.706 Y22.478 E9.32493
G1 X-7.592 Y22.32 E9.36983
G1 X-8.098 Y22.194 E9.39585
G1 X-9.912 Y21.558 E9.49175
G1 X-10.374 Y21.353 E9.51696
G1 X-10.843 Y21.044 E9.54498
G1 X-11.329 Y20.657 E9.57598
G1 X-12.308 Y19.832 E9.63985
G1 X-12.892 Y19.265 E9.68046
G1 X-14.948 Y17.101 E9.82938
G1 X-16.609 Y15.438 E9.94664
G1 X-17.15 Y14.806 E9.98815
G1 X-17.699 Y13.896 E10.04117
G1 X-17.948 Y13.454 E10.06648
G1 X-18.174 Y12.993 E10.0921
G1 X-18.5 Y12.095 E10.13976
G1 X-19.279 Y9.659 E10.26735
G1 X-19.522 Y8.958 E10.30437
G1 X-19.844 Y7.979 E10.35579
G1 X-20.644 Y5.239 E10.49819
G1 X-20.823 Y4.59 E10.53178
G1 X-20.926 Y4.08 E10.55774
G1 X-21.223 Y0.991 E10.71256
G1 X-21.276 Y0.301 E10.74708
G1 X-21.281 Y-.217 E10.77293
G1 X-20.997 Y-3.242 E10.92451
G1 X-20.921 Y-3.95 E10.96004
G1 X-20.824 Y-4.457 E10.98579
G1 X-20.657 Y-5.063 E11.01715
G1 X-19.991 Y-7.349 E11.13594
G1 X-19.768 Y-8.078 E11.17397
G1 X-19.579 Y-8.554 E11.19952
G1 X-19.312 Y-9.097 E11.22971
G1 X-18.157 Y-11.347 E11.35589
G1 X-17.848 Y-11.923 E11.3885
G1 X-17.574 Y-12.348 E11.41373
G1 X-17.216 Y-12.818 E11.44321
G1 X-15.693 Y-14.749 E11.5659
G1 X-15.281 Y-15.258 E11.59857
G1 X-14.907 Y-15.648 E11.62553
G1 X-13.982 Y-16.462 E11.687
G1 X-13.885 Y-16.557 E11.69378
G1 X-13.316 Y-17.051 E11.73137
G1 X-10.8 Y-19.374 E11.90222
G1 X-10.255 Y-19.894 E11.9398
G1 X-9.674 Y-20.359 E11.97692
G1 X-9.118 Y-20.779 E12.01169
G1 X-8.481 Y-21.152 E12.04851
G1 X-7.88 Y-21.425 E12.08145
G1 X-7.067 Y-21.697 E12.12422
G1 X-5.926 Y-22.048 E12.18377
G1 X-5.342 Y-22.192 E12.21378
G1 X-4.579 Y-22.327 E12.25244
G1 X-3.812 Y-22.404 E12.2909
G1 X-2.52 Y-22.43 E12.35537
G1 X-.284 Y-22.43 E12.46692
G1 X2.879 Y-22.525 E12.6248
G1 X3.937 Y-22.574 E12.67764
G1 X4.803 Y-22.553 E12.72086
G1 X5.559 Y-22.431 E12.75906
G1 X6.296 Y-22.286 E12.79654
G1 X7.504 Y-21.897 E12.85985
G1 X8.071 Y-21.693 E12.88991
G1 X8.733 Y-21.364 E12.92679
G1 X9.73 Y-20.715 E12.98615
G1 X10.448 Y-20.222 E13.0296
G1 X11.98 Y-18.808 E13.13361
G1 X14.011 Y-17.007 E13.26904
G1 X15.994 Y-15.341 E13.39825
G1 X17.125 Y-14.416 E13.47114
G1 X17.819 Y-13.642 E13.52301
G1 X18.365 Y-12.88 E13.56978
G1 X18.731 Y-12.271 E13.60522
G1 X19.031 Y-11.613 E13.6413
G1 X19.46 Y-10.295 E13.71045
G1 X19.728 Y-9.048 E13.77409
G1 X20.342 Y-6.364 E13.91145
G1 X20.593 Y-5.401 E13.9611
G1 X20.913 Y-4.093 E14.02828
G1 X21.218 Y-.908 E14.18791
G1 F1500 E7.68791
G0 F3600 X12.397 Y0.00
;TYPE:SUPPORT
G1 F1500 E14.18791
G1 F1800 X-11.861 Y0.00 E15.39815
G1 F1500 E8.89815
G0 F3600 X-11.569 Y-2.667
G1 F1500 E15.39815
G1 F1800 X12.103 Y-2.666 E16.57915
G1 F1500 E10.07915
G0 F3600 X10.668 Y-4.961
G1 F1500 E16.57915
G1 F1800 X10.668 Y5.01 E17.0766
G0 F3600 X9.971 Y5.334
G1 F1800 X-9.554 Y5.333 E18.05071
G0 F3600 X-10.668 Y4.73
G1 F1800 X-10.668 Y-4.729 E18.52262
G0 F3600 X-9.41 Y-5.334
G1 F1800 X9.904 Y-5.333 E19.4862
G1 F1500 E12.9862
G0 F3600 X9.382 Y-8
G1 F1500 E19.4862
G1 F1800 X-8.839 Y-8.001 E20.39525
G1 F1500 E13.89525
G0 F3600 X-8.001 Y-8.869
G1 F1500 E20.39525
G1 F1800 X-8.001 Y8.868 E21.28015
G1 F1500 E14.78015
G0 F3600 X-8.845 Y8
G1 F1500 E21.28015
G1 F1800 X9.384 Y8.001 E22.1896
G1 F1500 E15.6896
G0 F3600 X8.001 Y9.344
G1 F1500 E22.1896
G1 F1800 X8.001 Y-9.344 E23.12195
G1 F1500 E16.62195
G0 F3600 X6.095 Y-10.668
G1 F1500 E23.12195
G1 F1800 X-5.585 Y-10.668 E23.70467
G0 F3600 X-5.334 Y-10.892
G1 F1800 X-5.334 Y10.891 E24.79142
G0 F3600 X-5.586 Y10.668
G1 F1800 X6.094 Y10.668 E25.37414
G1 F1500 E18.87414
G0 F3600 X5.334 Y11.345
G1 F1500 E25.37414
G1 F1800 X5.334 Y-11.343 E26.50605
G1 F1500 E20.00605
G0 F3600 X5.148 Y-13.335
G1 F1500 E26.50605
G1 F1800 X-4.61 Y-13.335 E26.99288
G1 F1500 E20.49288
G0 F3600 X-2.667 Y-14.329
G1 F1500 E26.99288
G1 F1800 X-2.667 Y14.328 E28.42258
G1 F1500 E21.92258
G0 F3600 X-4.61 Y13.335
G1 F1500 E28.42258
G1 F1800 X5.148 Y13.335 E28.90941
G1 F1500 E22.40941
G0 F3600 X2.667 Y14.43
G1 F1500 E28.90941
G1 F1800 X2.667 Y-14.429 E30.34919
G1 F1500 E23.84919
G0 F3600 X0.00 Y-14.626
G1 F1500 E30.34919
G1 F1800 X0.00 Y14.625 E31.80853
G1 F1500 E25.30853
G0 F3600 X-.27 Y14.576
G0 X-11.443 Y3.001
G0 X-11.56 Y2.666
G1 F1500 E31.80853
G1 F1800 X12.097 Y2.667 E32.98878
G1 F1500 E26.48878
G0 F3600 X16.002 Y-9.898
G1 F1500 E32.98878
G1 F1800 X16.002 Y-10.779 E33.03274
G1 X16.067 Y-10.667
G1 X15.606 Y-10.667 E33.05574
G1 F1500 E26.55574
G0 F3600 X15.607 Y-10.762
G0 X13.277 Y-13.719
G0 X10.433 Y-16.148
G0 X8.022 Y-17.491
G0 X8.001 Y-17.452
G1 F1500 E33.05574
G1 F1800 X8.001 Y-18.117 E33.08891
G0 F3600 X7.173 Y-18.669
G1 F1800 X4.777 Y-18.669 E33.20845
G0 F3600 X5.334 Y-18.494
G1 F1800 X5.334 Y-19.302 E33.24876
G0 F3600 X2.667 Y-19.312
G1 F1800 X2.667 Y-19.125 E33.25809
G1 F1500 E26.75809
G0 F3600 X2.671 Y-19.169
G0 X0.00 Y-19.443
G0 X-2.672 Y-19.168
G0 X-2.667 Y-19.124
G1 F1500 E33.25809
G1 F1800 X-2.667 Y-19.311 E33.26742
G1 F1500 E26.76742
G0 F3600 X-4.778 Y-18.669
G1 F1500 E33.26742
G1 F1800 X-6.294 Y-18.669 E33.34305
G0 F3600 X-5.334 Y-18.493
G1 F1800 X-5.334 Y-18.974 E33.36705
G1 F1500 E26.86705
G0 F3600 X-8.001 Y-17.708
G1 F1500 E33.36705
G1 F1800 X-8.001 Y-17.451 E33.37987
G1 F1500 E26.87987
G0 F3600 X-8.023 Y-17.49
G0 X-10.433 Y-16.148
G0 X-13.277 Y-13.719
G0 X-15.607 Y-10.762
G0 X-17.338 Y-7.39
G0 X-18.404 Y-3.735
G0 X-18.764 Y0.066
G0 X-18.404 Y3.866
G0 X-17.338 Y7.522
G0 X-15.607 Y10.893
G0 X-13.661 Y13.363
G0 X-13.627 Y13.335
G1 F1500 E33.37987
G1 F1800 X-14.247 Y13.335 E33.4108
G0 F3600 X-13.335 Y13.707
G1 F1800 X-13.335 Y14.167 E33.43375
G0 F3600 X-11.499 Y16.002
G1 F1800 X-10.692 Y16.002 E33.47401
G1 X-10.668 Y16.024
G1 X-10.668 Y17.088 E33.5271
G0 F3600 X-8.743 Y18.669
G1 F1800 X-5.194 Y18.669 E33.70416
G1 X-5.334 Y18.626
G1 X-5.334 Y19.38 E33.74178
G0 F3600 X-8.001 Y18.925
G1 F1800 X-8.001 Y17.584 E33.80868
G1 F1500 E27.30868
G0 F3600 X-8.022 Y17.623
G0 X-7.189 Y18.086
G0 X-3.665 Y19.199
G0 X0.00 Y19.575
G0 X3.665 Y19.199
G0 X5.209 Y18.712
G0 X5.195 Y18.669
G1 F1500 E33.80868
G1 F1800 X8.826 Y18.669 E33.98983
G0 F3600 X8.001 Y18.933
G1 F1800 X8.001 Y17.583 E34.05718
G1 F1500 E27.55718
G0 F3600 X10.668 Y17.605
G1 F1500 E34.05718
G1 F1800 X10.668 Y16.023 E34.13611
G1 X10.692 Y16.002
G1 X12.039 Y16.002 E34.20331
G0 F3600 X13.335 Y14.707
G1 F1800 X13.335 Y13.706 E34.25325
G0 F3600 X13.628 Y13.335
G1 F1800 X14.873 Y13.335 E34.31536
G0 F3600 X16.002 Y11.537
G1 F1800 X16.002 Y10.028 E34.39065
G0 F3600 X16.212 Y10.668
G1 F1800 X15.673 Y10.668 E34.41754
G1 F1500 E27.91754
G0 F3600 X15.607 Y10.893
G0 X13.277 Y13.85
G0 X10.434 Y16.279
G0 X7.189 Y18.086
G0 X5.348 Y18.668
G0 X5.334 Y18.625
G1 F1500 E34.41754
G1 F1800 X5.334 Y19.311 E34.45176
G1 F1500 E27.95176
;MESH:cu capul in jos ransforsat.stl
G0 F3600 X3.448 Y18.132
G0 X-5.663 Y14.526
G0 X-17.193 Y0.066
G1 F1500 E34.45176
G0 F3600 X-17.493 Y0.068
;TYPE:WALL-INNER
G1 F1800 X-17.156 Y3.625 E34.63002
G1 X-16.158 Y7.05 E34.808
G1 X-14.539 Y10.205 E34.98492
G1 X-12.359 Y12.971 E35.16062
G1 X-9.711 Y15.234 E35.3344
G1 X-6.692 Y16.918 E35.50687
G1 X-3.409 Y17.954 E35.67862
G1 X0.00 Y18.303 E35.84958
G1 X3.409 Y17.954 E36.02055
G1 X6.691 Y16.918 E36.19225
G1 X9.711 Y15.234 E36.36476
G1 X12.359 Y12.971 E36.53854
G1 X14.539 Y10.205 E36.71424
G1 X16.158 Y7.051 E36.89112
G1 X17.155 Y3.625 E37.06913
G1 X17.475 Y0.246 E37.23847
G1 X17.493 Y0.064 E37.24759
G1 X17.156 Y-3.494 E37.42589
G1 X16.156 Y-6.923 E37.60409
G1 X14.539 Y-10.074 E37.78079
G1 X12.359 Y-12.84 E37.95649
G1 X9.711 Y-15.102 E38.13024
G1 X6.692 Y-16.786 E38.30271
G1 X3.409 Y-17.822 E38.47446
G1 X0.00 Y-18.171 E38.64542
G1 X-3.409 Y-17.822 E38.81639
G1 X-6.692 Y-16.787 E38.98812
G1 X-9.711 Y-15.103 E39.16059
G1 X-12.359 Y-12.84 E39.33437
G1 X-14.539 Y-10.074 E39.51007
G1 X-16.158 Y-6.918 E39.68704
G1 X-17.155 Y-3.494 E39.86495
G1 X-17.493 Y0.068 E40.04346
G0 F3600 X-17.193 Y0.066
G0 X-6.131 Y-14.487
G0 X-5.771 Y-14.487
G1 F1800 X-5.577 Y-14.731 E40.05901
G1 X-4.886 Y-14.989 E40.09581
G1 X-4.341 Y-15.164 E40.12437
G1 X-3.77 Y-15.329 E40.15402
G1 X-3.185 Y-15.471 E40.18406
G1 X-2.626 Y-15.583 E40.2125
G1 X-2.05 Y-15.68 E40.24164
G1 X-1.494 Y-15.753 E40.26962
G1 X-.888 Y-15.808 E40.29997
G1 X-.328 Y-15.84 E40.32796
G1 X0.281 Y-15.85 E40.35835
G1 X0.868 Y-15.84 E40.38764
G1 X1.448 Y-15.806 E40.41662
G1 X2.032 Y-15.753 E40.44588
G1 X2.59 Y-15.68 E40.47395
G1 X3.189 Y-15.579 E40.50426
G1 X3.763 Y-15.461 E40.53349
G1 X4.33 Y-15.323 E40.56261
G1 X4.899 Y-15.159 E40.59215
G1 X5.447 Y-14.98 E40.62091
G1 X6.062 Y-14.75 E40.65367
G1 X6.197 Y-14.647 E40.66214
G1 X6.331 Y-14.438 E40.67453
G1 X6.37 Y-14.224 E40.68538
G1 X6.369 Y-12.629 E40.76496
G1 X6.43 Y-12.307 E40.78131
G1 X6.523 Y-12.067 E40.79415
G1 X6.664 Y-11.847 E40.80718
G1 X6.891 Y-11.607 E40.82366
G1 X7.521 Y-11.21 E40.86082
G1 X7.965 Y-10.911 E40.88752
G1 X8.45 Y-10.551 E40.91766
G1 X9.021 Y-10.092 E40.95421
G1 X9.6 Y-9.549 E40.99381
G1 X9.973 Y-9.169 E41.02037
G1 X10.406 Y-8.689 E41.05262
G1 X10.75 Y-8.27 E41.07967
G1 X11.076 Y-7.838 E41.10667
G1 X11.383 Y-7.397 E41.13348
G1 X11.676 Y-6.938 E41.16065
G1 X11.947 Y-6.473 E41.1875
G1 X12.2 Y-5.994 E41.21452
G1 X12.505 Y-5.353 E41.24994
G1 X12.914 Y-4.311 E41.30579
G1 X13.162 Y-3.47 E41.34953
G1 X13.296 Y-2.93 E41.37729
G1 X13.403 Y-2.402 E41.40417
G1 X13.487 Y-1.881 E41.43049
G1 X13.552 Y-1.344 E41.45748
G1 X13.596 Y-.805 E41.48446
G1 X13.617 Y-.262 E41.51157
G1 X13.617 Y0.284 E41.53881
G1 X13.577 Y1.077 E41.57842
G1 X13.512 Y1.722 E41.61077
G1 X13.402 Y2.403 E41.64518
G1 X13.239 Y3.165 E41.68406
G1 X13.053 Y3.864 E41.72015
G1 X12.764 Y4.703 E41.76442
G1 X12.567 Y5.196 E41.7909
G1 X12.35 Y5.684 E41.81755
G1 X12.113 Y6.163 E41.84421
G1 X11.87 Y6.609 E41.86955
G1 X11.585 Y7.084 E41.89719
G1 X11.294 Y7.532 E41.92384
G1 X10.983 Y7.969 E41.9506
G1 X10.658 Y8.384 E41.9769
G1 X10.315 Y8.796 E42.00364
G1 X9.956 Y9.189 E42.0302
G1 X9.581 Y9.566 E42.05673
G1 X9.029 Y10.085 E42.09453
G1 X8.429 Y10.567 E42.13292
G1 X8.004 Y10.88 E42.15926
G1 X7.56 Y11.183 E42.18608
G1 X6.891 Y11.605 E42.22554
G1 X6.664 Y11.847 E42.24209
G1 X6.531 Y12.056 E42.25445
G1 X6.37 Y12.621 E42.28376
G1 X6.369 Y14.224 E42.36373
G1 X6.331 Y14.438 E42.37458
G1 X6.197 Y14.647 E42.38696
G1 X6.041 Y14.765 E42.39672
G1 X5.426 Y14.987 E42.42934
G1 X4.88 Y15.164 E42.45798
G1 X4.307 Y15.328 E42.48771
G1 X3.725 Y15.471 E42.51761
G1 X3.166 Y15.583 E42.54606
G1 X2.589 Y15.679 E42.57524
G1 X2.009 Y15.755 E42.60442
G1 X1.428 Y15.808 E42.63353
G1 X0.867 Y15.84 E42.66156
G1 X0.258 Y15.85 E42.69195
G1 X-.329 Y15.84 E42.72124
G1 X-.909 Y15.806 E42.75023
G1 X-1.493 Y15.752 E42.77949
G1 X-2.072 Y15.677 E42.80861
G1 X-2.628 Y15.584 E42.83674
G1 X-3.224 Y15.462 E42.86709
G1 X-3.792 Y15.322 E42.89627
G1 X-4.361 Y15.159 E42.9258
G1 X-4.907 Y14.981 E42.95445
G1 X-5.524 Y14.757 E42.9872
G1 X-5.711 Y14.585 E42.99988
G1 X-5.831 Y14.35 E43.01304
G1 X-5.831 Y12.644 E43.09816
G1 X-5.939 Y12.173 E43.12226
G1 X-6.214 Y11.744 E43.14769
G1 X-6.417 Y11.566 E43.16116
G1 X-6.985 Y11.209 E43.19463
G1 X-7.426 Y10.91 E43.22121
G1 X-7.91 Y10.55 E43.2513
G1 X-8.499 Y10.077 E43.28899
G1 X-9.293 Y9.328 E43.34345
G1 X-9.868 Y8.688 E43.38637
G1 X-10.212 Y8.27 E43.41338
G1 X-10.538 Y7.838 E43.44038
G1 X-10.845 Y7.396 E43.46723
G1 X-11.129 Y6.951 E43.49356
G1 X-11.411 Y6.471 E43.52134
G1 X-11.661 Y5.993 E43.54825
G1 X-11.894 Y5.504 E43.57528
G1 X-12.171 Y4.86 E43.61025
G1 X-12.464 Y4.016 E43.65482
G1 X-12.679 Y3.28 E43.69308
G1 X-12.864 Y2.403 E43.73779
G1 X-12.946 Y1.903 E43.76307
