; generated by Slic3r 1.2.9 on 2022-12-22 at 13:04:23

; external perimeters extrusion width = 0.40mm
; perimeters extrusion width = 0.67mm
; infill extrusion width = 0.67mm
; solid infill extrusion width = 0.67mm
; top infill extrusion width = 0.67mm
; support material extrusion width = 0.40mm

M107
M190 S60 ; set bed temperature
M104 S210 ; set temperature
G28 ; home all axes
G1 Z5 F5000 ; lift nozzle

M109 S210 ; wait for temperature to be reached
G21 ; set units to millimeters
G90 ; use absolute coordinates
M82 ; use absolute distances for extrusion
G92 E0
G1 Z0.400 F7800.000
G1 E-2.00000 F2400.00000
G92 E0
G1 X-24.613 Y-2.328 F7800.000
G1 E2.00000 F2400.00000
G1 X-24.432 Y-4.242 E2.23975 F1800.000
G1 X-24.194 Y-5.488 E2.39791
G1 X-23.164 Y-9.023 E2.85700
G1 X-22.691 Y-10.211 E3.01650
G1 X-21.019 Y-13.468 E3.47311
G1 X-20.557 Y-14.238 E3.58504
G1 X-18.826 Y-16.724 E3.96285
G1 X-17.863 Y-17.827 E4.14542
G1 X-11.929 Y-23.292 E5.15142
G1 X-10.319 Y-24.390 E5.39444
G1 X-8.206 Y-25.419 E5.68751
G1 X-6.461 Y-25.989 E5.91650
G1 X-4.704 Y-26.306 E6.13910
G1 X-3.565 Y-26.413 E6.28180
G1 X1.288 Y-26.426 E6.88698
G1 X2.886 Y-26.426 E7.08621 F1800.000
G1 X4.603 Y-26.393 E7.30035
G1 X5.713 Y-26.277 E7.43949
G1 X7.172 Y-26.002 E7.62473
G1 X8.513 Y-25.600 E7.79931
G1 X9.835 Y-25.049 E7.97785
G1 X10.813 Y-24.543 E8.11525
G1 X12.029 Y-23.781 E8.29417
G1 X12.669 Y-23.326 E8.39203
G1 X19.504 Y-17.837 E9.48520
G1 X20.735 Y-16.543 E9.70798
G1 X21.680 Y-15.240 E9.90867
G1 X22.298 Y-14.203 E10.05925
G1 X23.079 Y-12.574 E10.28453
G1 X23.692 Y-10.465 E10.55837
G1 X24.415 Y-4.405 E11.31944
G1 X24.780 Y-0.567 E11.80027
G1 X24.793 Y0.537 E11.93793
G1 X24.199 Y8.977 E12.99303
G1 X23.504 Y11.514 E13.32106
G1 X19.833 Y18.840 E14.34288
G1 X18.503 Y20.652 E14.62322
G1 X15.396 Y23.664 E15.16280
G1 X13.970 Y24.720 E15.38408
G1 X11.760 Y25.940 E15.69886
G1 X10.112 Y26.584 E15.91951
G1 X8.291 Y27.031 E16.15339
G1 X6.974 Y27.218 E16.31930
G1 X5.342 Y27.286 E16.52300
G1 X-4.530 Y27.292 E17.75395
G1 X-6.276 Y27.250 E17.97183
G1 X-7.355 Y27.134 E18.10715
G1 X-8.814 Y26.857 E18.29233
G1 X-9.955 Y26.534 E18.44019
G1 X-11.296 Y26.023 E18.61920
G1 X-12.324 Y25.527 E18.76151
G1 X-13.556 Y24.797 E18.94006
G1 X-14.503 Y24.120 E19.08527
G1 X-15.621 Y23.162 E19.26881
G1 X-16.000 Y22.811 E19.33326
G1 X-19.196 Y19.614 E19.89692
G1 X-19.563 Y19.216 E19.96446
G1 X-20.568 Y18.033 E20.15800
G1 X-21.320 Y16.946 E20.32289
G1 X-22.160 Y15.434 E20.53858
G1 X-22.748 Y14.014 E20.73019
G1 X-23.327 Y11.982 E20.99369
G1 X-23.522 Y11.055 E21.11190
G1 X-24.432 Y4.374 E21.95275
G1 X-24.780 Y0.698 E22.41317
G1 X-24.780 Y-0.567 E22.57087
G1 X-24.619 Y-2.269 E22.78405
G1 E20.78405 F2400.00000
G92 E0
G1 X-6.348 Y-13.708 F7800.000
G1 E2.00000 F2400.00000
G1 X-6.353 Y-12.594 E2.13889 F1800.000
G1 X-6.412 Y-12.376 E2.16703
G1 X-6.517 Y-12.180 E2.19481
G1 X-6.709 Y-11.987 E2.22873
G1 X-7.702 Y-11.344 E2.37637
G1 X-8.220 Y-10.962 E2.45657
G1 X-9.008 Y-10.304 E2.58459
G1 X-9.799 Y-9.533 E2.72235
G1 X-10.527 Y-8.700 E2.86028
G1 X-11.186 Y-7.812 E2.99822
G1 X-11.768 Y-6.879 E3.13530
G1 X-12.128 Y-6.207 E3.23035
G1 X-12.505 Y-5.389 E3.34265
G1 X-12.777 Y-4.692 E3.43602
G1 X-13.058 Y-3.824 E3.54972
G1 X-13.257 Y-3.044 E3.65013
G1 X-13.419 Y-2.204 E3.75684
G1 X-13.526 Y-1.384 E3.86002
G1 X-13.585 Y-0.548 E3.96451
G1 X-13.585 Y0.548 E4.10111
G1 X-13.526 Y1.384 E4.20560
G1 X-13.420 Y2.198 E4.30800
G1 X-13.319 Y2.754 E4.37848
G1 X-13.124 Y3.585 E4.48497
G1 X-12.954 Y4.166 E4.56041
G1 X-12.710 Y4.875 E4.65397
G1 X-12.369 Y5.701 E4.76532
G1 X-12.033 Y6.394 E4.86134
G1 X-11.490 Y7.346 E4.99811
G1 X-10.946 Y8.152 E5.11935
G1 X-10.521 Y8.706 E5.20642
G1 X-9.799 Y9.533 E5.34330
G1 X-9.008 Y10.304 E5.48105
G1 X-8.220 Y10.962 E5.60907
G1 X-7.702 Y11.344 E5.68928
G1 X-6.709 Y11.987 E5.83691
G1 X-6.605 Y12.077 E5.85398
G1 X-6.487 Y12.229 E5.87797
G1 X-6.408 Y12.384 E5.89973
G1 X-6.353 Y12.612 E5.92892
G1 X-6.348 Y13.726 E6.06790
G1 X-7.220 Y13.260 E6.19127
G1 X-7.930 Y12.836 E6.29433
G1 X-8.806 Y12.232 E6.42708
G1 X-9.661 Y11.549 E6.56356
G1 X-10.251 Y11.011 E6.66314
G1 X-10.835 Y10.426 E6.76621
G1 X-11.187 Y10.037 E6.83156
G1 X-11.882 Y9.184 E6.96884
G1 X-12.191 Y8.760 E7.03423
G1 X-12.636 Y8.085 E7.13504
G1 X-13.058 Y7.374 E7.23811
G1 X-13.540 Y6.426 E7.37086
G1 X-13.966 Y5.417 E7.50734
G1 X-14.228 Y4.663 E7.60692
G1 X-14.462 Y3.870 E7.70998
G1 X-14.587 Y3.358 E7.77576
G1 X-14.742 Y2.564 E7.87657
G1 X-14.862 Y1.747 E7.97964
G1 X-14.947 Y0.686 E8.11239
G1 X-14.956 Y-0.409 E8.24887
G1 X-14.912 Y-1.206 E8.34845
G1 X-14.826 Y-2.028 E8.45152
G1 X-14.747 Y-2.550 E8.51729
G1 X-14.588 Y-3.342 E8.61811
G1 X-14.387 Y-4.144 E8.72117
G1 X-14.235 Y-4.649 E8.78695
G1 X-13.966 Y-5.411 E8.88776
G1 X-13.656 Y-6.171 E8.99002
G1 X-13.310 Y-6.894 E9.09000
G1 X-12.918 Y-7.621 E9.19306
G1 X-12.646 Y-8.074 E9.25884
G1 X-12.198 Y-8.746 E9.35965
G1 X-11.707 Y-9.411 E9.46272
G1 X-11.374 Y-9.820 E9.52850
G1 X-10.834 Y-10.422 E9.62931
G1 X-10.261 Y-11.004 E9.73114
G1 X-9.444 Y-11.732 E9.86759
G1 X-9.038 Y-12.057 E9.93254
G1 X-8.142 Y-12.698 E10.06983
G1 X-7.703 Y-12.978 E10.13478
G1 X-6.754 Y-13.515 E10.27084
G1 X-6.402 Y-13.682 E10.31941
G1 X-5.628 Y-14.814 F7800.000
G1 X-5.640 Y-12.542 E10.60271 F1800.000
G1 X-5.658 Y-12.410 E10.61929
G1 X-5.745 Y-12.112 E10.65801
G1 X-5.886 Y-11.836 E10.69673
G1 X-5.962 Y-11.728 E10.71317
G1 X-6.181 Y-11.495 E10.75308
G1 X-6.290 Y-11.407 E10.77055
G1 X-7.296 Y-10.756 E10.91993
G1 X-7.779 Y-10.400 E10.99473
G1 X-8.529 Y-9.773 E11.11665
G1 X-9.280 Y-9.041 E11.24741
G1 X-9.970 Y-8.251 E11.37824
G1 X-10.595 Y-7.409 E11.50906
G1 X-11.150 Y-6.521 E11.63958
G1 X-11.488 Y-5.889 E11.72900
G1 X-11.848 Y-5.110 E11.83599
G1 X-12.104 Y-4.452 E11.92404
G1 X-12.371 Y-3.626 E12.03231
G1 X-12.560 Y-2.888 E12.12730
G1 X-12.714 Y-2.090 E12.22864
G1 X-12.815 Y-1.312 E12.32644
G1 X-12.871 Y-0.523 E12.42517
G1 X-12.871 Y0.523 E12.55551
G1 X-12.815 Y1.312 E12.65423
G1 X-12.714 Y2.088 E12.75176
G1 X-12.620 Y2.608 E12.81772
G1 X-12.433 Y3.403 E12.91959
G1 X-12.274 Y3.950 E12.99054
G1 X-12.042 Y4.622 E13.07926
G1 X-11.717 Y5.408 E13.18530
G1 X-11.401 Y6.061 E13.27568
G1 X-10.883 Y6.969 E13.40609
G1 X-10.366 Y7.735 E13.52132
G1 X-9.968 Y8.254 E13.60284
G1 X-9.280 Y9.041 E13.73329
G1 X-8.529 Y9.773 E13.86405
G1 X-7.779 Y10.400 E13.98597
G1 X-7.296 Y10.756 E14.06077
G1 X-6.290 Y11.407 E14.21015
G1 X-6.072 Y11.599 E14.24639
G1 X-5.882 Y11.844 E14.28511
G1 X-5.744 Y12.115 E14.32303
G1 X-5.678 Y12.330 E14.35103
G1 X-5.639 Y12.548 E14.37870
G1 X-5.628 Y14.805 E14.66018
G1 X-6.323 Y14.519 E14.75393
G1 X-6.829 Y14.279 E14.82378
G1 X-7.572 Y13.882 E14.92880
G1 X-8.310 Y13.441 E15.03609
G1 X-9.237 Y12.802 E15.17649
G1 X-10.125 Y12.092 E15.31823
G1 X-10.745 Y11.527 E15.42281
G1 X-11.352 Y10.918 E15.53010
G1 X-11.729 Y10.503 E15.59994
G1 X-12.448 Y9.620 E15.74197
G1 X-12.778 Y9.167 E15.81182
G1 X-13.241 Y8.464 E15.91684
G1 X-13.681 Y7.724 E16.02413
G1 X-14.191 Y6.721 E16.16453
G1 X-14.633 Y5.674 E16.30627
G1 X-14.908 Y4.881 E16.41085
G1 X-15.152 Y4.056 E16.51814
G1 X-15.285 Y3.511 E16.58814
G1 X-15.446 Y2.684 E16.69315
G1 X-15.571 Y1.833 E16.80045
G1 X-15.661 Y0.711 E16.94085
G1 X-15.671 Y-0.426 E17.08259
G1 X-15.624 Y-1.263 E17.18716
G1 X-15.535 Y-2.119 E17.29446
G1 X-15.451 Y-2.674 E17.36445
G1 X-15.285 Y-3.499 E17.46947
G1 X-15.076 Y-4.334 E17.57676
G1 X-14.914 Y-4.871 E17.64675
G1 X-14.633 Y-5.665 E17.75177
G1 X-14.309 Y-6.460 E17.85878
G1 X-13.947 Y-7.217 E17.96349
G1 X-13.539 Y-7.975 E18.07079
G1 X-13.250 Y-8.456 E18.14078
G1 X-12.782 Y-9.156 E18.24580
G1 X-12.271 Y-9.849 E18.35309
G1 X-11.917 Y-10.284 E18.42308
G1 X-11.355 Y-10.911 E18.52810
G1 X-10.754 Y-11.522 E18.63495
G1 X-9.905 Y-12.278 E18.77668
G1 X-9.469 Y-12.627 E18.84638
G1 X-8.543 Y-13.290 E18.98841
G1 X-8.071 Y-13.590 E19.05811
G1 X-7.083 Y-14.149 E19.19969
G1 X-6.058 Y-14.637 E19.34128
G1 X-5.683 Y-14.791 E19.39178
G1 X-5.782 Y-14.445 F7800.000
G1 X-5.228 Y-14.817 F7800.000
G1 X-3.883 Y-15.241 E19.56758 F1800.000
G1 X-2.608 Y-15.529 E19.73059
G1 X-1.455 Y-15.699 E19.87600
G1 X-0.571 Y-15.771 E19.98651
G1 X-0.014 Y-15.792 E20.05603
G1 X0.821 Y-15.787 E20.16017
G1 X1.424 Y-15.753 E20.23547
G1 X2.777 Y-15.596 E20.40536
G1 X3.882 Y-15.377 E20.54579
G1 X4.884 Y-15.107 E20.67521
G1 X5.766 Y-14.811 E20.79126
G1 X6.886 Y-13.718 F7800.000
G1 X7.283 Y-13.520 E20.84661 F1800.000
G1 X8.233 Y-12.983 E20.98267
G1 X9.141 Y-12.381 E21.11848
G1 X9.560 Y-12.069 E21.18368
G1 X10.400 Y-11.373 E21.31973
G1 X11.189 Y-10.619 E21.45578
G1 X11.545 Y-10.239 E21.52073
G1 X12.251 Y-9.403 E21.65721
G1 X12.726 Y-8.761 E21.75680
G1 X13.179 Y-8.082 E21.85863
G1 X13.726 Y-7.134 E21.99507
G1 X14.191 Y-6.179 E22.12743
G1 X14.598 Y-5.164 E22.26391
G1 X14.847 Y-4.405 E22.36349
G1 X15.065 Y-3.614 E22.46575
G1 X15.233 Y-2.830 E22.56572
G1 X15.367 Y-2.015 E22.66879
G1 X15.427 Y-1.494 E22.73414
G1 X15.495 Y-0.405 E22.87019
G1 X15.485 Y0.686 E23.00624
G1 X15.452 Y1.209 E23.07163
G1 X15.364 Y2.012 E23.17244
G1 X15.236 Y2.829 E23.27550
G1 X15.129 Y3.342 E23.34085
G1 X14.849 Y4.407 E23.47814
G1 X14.507 Y5.411 E23.61050
G1 X14.079 Y6.426 E23.74778
G1 X13.851 Y6.894 E23.81274
G1 X13.318 Y7.857 E23.95003
G1 X13.039 Y8.301 E24.01541
G1 X12.579 Y8.966 E24.11622
G1 X12.076 Y9.622 E24.21929
G1 X11.375 Y10.423 E24.35204
G1 X10.593 Y11.198 E24.48932
G1 X10.205 Y11.545 E24.55428
G1 X9.345 Y12.232 E24.69157
G1 X8.921 Y12.535 E24.75652
G1 X8.001 Y13.122 E24.89257
G1 X6.886 Y13.727 E25.05082
G1 X6.897 Y12.559 E25.19651
G1 X6.943 Y12.396 E25.21759
G1 X7.030 Y12.222 E25.24186
G1 X7.131 Y12.092 E25.26241
G1 X7.247 Y11.987 E25.28192
G1 X8.241 Y11.344 E25.42956
G1 X8.758 Y10.962 E25.50976
G1 X9.546 Y10.304 E25.63778
G1 X10.337 Y9.533 E25.77554
G1 X11.065 Y8.700 E25.91347
G1 X11.724 Y7.812 E26.05141
G1 X12.307 Y6.879 E26.18849
G1 X12.666 Y6.207 E26.28354
G1 X13.044 Y5.389 E26.39584
G1 X13.316 Y4.692 E26.48921
G1 X13.596 Y3.824 E26.60291
G1 X13.795 Y3.044 E26.70332
G1 X13.958 Y2.204 E26.81003
G1 X14.065 Y1.384 E26.91321
G1 X14.123 Y0.548 E27.01771
G1 X14.123 Y-0.548 E27.15430
G1 X14.065 Y-1.384 E27.25879
G1 X13.958 Y-2.204 E27.36197
G1 X13.796 Y-3.040 E27.46818
G1 X13.651 Y-3.627 E27.54362
G1 X13.435 Y-4.347 E27.63727
G1 X13.247 Y-4.879 E27.70766
G1 X12.907 Y-5.701 E27.81851
G1 X12.573 Y-6.391 E27.91417
G1 X12.103 Y-7.225 E28.03362
G1 X11.506 Y-8.122 E28.16793
G1 X11.060 Y-8.705 E28.25949
G1 X10.337 Y-9.533 E28.39649
G1 X9.546 Y-10.304 E28.53424
G1 X8.758 Y-10.962 E28.66226
G1 X8.241 Y-11.344 E28.74247
G1 X7.247 Y-11.987 E28.89010
G1 X7.068 Y-12.165 E28.92156
G1 X6.949 Y-12.378 E28.95204
G1 X6.892 Y-12.601 E28.98075
G1 X6.886 Y-13.658 E29.11248
G1 X6.166 Y-14.805 F7800.000
G1 X6.603 Y-14.634 E29.17091 F1800.000
G1 X7.115 Y-14.401 E29.24106
G1 X7.618 Y-14.151 E29.31120
G1 X8.607 Y-13.592 E29.45278
G1 X9.551 Y-12.966 E29.59412
G1 X10.002 Y-12.631 E29.66407
G1 X10.876 Y-11.906 E29.80566
G1 X11.696 Y-11.122 E29.94724
G1 X12.079 Y-10.714 E30.01694
G1 X12.812 Y-9.846 E30.15868
G1 X13.310 Y-9.171 E30.26326
G1 X13.786 Y-8.459 E30.37011
G1 X14.354 Y-7.475 E30.51183
G1 X14.846 Y-6.463 E30.65209
G1 X15.270 Y-5.408 E30.79384
G1 X15.531 Y-4.611 E30.89841
G1 X15.759 Y-3.784 E31.00541
G1 X15.935 Y-2.963 E31.11013
G1 X16.074 Y-2.114 E31.21742
G1 X16.139 Y-1.558 E31.28726
G1 X16.209 Y-0.424 E31.42885
G1 X16.199 Y0.711 E31.57044
G1 X16.164 Y1.270 E31.64029
G1 X16.072 Y2.107 E31.74531
G1 X15.938 Y2.957 E31.85260
G1 X15.825 Y3.505 E31.92244
G1 X15.535 Y4.607 E32.06447
G1 X15.172 Y5.671 E32.20473
G1 X14.729 Y6.721 E32.34676
G1 X14.485 Y7.223 E32.41646
G1 X13.933 Y8.220 E32.55849
G1 X13.636 Y8.695 E32.62834
G1 X13.156 Y9.387 E32.73336
G1 X12.633 Y10.070 E32.84065
G1 X12.269 Y10.500 E32.91093
G1 X11.892 Y10.917 E32.98107
G1 X11.083 Y11.719 E33.12310
G1 X10.665 Y12.091 E33.19280
G1 X9.776 Y12.802 E33.33483
G1 X9.321 Y13.127 E33.40453
G1 X8.364 Y13.738 E33.54612
G1 X7.366 Y14.279 E33.68770
G1 X6.861 Y14.519 E33.75740
G1 X6.166 Y14.805 E33.85115
G1 X6.178 Y12.542 E34.13341
G1 X6.275 Y12.137 E34.18533
G1 X6.422 Y11.842 E34.22645
G1 X6.594 Y11.618 E34.26162
G1 X6.829 Y11.407 E34.30103
G1 X7.834 Y10.756 E34.45041
G1 X8.317 Y10.400 E34.52522
G1 X9.068 Y9.773 E34.64713
G1 X9.818 Y9.041 E34.77790
G1 X10.509 Y8.251 E34.90872
G1 X11.134 Y7.409 E35.03955
G1 X11.689 Y6.521 E35.17007
G1 X12.027 Y5.889 E35.25949
G1 X12.386 Y5.110 E35.36648
G1 X12.643 Y4.452 E35.45452
G1 X12.910 Y3.626 E35.56279
G1 X13.098 Y2.888 E35.65778
G1 X13.252 Y2.090 E35.75912
G1 X13.354 Y1.312 E35.85693
G1 X13.409 Y0.523 E35.95565
G1 X13.409 Y-0.523 E36.08600
G1 X13.354 Y-1.312 E36.18472
G1 X13.252 Y-2.090 E36.28252
G1 X13.098 Y-2.887 E36.38368
G1 X12.962 Y-3.439 E36.45463
G1 X12.756 Y-4.125 E36.54399
G1 X12.580 Y-4.624 E36.60992
G1 X12.255 Y-5.408 E36.71579
G1 X11.940 Y-6.060 E36.80603
G1 X11.494 Y-6.852 E36.91941
G1 X10.924 Y-7.707 E37.04755
G1 X10.507 Y-8.253 E37.13328
G1 X9.818 Y-9.041 E37.26377
G1 X9.068 Y-9.773 E37.39453
G1 X8.317 Y-10.400 E37.51645
G1 X7.834 Y-10.756 E37.59126
G1 X6.829 Y-11.407 E37.74064
G1 X6.719 Y-11.495 E37.75821
G1 X6.517 Y-11.708 E37.79481
G1 X6.423 Y-11.838 E37.81476
G1 X6.283 Y-12.113 E37.85326
G1 X6.203 Y-12.385 E37.88869
G1 X6.178 Y-12.544 E37.90877
G1 X6.167 Y-14.745 E38.18313
G1 X6.453 Y-14.526 F7800.000
G1 E36.18313 F2400.00000
G92 E0
G1 X12.029 Y7.125 F7800.000
G1 X10.947 Y9.879 F7800.000
G1 X9.986 Y10.825 F7800.000
G1 X9.092 Y11.566 F7800.000
G1 X8.700 Y11.854 F7800.000
G1 X8.623 Y11.909 F7800.000
G1 X8.525 Y11.978 F7800.000
G1 X8.978 Y12.635 F7800.000
G1 X5.766 Y14.807 F7800.000
G1 E2.00000 F2400.00000
G1 X4.695 Y15.162 E2.14076 F1800.000
G1 X3.603 Y15.440 E2.28118
G1 X2.510 Y15.637 E2.41979
G1 X1.424 Y15.755 E2.55597
G1 X0.833 Y15.788 E2.62971
G1 X-0.324 Y15.786 E2.77400
G1 X-1.411 Y15.703 E2.91001
G1 X-2.234 Y15.596 E3.01353
G1 X-3.070 Y15.440 E3.11955
G1 X-3.877 Y15.238 E3.22327
G1 X-5.228 Y14.822 E3.39953
G1 X-6.709 Y12.952 F7800.000
G1 X-7.106 Y12.538 E3.55130 F1800.000
G1 X-8.099 Y11.899 E3.86348
G1 X-8.632 Y11.502 E4.03925
G1 X-9.215 Y11.026 E4.23818
G1 X-9.776 Y10.514 E4.43912
G1 X-10.285 Y10.011 E4.62833
G1 X-11.040 Y9.144 E4.93221
G1 X-11.494 Y8.558 E5.12817
G1 X-12.058 Y7.723 E5.39458
G1 X-12.458 Y7.037 E5.60451
G1 X-12.916 Y6.142 E5.87037
G1 X-13.327 Y5.172 E6.14905
G1 X-13.578 Y4.454 E6.35005
G1 X-13.801 Y3.692 E6.55999
G1 X-14.068 Y2.450 E6.89601
G1 X-14.181 Y1.664 E7.10594
G1 X-14.263 Y0.661 E7.37184
G1 X-14.270 Y-0.393 E7.65052
G1 X-14.204 Y-1.442 E7.92845
G1 X-14.094 Y-2.303 E8.15797
G1 X-13.923 Y-3.192 E8.39747
G1 X-13.716 Y-4.004 E8.61890
G1 X-13.421 Y-4.911 E8.87112
G1 X-13.127 Y-5.665 E9.08493
G1 X-12.734 Y-6.519 E9.33370
G1 X-12.323 Y-7.283 E9.56291
G1 X-11.741 Y-8.205 E9.85141
G1 X-11.165 Y-8.991 E10.10888
G1 X-10.851 Y-9.373 E10.23975
G1 X-10.284 Y-10.010 E10.46508
G1 X-9.472 Y-10.799 E10.76457
G1 X-9.001 Y-11.206 E10.92915
G1 X-8.625 Y-11.512 E11.05722
G1 X-8.080 Y-11.908 E11.23519
G1 X-7.120 Y-12.529 E11.53765
G1 X-6.709 Y-12.942 E11.69172
G1 E9.69172 F2400.00000
G92 E0
G1 X-6.937 Y-12.742 F7800.000
G1 X7.476 Y-12.742 F7800.000
G1 X7.247 Y-12.942 F7800.000
G1 E2.00000 F2400.00000
G1 X7.656 Y-12.530 E2.15348 F1800.000
G1 X8.637 Y-11.898 E2.46180
G1 X9.187 Y-11.492 E2.64271
G1 X9.994 Y-10.818 E2.92061
G1 X10.701 Y-10.136 E3.18054
G1 X11.032 Y-9.782 E3.30859
G1 X11.714 Y-8.978 E3.58725
G1 X12.165 Y-8.367 E3.78822
G1 X12.676 Y-7.592 E4.03369
G1 X13.173 Y-6.716 E4.29973
G1 X13.535 Y-5.971 E4.51875
G1 X13.955 Y-4.929 E4.81573
G1 X14.191 Y-4.207 E5.01671
G1 X14.400 Y-3.452 E5.22388
G1 X14.630 Y-2.303 E5.53373
G1 X14.745 Y-1.442 E5.76330
G1 X14.809 Y-0.387 E6.04271
G1 X14.804 Y0.583 E6.29922
G1 X14.742 Y1.442 E6.52688
G1 X14.627 Y2.322 E6.76164
G1 X14.460 Y3.203 E6.99868
G1 X14.191 Y4.214 E7.27540
G1 X13.868 Y5.162 E7.53994
G1 X13.453 Y6.142 E7.82135
G1 X13.244 Y6.578 E7.94942
G1 X12.889 Y7.229 E8.14532
G1 X12.465 Y7.923 E8.36036
G1 X12.024 Y8.561 E8.56552
G1 X11.543 Y9.193 E8.77544
G1 X10.823 Y10.011 E9.06341
G1 X10.124 Y10.698 E9.32278
G1 X9.761 Y11.020 E9.45083
G1 X9.170 Y11.502 E9.65253
G1 X8.637 Y11.899 E9.82830
G1 X7.642 Y12.543 E10.14160
G1 X7.247 Y12.944 E10.29057
G1 Z0.400 F7800.000
