; generated by Slic3r 1.2.9 on 2022-12-20 at 16:49:49

; external perimeters extrusion width = 0.40mm
; perimeters extrusion width = 0.48mm
; infill extrusion width = 0.48mm
; solid infill extrusion width = 0.48mm
; top infill extrusion width = 0.48mm
; support material extrusion width = 0.40mm

M107
M190 S70 ; set bed temperature
M104 S210 ; set temperature
G28 ; home all axes
G1 Z5 F5000 ; lift nozzle

M109 S210 ; wait for temperature to be reached
G21 ; set units to millimeters
G90 ; use absolute coordinates
M82 ; use absolute distances for extrusion
G92 E0
G1 Z0.400 F7800.000
G1 E-2.00000 F2400.00000
G92 E0
G1 X23.464 Y0.000 F7800.000
G1 E2.00000 F2400.00000
G1 X23.453 Y7.234 E2.85913 F1800.000
G1 X23.372 Y8.305 E2.98667
G1 X23.287 Y8.946 E3.06352
G1 X23.161 Y9.646 E3.14796
G1 X23.001 Y10.341 E3.23269
G1 X22.804 Y11.039 E3.31879
G1 X22.407 Y12.161 E3.46013
G1 X19.866 Y17.874 E4.20280
G1 X18.506 Y19.860 E4.48864
G1 X14.248 Y24.161 E5.20733
G1 X13.367 Y24.909 E5.34466
G1 X10.743 Y26.766 E5.72643
G1 X7.595 Y27.955 E6.12612
G1 X4.985 Y28.238 E6.43797
G1 X4.104 Y28.301 E6.54286
G1 X3.183 Y28.319 E6.65226
G1 X-3.310 Y28.319 E7.42330
G1 X-4.398 Y28.291 E7.55266
G1 X-7.130 Y28.130 E7.87763
G1 X-9.377 Y27.601 E8.15186
G1 X-10.496 Y26.990 E8.30318
G1 X-12.633 Y25.524 E8.61105
G1 X-13.614 Y24.790 E8.75650
G1 X-14.299 Y24.195 E8.86432
G1 X-18.773 Y19.735 E9.61448
G1 X-20.251 Y17.502 E9.93256
G1 X-22.366 Y12.263 E10.60352
G1 X-22.665 Y11.464 E10.70490
G1 X-22.885 Y10.764 E10.79202
G1 X-23.068 Y10.063 E10.87804
G1 X-23.216 Y9.360 E10.96336
G1 X-23.375 Y8.281 E11.09294
G1 X-23.438 Y7.544 E11.18081
G1 X-23.464 Y6.686 E11.28269
G1 X-23.453 Y-9.235 E13.17358
G1 X-23.376 Y-10.271 E13.29695
G1 X-23.282 Y-10.977 E13.38155
G1 X-23.153 Y-11.682 E13.46666
G1 X-22.878 Y-12.790 E13.60231
G1 X-22.549 Y-13.790 E13.72733
G1 X-22.109 Y-14.851 E13.86373
G1 X-19.737 Y-20.034 E14.54067
G1 X-19.220 Y-20.970 E14.66771
G1 X-18.254 Y-22.196 E14.85301
G1 X-14.209 Y-26.252 E15.53332
G1 X-12.322 Y-27.582 E15.80755
G1 X-9.940 Y-28.208 E16.10005
G1 X-7.327 Y-28.397 E16.41121
G1 X-6.558 Y-28.432 E16.50260
G1 X6.910 Y-28.442 E18.10212
G1 X8.683 Y-28.205 E18.31463
G1 X11.749 Y-27.368 E18.69200 F1800.000
G1 X14.400 Y-25.945 E19.04941
G1 X16.906 Y-23.753 E19.44483
G1 X17.732 Y-22.891 E19.58659
G1 X18.982 Y-21.326 E19.82449
G1 X19.868 Y-19.871 E20.02676
G1 X22.405 Y-14.164 E20.76862
G1 X22.658 Y-13.486 E20.85455
G1 X22.878 Y-12.791 E20.94112
G1 X23.063 Y-12.087 E21.02750
G1 X23.213 Y-11.377 E21.11368
G1 X23.376 Y-10.271 E21.24651
G1 X23.436 Y-9.563 E21.33087
G1 X23.462 Y-8.853 E21.41524
G1 X23.464 Y-0.060 E22.45956
G1 E20.45956 F2400.00000
G92 E0
G1 X-15.760 Y10.213 F7800.000
G1 E2.00000 F2400.00000
G1 X-15.877 Y9.664 E2.06667 F1800.000
G1 X-16.014 Y8.875 E2.16180
G1 X-16.102 Y8.154 E2.24813
G1 X-16.135 Y7.765 E2.29445
G1 X-16.176 Y6.678 E2.42362
G1 X-16.171 Y-9.047 E4.29120
G1 X-16.107 Y-10.099 E4.41634
G1 X-16.013 Y-10.881 E4.50999
G1 X-15.876 Y-11.667 E4.60467
G1 X-15.760 Y-12.213 E4.67099
G1 E2.67099 F2400.00000
G92 E0
G1 X-15.601 Y-12.724 F7800.000
G1 X-11.262 Y-10.474 F7800.000
G1 X1.789 Y-1.000 F7800.000
G1 X13.601 Y-12.813 F7800.000
G1 X15.601 Y-12.813 F7800.000
G1 X15.757 Y-12.191 F7800.000
G1 E2.00000 F2400.00000
G1 X15.881 Y-11.645 E2.06648 F1800.000
G1 X16.013 Y-10.882 E2.15844
G1 X16.107 Y-10.099 E2.25212
G1 X16.171 Y-9.047 E2.37727
G1 X16.176 Y6.678 E4.24485
G1 X16.135 Y7.765 E4.37401
G1 X16.102 Y8.154 E4.42033
G1 X16.014 Y8.875 E4.50666
G1 X15.877 Y9.664 E4.60179
G1 X15.760 Y10.213 E4.66847
G1 Z0.400 F7800.000
G1 E2.66847 F2400.00000
G92 E0
G1 X14.106 Y13.265 F7800.000
G1 E2.00000 F2400.00000
G1 X13.983 Y13.511 E2.01438 F1800.000
G1 X14.038 Y14.100 F7800.000
G1 X14.038 Y14.082 E2.01531 F1800.000
G1 X14.038 Y14.100 E2.01624
G1 X12.268 Y14.959 F7800.000
G1 X12.380 Y14.735 E2.02933 F1800.000
G1 X12.134 Y14.444 E2.04924
G1 X11.277 Y16.155 E2.14924
G1 X10.633 Y16.658 F7800.000
G1 X11.924 Y14.081 E2.29982 F1800.000
G1 X11.742 Y13.662 E2.32368
G1 X10.408 Y16.324 E2.47922
G1 X9.592 Y16.481 F7800.000
G1 X9.485 Y16.695 E2.49173 F1800.000
G1 X9.529 Y16.435 F7800.000
G1 X9.827 Y16.435 E2.50732 F1800.000
G1 X10.127 Y16.955 E2.53867
G1 X9.827 Y17.474 E2.57002
G1 X9.526 Y17.474 E2.58578
G1 X9.588 Y17.451 F7800.000
G1 X9.483 Y17.660 E2.59800 F1800.000
G1 X9.188 Y17.362 F7800.000
G1 X7.418 Y20.894 E2.80437 F1800.000
G1 X6.872 Y21.280 E2.83934
G1 X9.190 Y16.654 E3.10967
G1 X9.192 Y15.946 F7800.000
G1 X6.553 Y21.213 E3.41745 F1800.000
G1 X6.220 Y21.173 F7800.000
G1 X9.195 Y15.238 E3.76428 F1800.000
G1 X9.487 Y14.902 F7800.000
G1 X9.602 Y14.673 E3.77764 F1800.000
G1 X9.534 Y14.635 F7800.000
G1 X9.833 Y14.635 E3.79323 F1800.000
G1 X10.133 Y15.155 E3.82458
G1 X9.833 Y15.674 E3.85592
G1 X9.531 Y15.674 E3.87168
G1 X9.598 Y15.641 F7800.000
G1 X9.484 Y15.869 E3.88501 F1800.000
G1 X9.197 Y14.530 F7800.000
G1 X5.809 Y21.290 E4.28004 F1800.000
G1 X5.409 Y21.385 E4.30153
G1 X9.199 Y13.822 E4.74349
G1 X9.537 Y13.874 F7800.000
G1 X9.839 Y13.874 E4.75925 F1800.000
G1 X10.139 Y13.355 E4.79059
G1 X9.839 Y12.835 E4.82194
G1 X9.540 Y12.835 E4.83753
G1 X9.607 Y12.873 F7800.000
G1 X9.493 Y13.102 E4.85088 F1800.000
G1 X9.201 Y13.114 F7800.000
G1 X5.018 Y21.461 E5.33866 F1800.000
G1 X4.636 Y21.520 E5.35887
G1 X9.204 Y12.406 E5.89147
G1 X9.495 Y12.269 F7800.000
G1 X9.610 Y12.041 E5.90480 F1800.000
G1 X9.543 Y12.074 F7800.000
G1 X9.844 Y12.074 E5.92056 F1800.000
G1 X10.144 Y11.555 E5.95191
G1 X9.844 Y11.035 E5.98326
G1 X9.546 Y11.035 E5.99884
G1 X9.613 Y11.073 F7800.000
G1 X9.498 Y11.302 E6.01220 F1800.000
G1 X9.208 Y10.990 F7800.000
G1 X3.895 Y21.590 E6.63169 F1800.000
G1 X4.261 Y21.563 E6.65087
G1 X9.206 Y11.698 E7.22740
G1 X9.501 Y10.469 F7800.000
G1 X9.615 Y10.241 E7.24073 F1800.000
G1 X9.548 Y10.274 F7800.000
G1 X9.849 Y10.274 E7.25648 F1800.000
G1 X10.149 Y9.755 E7.28782
G1 X9.849 Y9.235 E7.31917
G1 X9.551 Y9.235 E7.33477
G1 X9.618 Y9.274 F7800.000
G1 X9.504 Y9.502 E7.34812 F1800.000
G1 X9.212 Y9.574 F7800.000
G1 X3.183 Y21.604 E8.05115 F1800.000
G1 X3.537 Y21.601 E8.06966
G1 X9.210 Y10.282 E8.73116
G1 X9.251 Y8.793 F7800.000
G1 X2.830 Y21.604 E9.47985 F1800.000
G1 X2.477 Y21.604 E9.49828
G1 X9.213 Y8.165 E10.28370
G1 X9.635 Y7.956 F7800.000
G1 X9.551 Y7.810 E10.29250 F1800.000
G1 X9.551 Y8.035 E10.30425
G1 X9.635 Y7.956 E10.31029
G1 X9.213 Y7.461 F7800.000
G1 X2.125 Y21.604 E11.13683 F1800.000
G1 X1.772 Y21.604 E11.15525
G1 X9.213 Y6.757 E12.02291
G1 X9.551 Y6.364 F7800.000
G1 X9.851 Y6.364 E12.03859 F1800.000
G1 X10.151 Y6.884 E12.06994
G1 X10.043 Y7.071 E12.08119
G1 X10.324 Y7.071 E12.09587
G1 X10.413 Y7.225 E12.10517
G1 X10.795 Y6.866 E12.13253
G1 X10.748 Y6.785 E12.13742
G1 X11.048 Y6.266 E12.16877
G1 X11.434 Y6.266 E12.18894
G1 X11.591 Y6.118 F7800.000
G1 X11.380 Y5.753 E12.21099 F1800.000
G1 X11.680 Y5.233 E12.24233
G1 X12.280 Y5.233 E12.27368
G1 X12.365 Y5.380 E12.28255
G1 X12.621 Y5.071 E12.30351
G1 X12.777 Y4.840 E12.31806
G1 X12.743 Y4.840 E12.31987
G1 X12.443 Y4.321 E12.35122
G1 X12.743 Y3.801 E12.38256
G1 X13.212 Y3.801 E12.40708
G1 X13.394 Y3.103 E12.44479
G1 X13.203 Y3.103 E12.45474
G1 X12.903 Y2.583 E12.48608
G1 X13.203 Y2.063 E12.51743
G1 X13.593 Y2.063 E12.53776
G1 X13.668 Y1.487 E12.56813
G1 X13.684 Y1.318 E12.57702
G1 X13.425 Y1.318 E12.59058
G1 X13.125 Y0.798 E12.62193
G1 X13.425 Y0.278 E12.65327
G1 X13.745 Y0.278 E12.67003
G1 X13.741 Y-0.481 E12.70970
G1 X13.413 Y-0.481 E12.72686
G1 X13.113 Y-1.001 E12.75821
G1 X13.413 Y-1.520 E12.78956
G1 X13.665 Y-1.520 E12.80271
G1 X13.603 Y-1.997 E12.82782
G1 X13.559 Y-2.262 E12.84187
G1 X13.163 Y-2.262 E12.86260
G1 X12.863 Y-2.782 E12.89394
G1 X13.163 Y-3.301 E12.92529
G1 X13.345 Y-3.301 E12.93482
G1 X13.159 Y-3.986 E12.97191
G1 X12.660 Y-3.986 E12.99799
G1 X12.360 Y-4.506 E13.02934
G1 X12.658 Y-5.022 E13.06048
G1 X12.636 Y-5.052 E13.06239
G1 X12.570 Y-5.138 F7800.000
G1 X12.323 Y-5.427 E13.08224 F1800.000
G1 X12.222 Y-5.526 F7800.000
G1 X12.133 Y-5.372 E13.09155 F1800.000
G1 X11.533 Y-5.372 E13.12289
G1 X11.233 Y-5.892 E13.15424
G1 X11.444 Y-6.257 E13.17628
G1 X11.632 Y-6.411 F7800.000
G1 X12.133 Y-6.411 E13.20243 F1800.000
G1 X12.254 Y-6.201 E13.21508
G1 X12.572 Y-6.297 E13.23246
G1 X12.349 Y-6.684 E13.25582
G1 X12.649 Y-7.203 E13.28717
G1 X12.949 Y-7.203 E13.30284
G1 X12.949 Y-7.964 E13.34259
G1 X12.649 Y-7.964 E13.35826
G1 X12.349 Y-8.484 E13.38961
G1 X12.649 Y-9.003 E13.42096
G1 X12.949 Y-9.003 E13.43663
G1 X12.948 Y-9.764 E13.47637
G1 X12.648 Y-9.764 E13.49206
G1 X12.348 Y-10.284 E13.52341
G1 X12.648 Y-10.803 E13.55476
G1 X12.947 Y-10.803 E13.57041
G1 X12.947 Y-11.564 E13.61016
G1 X12.646 Y-11.564 E13.62585
G1 X12.346 Y-12.084 E13.65720
G1 X12.646 Y-12.603 E13.68854
G1 X12.946 Y-12.603 E13.70420
G1 X12.946 Y-13.364 E13.74395
G1 X12.645 Y-13.364 E13.75964
G1 X12.345 Y-13.884 E13.79099
G1 X12.645 Y-14.403 E13.82233
G1 X12.945 Y-14.403 E13.83799
G1 X12.944 Y-15.164 E13.87773
G1 X12.644 Y-15.164 E13.89343
G1 X12.344 Y-15.684 E13.92477
G1 X12.644 Y-16.203 E13.95612
G1 X12.944 Y-16.203 E13.97177
G1 X12.944 Y-16.372 E13.98058
G1 X13.112 Y-16.203 E13.99304
G1 X13.244 Y-16.203 E13.99993
G1 X13.365 Y-15.994 E14.01258
G1 X13.430 Y-16.106 E14.01933
G1 X14.030 Y-16.106 E14.05068
G1 X14.044 Y-16.081 E14.05214
G1 X14.044 Y-16.107 E14.05348
G1 X13.743 Y-16.107 E14.06918
G1 X13.443 Y-16.626 E14.10052
G1 X13.737 Y-17.135 E14.13117
G1 X13.293 Y-17.578 E14.16393
G1 X13.213 Y-17.439 E14.17233
G1 X12.613 Y-17.439 E14.20368
G1 X12.313 Y-17.958 E14.23502
G1 X12.533 Y-18.339 E14.25797
G1 X12.381 Y-18.490 F7800.000
G1 X12.301 Y-18.351 E14.26637 F1800.000
G1 X11.701 Y-18.351 E14.29772
G1 X11.401 Y-18.870 E14.32907
G1 X11.621 Y-19.251 E14.35201
G1 X11.109 Y-19.763 E14.38984
G1 X11.028 Y-19.624 E14.39824
G1 X10.428 Y-19.624 E14.42959
G1 X10.128 Y-20.143 E14.46094
G1 X10.348 Y-20.524 E14.48388
G1 X9.980 Y-20.891 E14.51104 F1800.000
G1 X9.851 Y-20.667 E14.52459
G1 X9.551 Y-20.667 E14.54026
G1 X9.666 Y-20.871 F7800.000
G1 X9.455 Y-20.450 E14.56486 F1800.000
G1 X9.213 Y-20.684 F7800.000
G1 X1.464 Y-5.224 E15.46833 F1800.000
G1 X1.464 Y-5.927 E15.50506
G1 X8.985 Y-20.933 E16.38199
G1 X8.721 Y-21.110 E16.39859
G1 X1.464 Y-6.630 E17.24478
G1 X1.465 Y-7.336 F7800.000
G1 X8.404 Y-21.181 E18.05390 F1800.000
G1 X8.098 Y-21.274 E18.07062
G1 X1.467 Y-8.043 E18.84380
G1 X1.469 Y-8.751 F7800.000
G1 X7.802 Y-21.387 E19.58226 F1800.000
G1 X7.506 Y-21.501 E19.59881
G1 X1.471 Y-9.458 E20.30257
G1 X1.473 Y-10.166 F7800.000
G1 X7.211 Y-21.614 E20.97161 F1800.000
G1 X6.915 Y-21.728 E20.98816
G1 X1.475 Y-10.874 E21.62249
G1 X1.477 Y-11.581 F7800.000
G1 X6.473 Y-21.550 E22.20507 F1800.000
G1 X6.135 Y-21.579 E22.22281
G1 X1.479 Y-12.289 E22.76571
G1 X1.481 Y-12.996 F7800.000
G1 X5.791 Y-21.597 E23.26834 F1800.000
G1 X5.442 Y-21.604 E23.28657
G1 X1.483 Y-13.704 E23.74827
G1 X1.481 Y-14.405 E23.78490
G1 X5.090 Y-21.604 E24.20562
G1 X4.737 Y-21.604 E24.22405
G1 X1.478 Y-15.102 E24.60404
G1 X1.475 Y-15.799 E24.64046
G1 X4.384 Y-21.604 E24.97971
G1 X4.032 Y-21.604 E24.99813
G1 X1.472 Y-16.496 E25.29664
G1 X1.468 Y-17.194 E25.33306
G1 X3.679 Y-21.604 E25.59083
G1 X3.326 Y-21.604 E25.60925
G1 X1.465 Y-17.891 E25.82628
G1 X1.462 Y-18.588 E25.86270
G1 X2.974 Y-21.604 E26.03899
G1 X2.621 Y-21.604 E26.05742
G1 X1.458 Y-19.285 E26.19297
G1 X1.455 Y-19.982 E26.22939
G1 X2.268 Y-21.604 E26.32420
G1 X1.916 Y-21.604 E26.34262
G1 X1.452 Y-20.679 E26.39669
G1 X1.449 Y-21.376 E26.43311
G1 X1.563 Y-21.604 E26.44644
G1 E24.44644 F2400.00000
G92 E0
G1 X-1.452 Y-20.673 F7800.000
G1 E2.00000 F2400.00000
G1 X-9.213 Y-5.189 E2.90491 F1800.000
G1 X-9.213 Y-5.890 E2.94155
G1 X-1.449 Y-21.382 E3.84690
G1 X-1.689 Y-21.604 E3.86400
G1 X-9.213 Y-6.591 E4.74136
G1 X-9.213 Y-7.293 E4.77800
G1 X-2.040 Y-21.604 E5.61438
G1 X-2.392 Y-21.604 E5.63274
G1 X-9.213 Y-7.994 E6.42814
G1 X-9.213 Y-8.695 E6.46478
G1 X-2.743 Y-21.604 E7.21919
G1 X-3.095 Y-21.604 E7.23755
G1 X-9.212 Y-9.400 E7.95078
G1 X-9.212 Y-10.101 E7.98741
G1 X-3.446 Y-21.604 E8.65968
G1 X-3.798 Y-21.604 E8.67804
G1 X-9.212 Y-10.802 E9.30935
G1 X-9.212 Y-11.503 E9.34597
G1 X-4.149 Y-21.604 E9.93631
G1 X-4.501 Y-21.604 E9.95467
G1 X-9.212 Y-12.204 E10.50405
G1 X-9.213 Y-12.905 E10.54067
G1 X-4.852 Y-21.604 E11.04908
G1 X-5.204 Y-21.604 E11.06745
G1 X-9.213 Y-13.606 E11.53490
G1 X-9.213 Y-14.306 E11.57152
G1 X-5.557 Y-21.601 E11.99779
G1 X-5.914 Y-21.589 E12.01648
G1 X-9.213 Y-15.007 E12.40109
G1 X-9.213 Y-15.709 E12.43772
G1 X-6.279 Y-21.562 E12.77979
G1 X-6.553 Y-21.718 F7800.000
G1 X-9.213 Y-16.410 E13.08996 F1800.000
G1 X-9.213 Y-17.111 E13.12661
G1 X-6.916 Y-21.695 E13.39449
G1 X-7.351 Y-21.528 E13.41885
G1 X-9.213 Y-17.813 E13.63597
G1 X-9.213 Y-18.514 E13.67262
G1 X-7.786 Y-21.361 E13.83897
G1 X-8.216 Y-21.204 E13.86288
G1 X-9.213 Y-19.216 E13.97910
G1 X-9.213 Y-19.917 E14.01574
G1 X-8.612 Y-21.115 E14.08576
G1 X-9.094 Y-20.855 E14.11438
G1 X-9.213 Y-20.618 E14.12821
G1 X-9.551 Y-20.950 F7800.000
G1 X-9.751 Y-20.950 E14.13869 F1800.000
G1 X-9.813 Y-21.058 E14.14519
G1 X-9.646 Y-21.130 F7800.000
G1 X-9.455 Y-21.511 E14.16747 F1800.000
G1 X-9.551 Y-21.321 F7800.000
G1 X-9.551 Y-20.950 E14.18683 F1800.000
G1 X-10.385 Y-20.561 F7800.000
G1 X-10.605 Y-20.120 E14.21259 F1800.000
G1 X-10.494 Y-20.158 F7800.000
G1 X-10.574 Y-20.297 E14.22099 F1800.000
G1 X-10.494 Y-20.158 F7800.000
G1 X-9.993 Y-20.158 E14.24715 F1800.000
G1 X-9.851 Y-19.911 E14.26205
G1 X-9.551 Y-19.911 E14.27772
G1 X-9.551 Y-19.150 E14.31747
G1 X-9.851 Y-19.150 E14.33314
G1 X-10.151 Y-18.631 E14.36449
G1 X-9.851 Y-18.111 E14.39583
G1 X-9.551 Y-18.111 E14.41151
G1 X-9.551 Y-17.350 E14.45125
G1 X-9.851 Y-17.350 E14.46693
G1 X-10.151 Y-16.831 E14.49827
G1 X-9.851 Y-16.311 E14.52962
G1 X-9.551 Y-16.311 E14.54529
G1 X-9.551 Y-16.060 E14.55840
G1 X-9.851 Y-16.060 E14.57407
G1 X-10.151 Y-15.541 E14.60542
G1 X-9.851 Y-15.021 E14.63677
G1 X-9.551 Y-15.021 E14.65245
G1 X-9.551 Y-14.260 E14.69219
G1 X-9.850 Y-14.260 E14.70786
G1 X-10.150 Y-13.741 E14.73921
G1 X-9.850 Y-13.221 E14.77055
G1 X-9.550 Y-13.221 E14.78623
G1 X-9.550 Y-12.460 E14.82598
G1 X-9.850 Y-12.460 E14.84165
G1 X-10.150 Y-11.941 E14.87299
G1 X-9.850 Y-11.421 E14.90434
G1 X-9.550 Y-11.421 E14.92002
G1 X-9.550 Y-10.660 E14.95977
G1 X-9.850 Y-10.660 E14.97543
G1 X-10.150 Y-10.141 E15.00678
G1 X-9.850 Y-9.621 E15.03813
G1 X-9.549 Y-9.621 E15.05381
G1 X-9.549 Y-9.205 E15.07553
G1 X-9.756 Y-8.967 E15.09199
G1 X-9.817 Y-9.073 E15.09834
G1 X-10.417 Y-9.073 E15.12969
G1 X-10.717 Y-8.553 E15.16103
G1 X-10.466 Y-8.118 E15.18725
G1 X-10.858 Y-7.584 E15.22190
G1 X-10.880 Y-7.622 E15.22420
G1 X-11.480 Y-7.622 E15.25555
G1 X-11.780 Y-7.102 E15.28690
G1 X-11.499 Y-6.615 E15.31629
G1 X-11.533 Y-6.563 F7800.000
G1 X-12.023 Y-6.563 E15.34189 F1800.000
G1 X-12.235 Y-6.196 E15.36403
G1 X-12.949 Y-6.409 E15.40296
G1 X-12.649 Y-6.410 E15.41863
G1 X-12.349 Y-6.930 E15.44998
G1 X-12.649 Y-7.449 E15.48133
G1 X-12.949 Y-7.449 E15.49700
G1 X-12.949 Y-8.210 E15.53674
G1 X-12.649 Y-8.210 E15.55242
G1 X-12.349 Y-8.730 E15.58377
G1 X-12.649 Y-9.249 E15.61512
G1 X-12.948 Y-9.249 E15.63078
G1 X-12.948 Y-10.010 E15.67053
G1 X-12.648 Y-10.010 E15.68622
G1 X-12.348 Y-10.530 E15.71756
G1 X-12.648 Y-11.049 E15.74891
G1 X-12.947 Y-11.049 E15.76457
G1 X-12.947 Y-11.810 E15.80431
G1 X-12.646 Y-11.810 E15.82000
G1 X-12.346 Y-12.330 E15.85135
G1 X-12.646 Y-12.849 E15.88270
G1 X-12.946 Y-12.849 E15.89835
G1 X-12.946 Y-13.610 E15.93810
G1 X-12.645 Y-13.610 E15.95379
G1 X-12.345 Y-14.130 E15.98514
G1 X-12.645 Y-14.649 E16.01649
G1 X-12.945 Y-14.649 E16.03214
G1 X-12.944 Y-15.410 E16.07189
G1 X-12.644 Y-15.410 E16.08758
G1 X-12.344 Y-15.930 E16.11893
G1 X-12.644 Y-16.449 E16.15027
G1 X-13.244 Y-16.449 E16.18162
G1 X-13.544 Y-15.930 E16.21297
G1 X-13.486 Y-15.830 E16.21900
G1 X-13.523 Y-15.793 E16.22172
G1 X-13.603 Y-15.932 E16.23012
G1 X-14.044 Y-15.932 E16.25314
G1 X-14.044 Y-16.340 F7800.000
G1 X-13.712 Y-16.340 E16.27045 F1800.000
G1 X-13.412 Y-16.859 E16.30180
G1 X-13.632 Y-17.240 E16.32474
G1 X-13.708 Y-17.039 F7800.000
G1 X-13.499 Y-17.455 E16.34904 F1800.000
G1 X-13.151 Y-17.575 F7800.000
G1 X-12.930 Y-18.016 E16.37481 F1800.000
