; generated by Slic3r 1.2.9 on 2022-12-20 at 16:25:42

; external perimeters extrusion width = 0.40mm
; perimeters extrusion width = 0.67mm
; infill extrusion width = 0.67mm
; solid infill extrusion width = 0.67mm
; top infill extrusion width = 0.67mm
; support material extrusion width = 0.40mm

M107
M190 S70 ; set bed temperature
M104 S210 ; set temperature
G28 ; home all axes
G1 Z5 F5000 ; lift nozzle

M109 S210 ; wait for temperature to be reached
G21 ; set units to millimeters
G90 ; use absolute coordinates
M82 ; use absolute distances for extrusion
G92 E0
G1 Z0.400 F7800.000
G1 E-2.00000 F2400.00000
G92 E0
G1 X23.464 Y0.000 F7800.000
G1 E2.00000 F2400.00000
G1 X23.453 Y7.234 E2.85913 F1800.000
G1 X23.408 Y7.946 E2.94389
G1 X23.329 Y8.655 E3.02857
G1 X23.216 Y9.360 E3.11344
G1 X23.068 Y10.063 E3.19876
G1 X22.885 Y10.764 E3.28478
G1 X22.665 Y11.464 E3.37190
G1 X22.407 Y12.161 E3.46017
G1 X22.110 Y12.850 E3.54928
G1 X21.746 Y13.584 E3.64664
G1 X18.813 Y19.191 E4.39813
G1 X17.611 Y20.827 E4.63920
G1 X13.971 Y24.467 E5.25060
G1 X13.453 Y24.934 E5.33339
G1 X11.607 Y26.431 E5.61563
G1 X8.752 Y27.789 E5.99119
G1 X5.969 Y28.370 E6.32877
G1 X4.609 Y28.512 E6.49124
G1 X-4.675 Y28.531 E7.59380
G1 X-5.880 Y28.424 E7.73753
G1 X-8.511 Y27.949 E8.05498
G1 X-11.552 Y26.553 E8.45248
G1 X-13.375 Y25.072 E8.73138
G1 X-14.143 Y24.383 E8.85386
G1 X-17.564 Y20.962 E9.42849
G1 X-18.776 Y19.307 E9.67208
G1 X-21.988 Y13.107 E10.50148
G1 X-22.299 Y12.423 E10.59064
G1 X-22.569 Y11.737 E10.67818
G1 X-22.804 Y11.039 E10.76571
G1 X-22.982 Y10.410 E10.84332
G1 X-23.216 Y9.360 E10.97104
G1 X-23.329 Y8.655 E11.05591
G1 X-23.408 Y7.946 E11.14059
G1 X-23.453 Y7.234 E11.22536
G1 X-23.464 Y6.686 E11.29040
G1 X-23.464 Y-8.686 E13.11613
G1 X-23.453 Y-9.235 E13.18130
G1 X-23.408 Y-9.949 E13.26622
G1 X-23.282 Y-10.977 E13.38927
G1 X-23.074 Y-12.038 E13.51766
G1 X-22.878 Y-12.790 E13.61003
G1 X-22.658 Y-13.485 E13.69660
G1 X-22.277 Y-14.473 E13.82228
G1 X-21.781 Y-15.516 E13.95947
G1 X-18.828 Y-21.174 E14.71746
G1 X-17.624 Y-22.815 E14.95922
G1 X-16.888 Y-23.550 E15.08275
G1 X-15.985 Y-24.382 E15.22852
G1 X-13.913 Y-26.173 E15.55388
G1 X-12.280 Y-27.213 E15.78382
G1 X-11.806 Y-27.426 E15.84548
G1 X-10.397 Y-27.880 E16.02133
G1 X-8.619 Y-28.243 E16.23678
G1 X-7.346 Y-28.379 E16.38892
G1 X-2.788 Y-28.426 E16.93024
G1 X7.184 Y-28.450 E18.11452
G1 X8.158 Y-28.381 E18.23057
G1 X10.119 Y-28.098 E18.46579 F1800.000
G1 X13.230 Y-26.793 E18.86647
G1 X13.809 Y-26.337 E18.95402
G1 X16.090 Y-24.368 E19.31190
G1 X16.949 Y-23.575 E19.45082
G1 X17.675 Y-22.849 E19.57270
G1 X18.910 Y-21.150 E19.82214
G1 X22.109 Y-14.851 E20.66117
G1 X22.405 Y-14.164 E20.75011
G1 X22.665 Y-13.463 E20.83888
G1 X22.891 Y-12.743 E20.92852
G1 X23.153 Y-11.682 E21.05828
G1 X23.282 Y-10.977 E21.14339
G1 X23.376 Y-10.271 E21.22799
G1 X23.453 Y-9.235 E21.35136
G1 X23.464 Y-0.060 E22.44102
G1 E20.44102 F2400.00000
G92 E0
G1 X-15.760 Y10.213 F7800.000
G1 E2.00000 F2400.00000
G1 X-15.877 Y9.664 E2.06668 F1800.000
G1 X-16.014 Y8.875 E2.16181
G1 X-16.102 Y8.154 E2.24814
G1 X-16.135 Y7.765 E2.29446
G1 X-16.176 Y6.678 E2.42362
G1 X-16.171 Y-9.047 E4.29120
G1 X-16.107 Y-10.099 E4.41635
G1 X-16.013 Y-10.881 E4.50999
G1 X-15.876 Y-11.667 E4.60467
G1 X-15.760 Y-12.213 E4.67100
G1 E2.67100 F2400.00000
G92 E0
G1 X-15.601 Y-12.724 F7800.000
G1 X-11.262 Y-10.474 F7800.000
G1 X1.789 Y-1.000 F7800.000
G1 X13.601 Y-12.813 F7800.000
G1 X15.601 Y-12.813 F7800.000
G1 X15.757 Y-12.191 F7800.000
G1 E2.00000 F2400.00000
G1 X15.881 Y-11.645 E2.06648 F1800.000
G1 X16.013 Y-10.882 E2.15844
G1 X16.107 Y-10.099 E2.25213
G1 X16.171 Y-9.047 E2.37728
G1 X16.176 Y6.678 E4.24485
G1 X16.135 Y7.765 E4.37402
G1 X16.102 Y8.154 E4.42034
G1 X16.014 Y8.875 E4.50667
G1 X15.877 Y9.664 E4.60180
G1 X15.760 Y10.213 E4.66847
G1 Z0.400 F7800.000
G1 E2.66847 F2400.00000
G92 E0
G1 X11.913 Y10.006 F7800.000
G1 E2.00000 F2400.00000
G1 X9.047 Y15.723 E2.33409 F1800.000
G1 X8.773 Y15.593 F7800.000
G1 X5.905 Y21.315 E2.66849 F1800.000
G1 X6.346 Y21.146 E2.69315
G1 X8.771 Y16.308 E2.97590
G1 X9.045 Y16.452 F7800.000
G1 X11.911 Y10.734 E3.31006 F1800.000
G1 X11.909 Y11.462 F7800.000
G1 X9.043 Y17.181 E3.64426 F1800.000
G1 X8.768 Y17.022 F7800.000
G1 X6.786 Y20.977 E3.87536 F1800.000
G1 X7.112 Y21.036 F7800.000
G1 X8.766 Y17.736 E4.06820 F1800.000
G1 X9.041 Y17.910 F7800.000
G1 X11.907 Y12.191 E4.40245 F1800.000
G1 X11.905 Y12.919 F7800.000
G1 X9.038 Y18.639 E4.73676 F1800.000
G1 X8.764 Y18.451 F7800.000
G1 X7.378 Y21.216 E4.89838 F1800.000
G1 X8.005 Y20.676 F7800.000
G1 X8.762 Y19.165 E4.98664 F1800.000
G1 X8.759 Y19.880 F7800.000
G1 X8.631 Y20.135 E5.00156 F1800.000
G1 X9.951 Y18.991 F7800.000
G1 X11.900 Y15.104 E5.22876 F1800.000
G1 X12.386 Y14.859 F7800.000
G1 X10.679 Y18.263 E5.42773 F1800.000
G1 X11.407 Y17.535 F7800.000
G1 X13.002 Y14.354 E5.61364 F1800.000
G1 X13.000 Y15.082 F7800.000
G1 X12.135 Y16.807 E5.71445 F1800.000
G1 X12.863 Y16.079 F7800.000
G1 X12.998 Y15.811 E5.73015 F1800.000
G1 X11.902 Y14.375 F7800.000
G1 X9.223 Y19.719 E6.04246 F1800.000
G1 X9.036 Y19.369 E6.06323
G1 X11.904 Y13.647 E6.39759
G1 E4.39759 F2400.00000
G92 E0
G1 X9.053 Y13.538 F7800.000
G1 E2.00000 F2400.00000
G1 X13.021 Y5.621 E2.46265 F1800.000
G1 X13.022 Y4.894 F7800.000
G1 X9.054 Y12.812 E2.92540 F1800.000
G1 X8.779 Y12.741 F7800.000
G1 X4.574 Y21.131 E3.41570 F1800.000
G1 X4.595 Y21.798 E3.45059
G1 X8.779 Y13.452 E3.93834
G1 X8.777 Y14.164 F7800.000
G1 X5.023 Y21.654 E4.37603 F1800.000
G1 X5.464 Y21.485 E4.40070
G1 X8.775 Y14.879 E4.78674
G1 X9.050 Y14.994 F7800.000
G1 X11.914 Y9.279 E5.12073 F1800.000
G1 X11.915 Y8.552 F7800.000
G1 X9.052 Y14.265 E5.45460 F1800.000
G1 E3.45460 F2400.00000
G92 E0
G1 X9.054 Y12.087 F7800.000
G1 E2.00000 F2400.00000
G1 X13.310 Y3.596 E2.49618 F1800.000
G1 X13.605 Y2.282 F7800.000
G1 X11.748 Y5.987 E2.71271 F1800.000
G1 X11.240 Y6.277 E2.74330
G1 X13.743 Y1.283 E3.03513
G1 X13.803 Y0.439 F7800.000
G1 X10.765 Y6.500 E3.38934 F1800.000
G1 X10.290 Y6.723 E3.41675
G1 X13.810 Y-0.299 E3.82713
G1 X13.783 Y-0.971 E3.86223
G1 X9.815 Y6.946 E4.32487
G1 X9.340 Y7.169 E4.35228
G1 X13.730 Y-1.589 E4.86410
G1 X13.654 Y-2.162 E4.89430
G1 X9.056 Y7.012 E5.43045
G1 X8.781 Y7.057 F7800.000
G1 X4.571 Y15.456 E5.92130 F1800.000
G1 X4.571 Y14.747 F7800.000
G1 X8.781 Y6.347 E6.41221 F1800.000
G1 X9.056 Y6.288 F7800.000
G1 X13.561 Y-2.700 E6.93747 F1800.000
G1 X13.452 Y-3.209 E6.96465
G1 X9.056 Y5.563 E7.47731
G1 X8.781 Y5.637 F7800.000
G1 X4.571 Y14.038 E7.96826 F1800.000
G1 X4.570 Y13.329 F7800.000
G1 X8.781 Y4.927 E8.45927 F1800.000
G1 X9.056 Y4.839 F7800.000
G1 X13.331 Y-3.692 E8.95781 F1800.000
G1 X13.199 Y-4.152 E8.98283
G1 X9.056 Y4.114 E9.46591
G1 X8.781 Y4.217 F7800.000
G1 X4.570 Y12.620 E9.95697 F1800.000
G1 X4.578 Y11.893 F7800.000
G1 X8.781 Y3.507 E10.44702 F1800.000
G1 X9.056 Y3.390 F7800.000
G1 X13.040 Y-4.559 E10.91154 F1800.000
G1 X13.022 Y-5.248 E10.94753
G1 X9.056 Y2.665 E11.40996
G1 X8.781 Y2.797 F7800.000
G1 X4.576 Y11.188 E11.90032 F1800.000
G1 E9.90032 F2400.00000
G92 E0
G1 X8.780 Y11.319 F7800.000
G1 E2.00000 F2400.00000
G1 X4.574 Y19.711 E2.49044 F1800.000
G1 X4.574 Y19.002 F7800.000
G1 X8.781 Y10.608 E2.98097 F1800.000
G1 X9.055 Y10.636 F7800.000
G1 X10.155 Y8.442 E3.10916 F1800.000
G1 X10.063 Y8.049 F7800.000
G1 X10.687 Y6.804 E3.18193 F1800.000
G1 X10.993 Y6.903 E3.19875
G1 X11.153 Y6.585 E3.21730
G1 X11.104 Y7.272 F7800.000
G1 X9.055 Y11.361 E3.45626 F1800.000
G1 X8.780 Y12.030 F7800.000
G1 X4.574 Y20.421 E3.94663 F1800.000
G1 E1.94663 F2400.00000
G92 E0
G1 X4.573 Y18.293 F7800.000
G1 E2.00000 F2400.00000
G1 X8.781 Y9.897 E2.49064 F1800.000
G1 X9.056 Y9.910 F7800.000
G1 X9.344 Y9.334 E2.52431 F1800.000
G1 X9.223 Y9.016 F7800.000
G1 X10.222 Y7.022 E2.64083 F1800.000
G1 X9.757 Y7.241 E2.66768
G1 X4.573 Y17.584 E3.27212
G1 X4.572 Y16.874 F7800.000
G1 X9.291 Y7.459 E3.82235 F1800.000
G1 X8.826 Y7.678 E3.84920
G1 X4.572 Y16.165 E4.34523
G1 E2.34523 F2400.00000
G92 E0
G1 X-4.571 Y15.860 F7800.000
G1 E2.00000 F2400.00000
G1 X-7.319 Y21.342 E2.32033 F1800.000
G1 X-7.569 Y21.126 E2.33760
G1 X-4.571 Y15.144 E2.68718
G1 X-4.570 Y14.428 F7800.000
G1 X-7.819 Y20.910 E3.06599 F1800.000
G1 X-8.070 Y20.694 E3.08326
G1 X-4.570 Y13.712 E3.49131
G1 X-4.569 Y12.995 F7800.000
G1 X-8.320 Y20.478 E3.92860 F1800.000
G1 X-8.570 Y20.262 E3.94587
G1 X-4.580 Y12.301 E4.41111
G1 X-4.577 Y11.580 F7800.000
G1 X-8.760 Y19.926 E4.89884 F1800.000
G1 X-8.762 Y19.215 E4.93598
G1 X-4.575 Y10.859 E5.42428
G1 X-4.572 Y10.138 F7800.000
G1 X-8.765 Y18.504 E5.91317 F1800.000
G1 X-8.767 Y17.793 E5.95032
G1 X-4.568 Y9.416 E6.43991
G1 X-4.563 Y8.690 F7800.000
G1 X-8.769 Y17.082 E6.93034 F1800.000
G1 X-8.771 Y16.371 E6.96748
G1 X-4.558 Y7.965 E7.45876
G1 X-4.553 Y7.240 F7800.000
G1 X-8.774 Y15.661 E7.95087 F1800.000
G1 X-8.776 Y14.950 E7.98801
G1 X-4.548 Y6.514 E8.48097
G1 X-4.539 Y5.782 F7800.000
G1 X-8.778 Y14.239 E8.97519 F1800.000
G1 X-9.050 Y14.556 F7800.000
G1 X-10.861 Y18.169 E9.18637 F1800.000
G1 X-10.617 Y18.414 E9.20443
G1 X-9.048 Y15.283 E9.38738
G1 X-9.045 Y16.010 E9.42538
G1 X-10.372 Y18.658 E9.58011
G1 X-10.128 Y18.902 E9.59817
G1 X-9.043 Y16.738 E9.72467
G1 X-9.041 Y17.465 E9.76267
G1 X-9.884 Y19.147 E9.86094
G1 X-9.639 Y19.391 E9.87900
G1 X-9.039 Y18.193 E9.94905
G1 X-9.036 Y18.920 E9.98705
G1 X-9.395 Y19.636 E10.02887
G1 X-9.034 Y19.647 E10.04774
G1 X-9.141 Y19.861 E10.06023
G1 E8.06023 F2400.00000
G92 E0
G1 X-4.573 Y20.157 F7800.000
G1 E2.00000 F2400.00000
G1 X-5.289 Y21.585 E2.08348 F1800.000
G1 X-5.590 Y21.470 E2.10030
G1 X-4.573 Y19.442 E2.21884
G1 X-4.573 Y18.725 F7800.000
G1 X-5.891 Y21.354 E2.37248 F1800.000
G1 X-6.191 Y21.239 E2.38931
G1 X-4.573 Y18.009 E2.57805
G1 X-4.572 Y17.293 F7800.000
G1 X-6.492 Y21.123 E2.80190 F1800.000
G1 X-6.793 Y21.008 E2.81873
G1 X-4.572 Y16.577 E3.07769
G1 E1.07769 F2400.00000
G92 E0
G1 X-4.574 Y20.872 F7800.000
G1 E2.00000 F2400.00000
G1 X-4.989 Y21.701 E2.04842 F1800.000
G1 X-4.574 Y21.588 E2.07090
G1 X-4.688 Y21.816 E2.08425
G1 E0.08425 F2400.00000
G92 E0
G1 X-9.052 Y13.828 F7800.000
G1 E2.00000 F2400.00000
G1 X-11.106 Y17.925 E2.23941 F1800.000
G1 X-11.350 Y17.681 E2.25747
G1 X-9.053 Y13.097 E2.52531
G1 X-8.780 Y12.811 F7800.000
G1 X-4.539 Y4.351 E3.01972 F1800.000
G1 X-4.538 Y5.064 F7800.000
G1 X-8.779 Y13.526 E3.51422 F1800.000
G1 X-9.053 Y12.366 F7800.000
G1 X-11.594 Y17.436 E3.81049 F1800.000
G1 X-11.839 Y17.192 E3.82854
G1 X-9.054 Y11.636 E4.15325
G1 X-8.781 Y11.383 F7800.000
G1 X-4.539 Y2.920 E4.64778 F1800.000
G1 X-4.539 Y2.205 F7800.000
G1 X-8.781 Y10.668 E5.14237 F1800.000
G1 X-9.054 Y10.905 F7800.000
G1 X-12.083 Y16.947 E5.49550 F1800.000
G1 X-12.327 Y16.703 E5.51356
G1 X-9.055 Y10.174 E5.89513
G1 X-9.090 Y9.512 E5.92973
G1 X-12.572 Y16.459 E6.33567
G1 X-12.816 Y16.214 E6.35372
G1 X-12.190 Y14.966 E6.42667
G1 X-12.435 Y14.722 E6.44473
G1 X-12.999 Y15.847 E6.51050
G1 X-13.001 Y15.119 F7800.000
G1 X-12.679 Y14.477 E6.54800 F1800.000
G1 X-11.903 Y14.392 F7800.000
G1 X-9.329 Y9.257 E6.84809 F1800.000
G1 X-9.568 Y9.001 E6.86637
G1 X-11.904 Y13.664 E7.13885
G1 X-11.906 Y12.935 F7800.000
G1 X-9.805 Y8.743 E7.38383 F1800.000
G1 X-10.038 Y8.476 E7.40236
G1 X-11.908 Y12.207 E7.62041
G1 X-11.910 Y11.479 F7800.000
G1 X-10.265 Y8.198 E7.81216 F1800.000
G1 X-10.492 Y7.918 E7.83096
G1 X-11.912 Y10.751 E7.99648
G1 X-11.914 Y10.022 F7800.000
G1 X-10.719 Y7.639 E8.13576 F1800.000
G1 X-10.946 Y7.359 E8.15456
G1 X-11.915 Y9.293 E8.26755
G1 X-11.916 Y8.564 F7800.000
G1 X-11.173 Y7.080 E8.35426 F1800.000
G1 X-11.399 Y6.800 E8.37306
G1 X-12.014 Y8.027 E8.44473
G1 X-12.221 Y7.708 E8.46458
G1 X-11.626 Y6.521 E8.53397
G1 X-11.470 Y6.210 F7800.000
G1 X-9.055 Y1.391 E8.81559 F1800.000
G1 X-8.782 Y1.369 F7800.000
G1 X-4.554 Y-7.066 E9.30855 F1800.000
G1 X-4.539 Y-6.380 E9.34442
G1 X-8.782 Y2.085 E9.83906
G1 X-9.055 Y2.123 F7800.000
G1 X-11.174 Y6.350 E10.08608 F1800.000
G1 X-10.877 Y6.489 E10.10322
G1 X-9.055 Y2.855 E10.31562
G1 X-8.782 Y2.800 F7800.000
G1 X-4.535 Y-5.674 E10.81081 F1800.000
G1 X-4.539 Y-4.949 F7800.000
G1 X-8.782 Y3.515 E11.30546 F1800.000
G1 X-9.055 Y3.587 F7800.000
G1 X-10.580 Y6.629 E11.48322 F1800.000
G1 X-10.283 Y6.768 E11.50036
G1 X-9.055 Y4.319 E11.64350
G1 X-8.782 Y4.231 F7800.000
G1 X-4.539 Y-4.233 E12.13815 F1800.000
G1 X-4.539 Y-3.518 F7800.000
G1 X-8.782 Y4.946 E12.63279 F1800.000
G1 X-9.055 Y5.051 F7800.000
G1 X-9.986 Y6.908 E12.74130 F1800.000
G1 X-9.689 Y7.047 E12.75844
G1 X-9.055 Y5.783 E12.83233
G1 X-8.782 Y5.662 F7800.000
G1 X-4.539 Y-2.803 E13.32697 F1800.000
G1 X-4.539 Y-2.087 F7800.000
G1 X-8.782 Y6.377 E13.82162 F1800.000
G1 X-9.055 Y6.515 F7800.000
G1 X-9.392 Y7.186 E13.86088 F1800.000
G1 X-9.011 Y7.550 F7800.000
G1 X-9.593 Y8.711 E13.92873 F1800.000
G1 X-9.820 Y8.449 E13.94684
G1 X-9.301 Y7.413 E14.00738
G1 X-9.591 Y7.277 E14.02413
G1 X-10.044 Y8.179 E14.07683
G1 X-10.265 Y7.906 E14.09521
G1 X-9.882 Y7.141 E14.13992
G1 X-10.172 Y7.005 E14.15667
G1 X-10.487 Y7.633 E14.19338
G1 X-10.708 Y7.360 E14.21175
G1 X-10.462 Y6.868 E14.24047
G1 X-10.753 Y6.732 E14.25722
G1 X-10.930 Y7.087 E14.27793
G1 X-11.152 Y6.814 E14.29631
G1 X-11.043 Y6.596 E14.30902
G1 X-11.853 Y6.242 F7800.000
G1 X-12.422 Y7.377 E14.37537 F1800.000
G1 X-12.617 Y7.035 E14.39596
G1 X-9.055 Y-0.073 E14.81131
G1 X-8.782 Y-0.061 F7800.000
G1 X-4.570 Y-8.465 E15.30244 F1800.000
G1 X-4.564 Y-7.762 E15.33919
G1 X-8.782 Y0.654 E15.83102
G1 X-9.055 Y0.659 F7800.000
G1 X-11.754 Y6.043 E16.14568 F1800.000
G1 X-12.807 Y6.681 F7800.000
G1 X-9.055 Y-0.805 E16.58316 F1800.000
G1 X-8.782 Y-0.777 F7800.000
G1 X-4.571 Y-9.177 E17.07408 F1800.000
G1 X-4.573 Y-9.890 F7800.000
G1 X-8.782 Y-1.492 E17.56483 F1800.000
G1 X-9.055 Y-1.537 F7800.000
G1 X-12.991 Y6.316 E18.02375 F1800.000
G1 X-13.022 Y5.646 E18.05881
G1 X-9.055 Y-2.269 E18.52133
G1 X-8.782 Y-2.208 F7800.000
G1 X-4.573 Y-10.604 E19.01204 F1800.000
G1 X-4.574 Y-11.319 F7800.000
G1 X-8.782 Y-2.923 E19.50270 F1800.000
G1 X-9.055 Y-3.001 F7800.000
G1 X-13.023 Y4.917 E19.96538 F1800.000
G1 X-13.120 Y4.378 E19.99397
G1 X-9.055 Y-3.732 E20.46795
G1 X-8.782 Y-3.638 F7800.000
G1 X-4.574 Y-12.034 E20.95857 F1800.000
G1 X-4.569 Y-12.758 F7800.000
G1 X-8.782 Y-4.354 E21.44973 F1800.000
G1 X-9.055 Y-4.464 F7800.000
G1 X-13.264 Y3.933 E21.94045 F1800.000
G1 X-13.393 Y3.458 E21.96615
G1 X-9.055 Y-5.196 E22.47189
G1 X-8.782 Y-5.069 F7800.000
G1 X-4.570 Y-13.473 E22.96301 F1800.000
G1 X-4.570 Y-14.188 F7800.000
G1 X-8.782 Y-5.784 E23.45410 F1800.000
G1 X-9.055 Y-5.928 F7800.000
G1 X-13.509 Y2.958 E23.97338 F1800.000
G1 X-13.610 Y2.428 E24.00153
G1 X-9.055 Y-6.660 E24.53267
G1 X-9.113 Y-7.276 E24.56500
G1 X-13.695 Y1.866 E25.09927
G1 X-13.761 Y1.265 E25.13087
G1 X-9.593 Y-7.051 E25.61684
G1 X-10.073 Y-6.826 E25.64452
G1 X-13.803 Y0.617 E26.07949
G1 X-13.811 Y-0.100 E26.11693
G1 X-10.552 Y-6.601 E26.49685
G1 X-11.032 Y-6.375 E26.52454
G1 X-13.778 Y-0.897 E26.84470
G1 X-13.678 Y-1.829 F7800.000
G1 X-11.521 Y-6.131 E27.09612 F1800.000
G1 X-11.957 Y-5.993 F7800.000
G1 X-13.466 Y-2.983 E27.27202 F1800.000
G1 X-13.019 Y-4.607 F7800.000
G1 X-9.055 Y-12.516 E27.73422 F1800.000
G1 X-8.781 Y-12.223 F7800.000
G1 X-4.570 Y-20.626 E28.22526 F1800.000
G1 X-4.571 Y-19.909 F7800.000
G1 X-8.782 Y-11.508 E28.71625 F1800.000
G1 X-9.055 Y-11.784 F7800.000
G1 X-11.659 Y-6.588 E29.01991 F1800.000
G1 X-12.587 Y-6.933 F7800.000
G1 X-13.018 Y-6.073 E29.07015 F1800.000
G1 X-13.018 Y-5.340 F7800.000
G1 X-9.055 Y-13.248 E29.53231 F1800.000
G1 X-8.781 Y-12.939 F7800.000
G1 X-4.570 Y-21.342 E30.02340 F1800.000
G1 E28.02340 F2400.00000
G92 E0
G1 X-4.571 Y-19.193 F7800.000
G1 E2.00000 F2400.00000
G1 X-8.782 Y-10.792 E2.49095 F1800.000
G1 X-9.055 Y-11.052 F7800.000
G1 X-10.700 Y-7.770 E2.68277 F1800.000
G1 X-10.307 Y-7.750 F7800.000
G1 X-10.810 Y-6.745 E2.74145 F1800.000
G1 X-10.341 Y-6.966 E2.76850
G1 X-9.418 Y-8.808 E2.87615
G1 X-9.787 Y-8.859 F7800.000
G1 X-9.055 Y-10.320 E2.96153 F1800.000
G1 X-8.781 Y-10.077 F7800.000
G1 X-4.572 Y-18.477 E3.45241 F1800.000
G1 X-4.572 Y-17.761 F7800.000
G1 X-9.872 Y-7.186 E4.07045 F1800.000
G1 X-9.403 Y-7.406 E4.09751
G1 X-4.571 Y-17.047 E4.66092
G1 X-4.571 Y-16.332 F7800.000
