; generated by Slic3r 1.2.9 on 2022-12-21 at 14:07:39

; external perimeters extrusion width = 0.40mm
; perimeters extrusion width = 0.67mm
; infill extrusion width = 0.67mm
; solid infill extrusion width = 0.67mm
; top infill extrusion width = 0.67mm
; support material extrusion width = 0.40mm

M107
M190 S60 ; set bed temperature
M104 S210 ; set temperature
G28 ; home all axes
G1 Z5 F5000 ; lift nozzle

M109 S210 ; wait for temperature to be reached
G21 ; set units to millimeters
G90 ; use absolute coordinates
M82 ; use absolute distances for extrusion
G92 E0
G1 Z0.400 F7800.000
G1 E-2.00000 F2400.00000
G92 E0
G1 X23.464 Y0.000 F7800.000
G1 E2.00000 F2400.00000
G1 X23.462 Y6.845 E2.89429 F1800.000
G1 X23.410 Y7.939 E3.03737
G1 X23.291 Y8.931 E3.16782
G1 X23.168 Y9.619 E3.25912
G1 X23.012 Y10.301 E3.35049
G1 X22.822 Y10.983 E3.44303
G1 X22.589 Y11.682 E3.53933
G1 X22.321 Y12.369 E3.63562
G1 X22.020 Y13.042 E3.73192
G1 X21.685 Y13.698 E3.82821
G1 X21.317 Y14.337 E3.92447
G1 X20.919 Y14.956 E4.02070
G1 X20.490 Y15.555 E4.11689
G1 X20.032 Y16.130 E4.21299
G1 X19.546 Y16.682 E4.30902
G1 X13.841 Y22.405 E5.36469
G1 X13.197 Y23.009 E5.48013
G1 X12.651 Y23.470 E5.57337
G1 X11.990 Y23.970 E5.68171
G1 X11.145 Y24.531 E5.81415
G1 X10.520 Y24.895 E5.90864
G1 X9.878 Y25.228 E6.00319
G1 X9.219 Y25.529 E6.09782
G1 X8.538 Y25.800 E6.19363
G1 X7.840 Y26.038 E6.28995
G1 X7.140 Y26.239 E6.38503
G1 X6.137 Y26.462 E6.51925
G1 X5.353 Y26.586 E6.62302
G1 X4.531 Y26.637 E6.73062
G1 X-4.531 Y26.637 E7.91443
G1 X-5.425 Y26.577 E8.03148
G1 X-6.588 Y26.370 E8.18588
G1 X-7.140 Y26.239 E8.25999
G1 X-7.833 Y26.041 E8.35407
G1 X-8.915 Y25.655 E8.50414
G1 X-9.589 Y25.365 E8.60010
G1 X-10.250 Y25.040 E8.69622
G1 X-10.885 Y24.688 E8.79114
G1 X-11.388 Y24.377 E8.86842
G1 X-12.337 Y23.715 E9.01959
G1 X-12.901 Y23.265 E9.11381
G1 X-13.440 Y22.788 E9.20785
G1 X-19.546 Y16.682 E10.33597
G1 X-20.228 Y15.892 E10.47231
G1 X-20.663 Y15.321 E10.56615
G1 X-21.071 Y14.729 E10.65996
G1 X-21.455 Y14.106 E10.75559
G1 X-21.808 Y13.467 E10.85101
G1 X-22.180 Y12.695 E10.96297
G1 X-22.589 Y11.682 E11.10564
G1 X-22.822 Y10.983 E11.20193
G1 X-23.080 Y10.023 E11.33183
G1 X-23.223 Y9.333 E11.42385
G1 X-23.333 Y8.639 E11.51560
G1 X-23.409 Y7.952 E11.60594
G1 X-23.453 Y7.236 E11.69962
G1 X-23.464 Y6.686 E11.77149
G1 X-23.453 Y-9.243 E13.85247
G1 X-23.377 Y-10.278 E13.98812
G1 X-23.212 Y-11.393 E14.13531
G1 X-22.988 Y-12.395 E14.26942
G1 X-22.658 Y-13.487 E14.41855
G1 X-22.279 Y-14.469 E14.55603
G1 X-21.789 Y-15.502 E14.70535
G1 X-21.283 Y-16.393 E14.83930
G1 X-20.652 Y-17.336 E14.98747
G1 X-20.016 Y-18.149 E15.12233
G1 X-19.539 Y-18.690 E15.21652
G1 X-19.154 Y-19.091 E15.28912
G1 X-15.723 Y-22.520 E15.92290
G1 X-15.196 Y-23.010 E16.01688
G1 X-14.650 Y-23.470 E16.11018
G1 X-14.083 Y-23.903 E16.20336
G1 X-13.495 Y-24.310 E16.29680
G1 X-12.884 Y-24.689 E16.39076
G1 X-12.249 Y-25.041 E16.48561
G1 X-11.589 Y-25.365 E16.58165
G1 X-10.914 Y-25.655 E16.67757
G1 X-9.838 Y-26.039 E16.82681
G1 X-9.140 Y-26.239 E16.92168
G1 X-8.139 Y-26.462 E17.05576
G1 X-6.906 Y-26.576 E17.21749
G1 X6.906 Y-26.576 E19.02188
G1 X8.054 Y-26.477 E19.17238
G1 X8.846 Y-26.312 E19.27816 F1800.000
G1 X9.546 Y-26.127 E19.37271
G1 X10.538 Y-25.800 E19.50911
G1 X11.219 Y-25.529 E19.60491
G1 X12.146 Y-25.093 E19.73870
G1 X12.887 Y-24.687 E19.84914
G1 X13.496 Y-24.309 E19.94276
G1 X14.336 Y-23.716 E20.07717
G1 X15.196 Y-23.010 E20.22247
G1 X15.723 Y-22.519 E20.31653
G1 X19.539 Y-18.690 E21.02283
G1 X20.016 Y-18.149 E21.11701
G1 X20.652 Y-17.336 E21.25188
G1 X21.058 Y-16.748 E21.34521
G1 X21.437 Y-16.137 E21.43911
G1 X21.789 Y-15.502 E21.53401
G1 X22.114 Y-14.842 E21.63011
G1 X22.405 Y-14.164 E21.72650
G1 X22.658 Y-13.487 E21.82087
G1 X22.877 Y-12.798 E21.91531
G1 X23.061 Y-12.100 E22.00974
G1 X23.212 Y-11.393 E22.10413
G1 X23.327 Y-10.680 E22.19850
G1 X23.407 Y-9.962 E22.29279
G1 X23.462 Y-8.851 E22.43812
G1 X23.464 Y-0.060 E23.58664
G1 E21.58664 F2400.00000
G92 E0
G1 X-4.600 Y-14.457 F7800.000
G1 E2.00000 F2400.00000
G1 X-4.600 Y-12.400 E2.26885 F1800.000
G1 X-4.618 Y-12.110 E2.30677
G1 X-4.736 Y-11.615 E2.37321
G1 X-4.858 Y-11.328 E2.41395
G1 X-5.012 Y-11.067 E2.45349
G1 X-5.228 Y-10.792 E2.49923
G1 X-5.528 Y-10.515 E2.55260
G1 X-6.557 Y-9.870 E2.71123
G1 X-6.989 Y-9.568 E2.78011
G1 X-7.660 Y-9.040 E2.89168
G1 X-8.284 Y-8.473 E3.00178
G1 X-8.864 Y-7.864 E3.11162
G1 X-9.224 Y-7.425 E3.18582
G1 X-9.265 Y-7.325 E3.19998
G1 X-9.276 Y-7.226 E3.21303
G1 X-9.238 Y-7.100 E3.23013
G1 X-9.166 Y-6.994 E3.24692
G1 X-9.080 Y-6.940 E3.26023
G1 X-8.976 Y-6.908 E3.27447
G1 X-4.219 Y-6.900 E3.89584
G1 X-3.919 Y-6.854 E3.93552
G1 X-3.697 Y-6.761 E3.96696
G1 X-3.460 Y-6.588 E4.00537
G1 X-3.295 Y-6.394 E4.03867
G1 X-3.188 Y-6.195 E4.06815
G1 X-3.122 Y-5.980 E4.09748
G1 X-3.098 Y-5.727 E4.13080
G1 X-3.142 Y-5.434 E4.16943
G1 X-3.228 Y-5.218 E4.19980
G1 X-3.372 Y-5.004 E4.23353
G1 X-3.590 Y-4.805 E4.27215
G1 X-3.827 Y-4.678 E4.30719
G1 X-4.118 Y-4.605 E4.34645
G1 X-9.877 Y-4.596 E5.09885
G1 X-10.072 Y-4.575 E5.12442
G1 X-10.285 Y-4.524 E5.15299
G1 X-10.660 Y-4.348 E5.20716
G1 X-10.882 Y-4.176 E5.24378
G1 X-11.075 Y-3.964 E5.28126
G1 X-11.224 Y-3.728 E5.31776
G1 X-11.333 Y-3.458 E5.35574
G1 X-11.564 Y-2.585 E5.47379
G1 X-11.728 Y-1.690 E5.59267
G1 X-11.823 Y-0.791 E5.71068
G1 X-11.849 Y0.103 E5.82763
G1 X-11.823 Y0.790 E5.91734
G1 X-11.728 Y1.690 E6.03557
G1 X-11.564 Y2.585 E6.15445
G1 X-11.333 Y3.458 E6.27250
G1 X-11.224 Y3.728 E6.31048
G1 X-11.075 Y3.964 E6.34698
G1 X-10.882 Y4.176 E6.38447
G1 X-10.660 Y4.348 E6.42108
G1 X-10.285 Y4.524 E6.47525
G1 X-10.072 Y4.575 E6.50382
G1 X-9.877 Y4.596 E6.52939
G1 X-4.118 Y4.605 E7.28180
G1 X-3.827 Y4.678 E7.32105
G1 X-3.590 Y4.805 E7.35609
G1 X-3.372 Y5.004 E7.39471
G1 X-3.228 Y5.218 E7.42844
G1 X-3.142 Y5.434 E7.45882
G1 X-3.098 Y5.727 E7.49744
G1 X-3.122 Y5.980 E7.53076
G1 X-3.188 Y6.195 E7.56010
G1 X-3.295 Y6.394 E7.58957
G1 X-3.460 Y6.588 E7.62288
G1 X-3.697 Y6.761 E7.66129
G1 X-3.919 Y6.854 E7.69272
G1 X-4.219 Y6.900 E7.73240
G1 X-8.976 Y6.908 E8.35377
G1 X-9.080 Y6.940 E8.36801
G1 X-9.166 Y6.994 E8.38132
G1 X-9.238 Y7.100 E8.39812
G1 X-9.276 Y7.226 E8.41521
G1 X-9.265 Y7.325 E8.42826
G1 X-9.224 Y7.425 E8.44243
G1 X-8.864 Y7.864 E8.51663
G1 X-8.284 Y8.473 E8.62647
G1 X-7.660 Y9.040 E8.73656
G1 X-6.989 Y9.568 E8.84814
G1 X-6.557 Y9.870 E8.91702
G1 X-5.528 Y10.515 E9.07564
G1 X-5.228 Y10.792 E9.12902
G1 X-5.012 Y11.067 E9.17475
G1 X-4.858 Y11.328 E9.21429
G1 X-4.736 Y11.615 E9.25504
G1 X-4.618 Y12.110 E9.32147
G1 X-4.600 Y12.400 E9.35940
G1 X-4.600 Y14.469 E9.62971
G1 X-6.115 Y13.861 E9.84298
G1 X-7.088 Y13.388 E9.98436
G1 X-8.023 Y12.848 E10.12532
G1 X-8.912 Y12.248 E10.26547
G1 X-9.751 Y11.593 E10.40446
G1 X-10.533 Y10.889 E10.54196
G1 X-11.260 Y10.135 E10.67885
G1 X-11.942 Y9.318 E10.81787
G1 X-12.573 Y8.446 E10.95845
G1 X-13.069 Y7.659 E11.08006
G1 X-13.585 Y6.704 E11.22179
G1 X-14.032 Y5.711 E11.36412
G1 X-14.407 Y4.687 E11.50656
G1 X-14.706 Y3.640 E11.64875
G1 X-14.928 Y2.583 E11.78989
G1 X-15.012 Y2.044 E11.86112
G1 X-15.083 Y1.380 E11.94846
G1 X-15.064 Y1.142 E11.97960
G1 X-14.966 Y0.811 E12.02473
G1 X-14.661 Y0.301 E12.10234
G1 X-14.608 Y0.098 E12.12978
G1 X-14.608 Y-0.094 E12.15484
G1 X-14.634 Y-0.223 E12.17199
G1 X-14.712 Y-0.406 E12.19806
G1 X-14.961 Y-0.797 E12.25855
G1 X-15.065 Y-1.150 E12.30670
G1 X-15.083 Y-1.379 E12.33668
G1 X-15.012 Y-2.044 E12.42410
G1 X-14.928 Y-2.583 E12.49533
G1 X-14.706 Y-3.640 E12.63647
G1 X-14.408 Y-4.683 E12.77819
G1 X-14.228 Y-5.205 E12.85023
G1 X-13.885 Y-6.057 E12.97025
G1 X-13.585 Y-6.703 E13.06329
G1 X-13.333 Y-7.190 E13.13495
G1 X-12.787 Y-8.119 E13.27572
G1 X-12.318 Y-8.816 E13.38553
G1 X-11.940 Y-9.321 E13.46782
G1 X-11.259 Y-10.136 E13.60656
G1 X-10.443 Y-10.974 E13.75940
G1 X-9.753 Y-11.591 E13.88041
G1 X-9.335 Y-11.929 E13.95059
G1 X-8.473 Y-12.555 E14.08975
G1 X-7.561 Y-13.126 E14.23034
G1 X-6.609 Y-13.631 E14.37112
G1 X-6.092 Y-13.871 E14.44552
G1 X-4.656 Y-14.436 E14.64719
G1 X-4.203 Y-14.507 F7800.000
G1 X4.600 Y-14.468 F7800.000
G1 X6.093 Y-13.871 E14.85725 F1800.000
G1 X6.682 Y-13.595 E14.94223
G1 X7.561 Y-13.125 E15.07246
G1 X8.473 Y-12.555 E15.21299
G1 X9.338 Y-11.928 E15.35254
G1 X10.057 Y-11.328 E15.47489
G1 X10.535 Y-10.888 E15.55974
G1 X11.260 Y-10.135 E15.69633
G1 X11.940 Y-9.321 E15.83488
G1 X12.266 Y-8.887 E15.90585
G1 X12.787 Y-8.120 E16.02692
G1 X13.335 Y-7.187 E16.16826
G1 X13.816 Y-6.215 E16.30993
G1 X14.033 Y-5.710 E16.38181
G1 X14.287 Y-5.038 E16.47560
G1 X14.565 Y-4.169 E16.59486
G1 X14.707 Y-3.637 E16.66674
G1 X14.928 Y-2.583 E16.80741
G1 X15.012 Y-2.044 E16.87864
G1 X15.083 Y-1.379 E16.96605
G1 X15.065 Y-1.150 E16.99604
G1 X14.963 Y-0.802 E17.04351
G1 X14.661 Y-0.301 E17.11991
G1 X14.628 Y-0.204 E17.13334
G1 X14.608 Y-0.098 E17.14737
G1 X14.608 Y0.094 E17.17243
G1 X14.634 Y0.223 E17.18958
G1 X14.712 Y0.407 E17.21573
G1 X14.965 Y0.806 E17.27743
G1 X15.064 Y1.142 E17.32320
G1 X15.083 Y1.380 E17.35434
G1 X15.012 Y2.044 E17.44169
G1 X14.928 Y2.583 E17.51291
G1 X14.706 Y3.640 E17.65405
G1 X14.408 Y4.683 E17.79578
G1 X14.228 Y5.205 E17.86781
G1 X13.885 Y6.057 E17.98783
G1 X13.585 Y6.703 E18.08087
G1 X13.333 Y7.190 E18.15254
G1 X12.787 Y8.120 E18.29340
G1 X12.266 Y8.887 E18.41447
G1 X11.940 Y9.321 E18.48544
G1 X11.259 Y10.136 E18.62414
G1 X10.443 Y10.974 E18.77698
G1 X9.753 Y11.591 E18.89799
G1 X9.335 Y11.929 E18.96817
G1 X8.476 Y12.553 E19.10687
G1 X8.020 Y12.849 E19.17792
G1 X7.164 Y13.347 E19.30728
G1 X6.116 Y13.861 E19.45978
G1 X4.600 Y14.469 E19.67314
G1 X4.600 Y12.400 E19.94345
G1 X4.618 Y12.110 E19.98138
G1 X4.736 Y11.615 E20.04781
G1 X4.858 Y11.328 E20.08855
G1 X5.012 Y11.067 E20.12809
G1 X5.228 Y10.792 E20.17383
G1 X5.528 Y10.515 E20.22721
G1 X6.557 Y9.870 E20.38583
G1 X6.989 Y9.568 E20.45471
G1 X7.660 Y9.040 E20.56628
G1 X8.284 Y8.473 E20.67638
G1 X8.864 Y7.864 E20.78622
G1 X9.224 Y7.425 E20.86042
G1 X9.265 Y7.325 E20.87459
G1 X9.276 Y7.226 E20.88763
G1 X9.238 Y7.100 E20.90473
G1 X9.166 Y6.994 E20.92153
G1 X9.080 Y6.940 E20.93484
G1 X8.976 Y6.908 E20.94907
G1 X4.219 Y6.900 E21.57044
G1 X3.919 Y6.854 E21.61012
G1 X3.697 Y6.761 E21.64156
G1 X3.460 Y6.588 E21.67997
G1 X3.295 Y6.394 E21.71327
G1 X3.188 Y6.195 E21.74275
G1 X3.122 Y5.980 E21.77208
G1 X3.098 Y5.727 E21.80541
G1 X3.142 Y5.434 E21.84403
G1 X3.228 Y5.218 E21.87440
G1 X3.372 Y5.004 E21.90814
G1 X3.590 Y4.805 E21.94676
G1 X3.827 Y4.678 E21.98180
G1 X4.118 Y4.605 E22.02105
G1 X9.877 Y4.596 E22.77345
G1 X10.072 Y4.575 E22.79902
G1 X10.285 Y4.524 E22.82760
G1 X10.660 Y4.348 E22.88177
G1 X10.882 Y4.176 E22.91838
G1 X11.075 Y3.964 E22.95587
G1 X11.224 Y3.728 E22.99237
G1 X11.333 Y3.458 E23.03034
G1 X11.564 Y2.585 E23.14839
G1 X11.728 Y1.690 E23.26728
G1 X11.823 Y0.791 E23.38528
G1 X11.849 Y-0.103 E23.50224
G1 X11.823 Y-0.790 E23.59194
G1 X11.728 Y-1.690 E23.71017
G1 X11.564 Y-2.585 E23.82905
G1 X11.333 Y-3.458 E23.94711
G1 X11.224 Y-3.728 E23.98508
G1 X11.075 Y-3.964 E24.02158
G1 X10.882 Y-4.176 E24.05907
G1 X10.660 Y-4.348 E24.09568
G1 X10.285 Y-4.524 E24.14985
G1 X10.072 Y-4.575 E24.17843
G1 X9.877 Y-4.596 E24.20400
G1 X4.118 Y-4.605 E24.95640
G1 X3.827 Y-4.678 E24.99565
G1 X3.598 Y-4.801 E25.02964
G1 X3.423 Y-4.947 E25.05941
G1 X3.246 Y-5.184 E25.09797
G1 X3.145 Y-5.423 E25.13192
G1 X3.102 Y-5.651 E25.16219
G1 X3.114 Y-5.943 E25.20033
G1 X3.186 Y-6.192 E25.23418
G1 X3.295 Y-6.394 E25.26417
G1 X3.460 Y-6.588 E25.29747
G1 X3.697 Y-6.761 E25.33588
G1 X3.919 Y-6.854 E25.36731
G1 X4.219 Y-6.900 E25.40700
G1 X8.976 Y-6.908 E26.02836
G1 X9.080 Y-6.940 E26.04260
G1 X9.166 Y-6.994 E26.05591
G1 X9.238 Y-7.100 E26.07271
G1 X9.276 Y-7.226 E26.08981
G1 X9.264 Y-7.333 E26.10388
G1 X9.186 Y-7.484 E26.12615
G1 X8.640 Y-8.110 E26.23460
G1 X8.149 Y-8.602 E26.32544
G1 X7.661 Y-9.039 E26.41102
G1 X6.991 Y-9.567 E26.52250
G1 X6.380 Y-9.984 E26.61914
G1 X5.666 Y-10.417 E26.72815
G1 X5.434 Y-10.592 E26.76620
G1 X5.225 Y-10.796 E26.80440
G1 X5.007 Y-11.073 E26.85041
G1 X4.783 Y-11.489 E26.91213
G1 X4.644 Y-11.946 E26.97455
G1 X4.600 Y-12.392 E27.03312
G1 X4.600 Y-14.408 E27.29647
G1 X4.700 Y-14.855 F7800.000
G1 X3.172 Y-16.579 F7800.000
G1 X3.172 Y-12.322 E27.85257 F1800.000
G1 X3.237 Y-11.667 E27.93862
G1 X3.457 Y-10.937 E28.03817
G1 X3.809 Y-10.287 E28.13474
G1 X4.160 Y-9.839 E28.20911
G1 X4.501 Y-9.508 E28.27123
G1 X4.863 Y-9.233 E28.33056
G1 X5.827 Y-8.633 E28.47892
G1 X5.734 Y-8.331 E28.52018
G1 X4.110 Y-8.328 E28.73229
G1 X3.530 Y-8.240 E28.80893
G1 X2.991 Y-8.014 E28.88534
G1 X2.481 Y-7.642 E28.96781
G1 X2.109 Y-7.204 E29.04288
G1 X1.855 Y-6.733 E29.11270
G1 X1.695 Y-6.173 E29.18881
G1 X1.668 Y-5.546 E29.27085
G1 X1.771 Y-5.007 E29.34254
G1 X1.998 Y-4.469 E29.41886
G1 X2.378 Y-3.959 E29.50192
G1 X2.792 Y-3.613 E29.57245
G1 X3.307 Y-3.335 E29.64890
G1 X3.942 Y-3.177 E29.73434
G1 X9.910 Y-3.168 E30.51400
G1 X9.976 Y-3.005 E30.53691
G1 X10.169 Y-2.273 E30.63580
G1 X10.313 Y-1.486 E30.74041
G1 X10.397 Y-0.688 E30.84526
G1 X10.420 Y-0.097 E30.92243
G1 X10.397 Y0.695 E31.02605
G1 X10.313 Y1.486 E31.12988
G1 X10.169 Y2.273 E31.23448
G1 X9.976 Y3.005 E31.33338
G1 X9.910 Y3.168 E31.35628
G1 X3.942 Y3.177 E32.13594
G1 X3.307 Y3.335 E32.22139
G1 X2.760 Y3.630 E32.30263
G1 X2.281 Y4.065 E32.38710
G1 X1.958 Y4.549 E32.46315
G1 X1.754 Y5.057 E32.53460
G1 X1.659 Y5.687 E32.61783
G1 X1.713 Y6.260 E32.69310
G1 X1.864 Y6.749 E32.75994
G1 X2.109 Y7.204 E32.82743
G1 X2.481 Y7.642 E32.90250
G1 X2.991 Y8.014 E32.98496
G1 X3.530 Y8.240 E33.06138
G1 X4.110 Y8.328 E33.13801
G1 X5.740 Y8.331 E33.35095
G1 X5.829 Y8.641 E33.39306
G1 X4.657 Y9.375 E33.57375
G1 X4.176 Y9.820 E33.65934
G1 X3.830 Y10.260 E33.73249
G1 X3.581 Y10.682 E33.79655
G1 X3.374 Y11.167 E33.86532
G1 X3.201 Y11.899 E33.96361
G1 X3.172 Y12.354 E34.02328
G1 X3.172 Y16.581 E34.57538
G1 X6.697 Y15.167 E35.07157
G1 X7.838 Y14.607 E35.23758
G1 X8.768 Y14.067 E35.37817
G1 X9.285 Y13.731 E35.45874
G1 X10.205 Y13.063 E35.60714
G1 X10.679 Y12.680 E35.68681
G1 X11.432 Y12.006 E35.81888
G1 X12.321 Y11.093 E35.98524
G1 X13.060 Y10.208 E36.13593
G1 X13.429 Y9.717 E36.21620
G1 X13.995 Y8.884 E36.34776
G1 X14.260 Y8.433 E36.41607
G1 X14.616 Y8.608 E36.46802
G1 X14.342 Y9.293 E36.56440
G1 X14.055 Y9.836 E36.64468
G1 X13.713 Y10.350 E36.72533
G1 X13.324 Y10.827 E36.80572
G1 X7.572 Y16.579 E37.86841
G1 X7.305 Y16.805 E37.91418
G1 X6.860 Y17.133 E37.98632
G1 X6.547 Y17.327 E38.03445
G1 X6.075 Y17.577 E38.10416
G1 X5.591 Y17.780 E38.17285
G1 X5.237 Y17.901 E38.22167
G1 X4.619 Y18.055 E38.30486
G1 X4.381 Y18.094 E38.33640
G1 X-4.381 Y18.094 E39.48105
G1 X-4.619 Y18.055 E39.51259
G1 X-5.247 Y17.899 E39.59713
G1 X-5.497 Y17.816 E39.63153
G1 X-6.001 Y17.610 E39.70265
G1 X-6.356 Y17.436 E39.75434
G1 X-6.852 Y17.138 E39.82995
G1 X-7.305 Y16.805 E39.90331
G1 X-7.589 Y16.564 E39.95202
G1 X-13.323 Y10.827 E41.01166
G1 X-13.713 Y10.350 E41.09216
G1 X-14.055 Y9.836 E41.17282
G1 X-14.343 Y9.290 E41.25353
G1 X-14.618 Y8.613 E41.34899
G1 X-14.269 Y8.434 E41.40024
G1 X-13.757 Y9.246 E41.52565
G1 X-13.071 Y10.196 E41.67878
G1 X-12.324 Y11.090 E41.83092
G1 X-11.526 Y11.917 E41.98107
G1 X-10.669 Y12.689 E42.13174
G1 X-9.752 Y13.404 E42.28373
G1 X-8.780 Y14.060 E42.43685
G1 X-7.759 Y14.650 E42.59095
G1 X-6.694 Y15.168 E42.74562
G1 X-3.172 Y16.581 E43.24143
G1 X-3.172 Y12.354 E43.79353
G1 X-3.201 Y11.899 E43.85320
G1 X-3.374 Y11.167 E43.95149
G1 X-3.581 Y10.682 E44.02026
G1 X-3.830 Y10.260 E44.08432
G1 X-4.176 Y9.820 E44.15747
G1 X-4.657 Y9.375 E44.24306
G1 X-5.829 Y8.641 E44.42375
G1 X-5.740 Y8.331 E44.46586
G1 X-4.110 Y8.328 E44.67880
G1 X-3.530 Y8.240 E44.75543
G1 X-2.991 Y8.014 E44.83185
G1 X-2.481 Y7.642 E44.91431
G1 X-2.109 Y7.204 E44.98938
G1 X-1.864 Y6.749 E45.05687
G1 X-1.713 Y6.260 E45.12371
G1 X-1.659 Y5.687 E45.19898
G1 X-1.754 Y5.057 E45.28221
G1 X-1.958 Y4.549 E45.35366
G1 X-2.281 Y4.065 E45.42971
G1 X-2.760 Y3.630 E45.51418
G1 X-3.307 Y3.335 E45.59542
G1 X-3.942 Y3.177 E45.68087
G1 X-9.910 Y3.168 E46.46053
G1 X-9.976 Y3.005 E46.48343
G1 X-10.169 Y2.273 E46.58233
G1 X-10.313 Y1.486 E46.68693
G1 X-10.397 Y0.688 E46.79179
G1 X-10.420 Y0.097 E46.86896
G1 X-10.397 Y-0.695 E46.97258
G1 X-10.313 Y-1.486 E47.07640
