;FLAVOR:Marlin
;TIME:2838
;Filament used: 1.69482m
;Layer height: 0.2
;MINX:-14.817
;MINY:-16.826
;MINZ:0.3
;MAXX:13.777
;MAXY:13.294
;MAXZ:99.7
;Generated with Cura_SteamEngine 5.2.1
M140 S60
M105
M190 S60
M104 S200
M105
M109 S200
M82 ;absolute extrusion mode
G28 ;Home
G1 Z15.0 F6000 ;Move the platform down 15mm
;Prime the extruder
G92 E0
G1 F200 E3
G92 E0
M141 S28
G92 E0
G92 E0
G1 F1500 E-6.5
;LAYER_COUNT:498
;LAYER:0
M107
G0 F3600 X-5.758 Y8.706 Z0.3
;TYPE:SKIRT
G1 F1500 E0
G1 F1800 X-6.626 Y8.706 E0.0433
G1 X-7.415 Y8.666 E0.08272
G1 X-8.195 Y8.547 E0.12208
G1 X-8.96 Y8.349 E0.16151
G1 X-9.7 Y8.075 E0.20088
G1 X-10.409 Y7.727 E0.24028
G1 X-11.08 Y7.309 E0.27972
G1 X-11.704 Y6.826 E0.31909
G1 X-12.277 Y6.283 E0.35847
G1 X-12.933 Y5.496 E0.40959
G1 X-13.326 Y4.956 E0.44291
G1 X-13.757 Y4.295 E0.48227
G1 X-14.12 Y3.593 E0.5217
G1 X-14.41 Y2.859 E0.56108
G1 X-14.624 Y2.099 E0.60047
G1 X-14.76 Y1.321 E0.63987
G1 X-14.817 Y0.533 E0.67929
G1 X-14.794 Y-.256 E0.71867
G1 X-14.691 Y-1.039 E0.75807
G1 X-14.51 Y-1.808 E0.79748
G1 X-14.252 Y-2.554 E0.83686
G1 X-13.919 Y-3.27 E0.87626
G1 X-13.516 Y-3.95 E0.91569
G1 X-13.256 Y-4.301 E0.93749
G1 X-13.586 Y-5.017 E0.97682
G1 X-13.958 Y-6.034 E1.03085
G1 X-14.233 Y-7.131 E1.08727
G1 X-14.385 Y-7.906 E1.12667
G1 X-14.459 Y-8.692 E1.16606
G1 X-14.453 Y-9.482 E1.20547
G1 X-14.367 Y-10.267 E1.24487
G1 X-14.202 Y-11.039 E1.28425
G1 X-13.959 Y-11.79 E1.32364
G1 X-13.642 Y-12.514 E1.36307
G1 X-13.254 Y-13.201 E1.40243
G1 X-12.798 Y-13.846 E1.44184
G1 X-12.279 Y-14.441 E1.48123
G1 X-11.702 Y-14.981 E1.52066
G1 X-11.074 Y-15.46 E1.56006
G1 X-10.401 Y-15.873 E1.59945
G1 X-9.69 Y-16.215 E1.63882
G1 X-8.947 Y-16.484 E1.67824
G1 X-8.181 Y-16.676 E1.71764
G1 X-7.4 Y-16.79 E1.75702
G1 X-6.667 Y-16.825 E1.79363
G1 X1.998 Y-16.826 E2.22592
G1 X2.851 Y-16.779 E2.26855
G1 X3.643 Y-16.692 E2.3083
G1 X4.422 Y-16.567 E2.34766
G1 X5.39 Y-16.293 E2.39785
G1 X6.14 Y-16.028 E2.43753
G1 X6.87 Y-15.728 E2.47691
G1 X7.615 Y-15.339 E2.51884
G1 X8.426 Y-14.819 E2.5669
G1 X9.057 Y-14.328 E2.60679
G1 X9.649 Y-13.805 E2.6462
G1 X10.307 Y-13.095 E2.6945
G1 X10.901 Y-12.309 E2.74365
G1 X11.311 Y-11.634 E2.78305
G1 X11.651 Y-10.921 E2.82246
G1 X12.041 Y-9.755 E2.8838
G1 X12.233 Y-8.815 E2.93166
G1 X12.312 Y-8.029 E2.97107
G1 X12.31 Y-7.239 E3.01049
G1 X12.229 Y-6.454 E3.04986
G1 X12.069 Y-5.68 E3.08929
G1 X11.832 Y-4.927 E3.12868
G1 X11.52 Y-4.202 E3.16805
G1 X11.384 Y-3.959 E3.18195
G1 X11.708 Y-3.563 E3.20747
G1 X12.143 Y-2.904 E3.24687
G1 X12.509 Y-2.205 E3.28623
G1 X12.843 Y-1.354 E3.33184
G1 X13.394 Y0.338 E3.42062
G1 X13.6 Y1.1 E3.46
G1 X13.728 Y1.879 E3.49939
G1 X13.777 Y2.667 E3.53877
G1 X13.745 Y3.457 E3.57822
G1 X13.634 Y4.238 E3.61758
G1 X13.394 Y5.168 E3.66549
G1 X12.843 Y6.86 E3.75427
G1 X12.56 Y7.598 E3.7937
G1 X12.205 Y8.303 E3.83308
G1 X11.78 Y8.969 E3.8725
G1 X11.29 Y9.588 E3.91189
G1 X10.74 Y10.155 E3.9513
G1 X10.017 Y10.751 E3.99804
G1 X8.576 Y11.8 E4.08697
G1 X7.914 Y12.232 E4.1264
G1 X7.213 Y12.595 E4.16579
G1 X6.479 Y12.885 E4.20516
G1 X5.718 Y13.099 E4.2446
G1 X4.941 Y13.235 E4.28396
G1 X3.985 Y13.294 E4.33174
G1 X2.205 Y13.294 E4.42055
G1 X1.416 Y13.254 E4.45996
G1 X0.636 Y13.135 E4.49932
G1 X-.129 Y12.937 E4.53875
G1 X-.869 Y12.663 E4.57812
G1 X-1.578 Y12.315 E4.61752
G1 X-2.386 Y11.8 E4.66532
G1 X-3.827 Y10.751 E4.75425
G1 X-4.441 Y10.255 E4.79362
G1 X-5.001 Y9.699 E4.833
G1 X-5.503 Y9.089 E4.87241
G1 X-5.758 Y8.706 E4.89536
G0 F3600 X-5.998 Y8.306
G1 F1800 X-6.626 Y8.306 E4.9267
G1 X-7.394 Y8.266 E4.96506
G1 X-8.154 Y8.147 E5.00344
G1 X-8.897 Y7.949 E5.0418
G1 X-9.616 Y7.675 E5.08019
G1 X-10.302 Y7.328 E5.11854
G1 X-10.949 Y6.912 E5.15692
G1 X-11.549 Y6.431 E5.19529
G1 X-12.096 Y5.89 E5.23367
G1 X-12.609 Y5.26 E5.2742
G1 X-13.002 Y4.72 E5.30752
G1 X-13.422 Y4.076 E5.34588
G1 X-13.772 Y3.391 E5.38426
G1 X-14.05 Y2.674 E5.42262
G1 X-14.251 Y1.932 E5.46098
G1 X-14.375 Y1.172 E5.49939
G1 X-14.419 Y0.405 E5.53772
G1 X-14.383 Y-.364 E5.57613
G1 X-14.267 Y-1.124 E5.61449
G1 X-14.074 Y-1.869 E5.65288
G1 X-13.804 Y-2.589 E5.69124
G1 X-13.46 Y-3.277 E5.72962
G1 X-13.047 Y-3.926 E5.768
G1 X-12.777 Y-4.267 E5.7897
G1 X-12.915 Y-4.513 E5.80377
G1 X-13.281 Y-5.344 E5.84907
G1 X-13.646 Y-6.433 E5.90637
G1 X-13.845 Y-7.228 E5.94726
G1 X-13.992 Y-7.983 E5.98563
G1 X-14.061 Y-8.749 E6.02401
G1 X-14.05 Y-9.518 E6.06238
G1 X-13.958 Y-10.282 E6.10077
G1 X-13.789 Y-11.032 E6.13912
G1 X-13.542 Y-11.761 E6.17752
G1 X-13.221 Y-12.459 E6.21585
G1 X-12.829 Y-13.121 E6.25424
G1 X-12.37 Y-13.739 E6.29264
G1 X-11.85 Y-14.305 E6.33099
G1 X-11.274 Y-14.815 E6.36937
G1 X-10.648 Y-15.262 E6.40775
G1 X-9.979 Y-15.642 E6.44613
G1 X-9.275 Y-15.95 E6.48447
G1 X-8.542 Y-16.183 E6.52284
G1 X-7.789 Y-16.339 E6.56121
G1 X-6.667 Y-16.425 E6.61735
G1 X1.998 Y-16.426 E7.04965
G1 X2.807 Y-16.382 E7.09007
G1 X3.599 Y-16.295 E7.12982
G1 X4.358 Y-16.171 E7.16819
G1 X5.256 Y-15.916 E7.21476
G1 X6.006 Y-15.651 E7.25444
G1 X6.717 Y-15.358 E7.29281
G1 X7.454 Y-14.972 E7.33432
G1 X8.631 Y-14.173 E7.40529
G1 X9.383 Y-13.506 E7.45544
G1 X10.003 Y-12.835 E7.50102
G1 X10.582 Y-12.068 E7.54896
G1 X10.978 Y-11.409 E7.58732
G1 X11.305 Y-10.712 E7.62573
G1 X11.656 Y-9.648 E7.68163
G1 X11.84 Y-8.735 E7.72809
G1 X11.914 Y-7.969 E7.76648
G1 X11.908 Y-7.2 E7.80485
G1 X11.821 Y-6.436 E7.84321
G1 X11.656 Y-5.685 E7.88157
G1 X11.414 Y-4.955 E7.91994
G1 X11.098 Y-4.254 E7.95831
G1 X10.9 Y-3.916 E7.97785
G1 X11.409 Y-3.294 E8.01795
G1 X11.829 Y-2.649 E8.05635
G1 X12.179 Y-1.964 E8.09472
G1 X12.462 Y-1.23 E8.13397
G1 X13.013 Y0.462 E8.22275
G1 X13.213 Y1.204 E8.26109
G1 X13.335 Y1.964 E8.29949
G1 X13.377 Y2.732 E8.33786
G1 X13.339 Y3.5 E8.37623
G1 X13.222 Y4.26 E8.41459
G1 X13.013 Y5.044 E8.45507
G1 X12.462 Y6.736 E8.54385
G1 X12.186 Y7.454 E8.58222
G1 X11.838 Y8.14 E8.6206
G1 X11.419 Y8.785 E8.65897
G1 X10.937 Y9.384 E8.69733
G1 X10.394 Y9.929 E8.73571
G1 X9.781 Y10.428 E8.77515
G1 X8.34 Y11.477 E8.86407
G1 X7.696 Y11.896 E8.9024
G1 X7.011 Y12.247 E8.9408
G1 X6.294 Y12.525 E8.97917
G1 X5.551 Y12.726 E9.01757
G1 X4.792 Y12.85 E9.05594
G1 X3.985 Y12.894 E9.09626
G1 X2.205 Y12.894 E9.18506
G1 X1.437 Y12.854 E9.22343
G1 X0.677 Y12.735 E9.26181
G1 X-0.066 Y12.537 E9.30017
G1 X-.785 Y12.263 E9.33856
G1 X-1.471 Y11.916 E9.37691
G1 X-2.15 Y11.477 E9.41725
G1 X-3.591 Y10.428 E9.50617
G1 X-4.189 Y9.943 E9.54459
G1 X-4.733 Y9.4 E9.58293
G1 X-5.217 Y8.802 E9.62132
G1 X-5.555 Y8.284 E9.65217
G1 X-5.998 Y8.306 E9.6743
G0 F3600 X-5.998 Y7.906
G1 F1800 X-6.626 Y7.906 E9.70563
G1 X-7.373 Y7.866 E9.74296
G1 X-8.111 Y7.747 E9.78025
G1 X-8.833 Y7.549 E9.8176
G1 X-9.529 Y7.276 E9.8549
G1 X-10.192 Y6.929 E9.89223
G1 X-10.815 Y6.514 E9.92958
G1 X-11.389 Y6.035 E9.96688
G1 X-11.91 Y5.498 E10.00421
G1 X-12.286 Y5.025 E10.03435
G1 X-12.679 Y4.485 E10.06767
G1 X-13.086 Y3.858 E10.10497
G1 X-13.424 Y3.19 E10.14232
G1 X-13.689 Y2.491 E10.17961
G1 X-13.877 Y1.767 E10.21693
G1 X-13.988 Y1.027 E10.25426
G1 X-14.018 Y0.279 E10.29161
G1 X-13.969 Y-.467 E10.32891
G1 X-13.841 Y-1.204 E10.36623
G1 X-13.634 Y-1.923 E10.40356
G1 X-13.352 Y-2.616 E10.44088
G1 X-12.998 Y-3.275 E10.4782
G1 X-12.575 Y-3.892 E10.51552
G1 X-12.293 Y-4.221 E10.53714
G1 X-12.574 Y-4.727 E10.56602
G1 X-12.913 Y-5.5 E10.60813
G1 X-13.257 Y-6.53 E10.66231
G1 X-13.456 Y-7.325 E10.70319
G1 X-13.599 Y-8.06 E10.74055
G1 X-13.663 Y-8.805 E10.77785
G1 X-13.646 Y-9.553 E10.81518
G1 X-13.55 Y-10.295 E10.85251
G1 X-13.375 Y-11.022 E10.88982
G1 X-13.124 Y-11.727 E10.92715
G1 X-12.798 Y-12.4 E10.96446
G1 X-12.403 Y-13.035 E11.00177
G1 X-11.943 Y-13.625 E11.03909
G1 X-11.422 Y-14.162 E11.07642
G1 X-10.846 Y-14.64 E11.11376
G1 X-10.223 Y-15.054 E11.15108
G1 X-9.56 Y-15.399 E11.18837
G1 X-8.863 Y-15.671 E11.2257
G1 X-8.141 Y-15.868 E11.26303
G1 X-7.402 Y-15.986 E11.30037
G1 X-6.667 Y-16.025 E11.33709
G1 X1.998 Y-16.026 E11.76939
G1 X2.763 Y-15.984 E11.80761
G1 X3.555 Y-15.897 E11.84736
G1 X4.294 Y-15.776 E11.88472
G1 X5.123 Y-15.539 E11.92774
G1 X5.873 Y-15.274 E11.96742
G1 X6.564 Y-14.988 E12.00474
G1 X7.259 Y-14.622 E12.04392
G1 X8.383 Y-13.859 E12.1117
G1 X9.117 Y-13.206 E12.16071
G1 X9.699 Y-12.575 E12.20354
G1 X10.262 Y-11.827 E12.25025
G1 X10.645 Y-11.184 E12.28759
G1 X10.957 Y-10.504 E12.32491
G1 X11.269 Y-9.543 E12.37532
G1 X11.448 Y-8.656 E12.42046
G1 X11.516 Y-7.911 E12.45779
G1 X11.504 Y-7.163 E12.49511
G1 X11.413 Y-6.42 E12.53246
G1 X11.243 Y-5.692 E12.56975
G1 X10.996 Y-4.986 E12.60707
G1 X10.675 Y-4.31 E12.6444
G1 X10.396 Y-3.854 E12.67107
G1 X10.641 Y-3.608 E12.6884
G1 X11.11 Y-3.025 E12.72572
G1 X11.513 Y-2.395 E12.76304
G1 X11.847 Y-1.726 E12.80034
G1 X12.082 Y-1.107 E12.83337
G1 X12.633 Y0.585 E12.92215
G1 X12.826 Y1.308 E12.95948
G1 X12.941 Y2.047 E12.9968
G1 X12.977 Y2.795 E13.03416
G1 X12.932 Y3.541 E13.07144
G1 X12.809 Y4.279 E13.10877
G1 X12.633 Y4.921 E13.14198
G1 X12.082 Y6.613 E13.23076
G1 X11.813 Y7.31 E13.26803
G1 X11.47 Y7.976 E13.30541
G1 X11.059 Y8.6 E13.34269
G1 X10.584 Y9.178 E13.38001
G1 X10.049 Y9.701 E13.41734
G1 X9.546 Y10.104 E13.44949
G1 X8.105 Y11.153 E13.53842
G1 X7.477 Y11.561 E13.57578
G1 X6.81 Y11.899 E13.61308
G1 X6.11 Y12.164 E13.65043
G1 X5.387 Y12.352 E13.6877
G1 X4.647 Y12.463 E13.72503
G1 X3.985 Y12.494 E13.75809
G1 X2.205 Y12.494 E13.8469
G1 X1.458 Y12.454 E13.88422
G1 X0.72 Y12.335 E13.92151
G1 X-0.002 Y12.137 E13.95886
G1 X-.698 Y11.864 E13.99616
G1 X-1.361 Y11.517 E14.03349
G1 X-1.915 Y11.153 E14.06657
G1 X-3.356 Y10.104 E14.15549
G1 X-3.936 Y9.632 E14.1928
G1 X-4.463 Y9.101 E14.23012
G1 X-4.93 Y8.517 E14.26743
G1 X-5.334 Y7.88 E14.30506
G1 X-5.998 Y7.906 E14.33821
G0 F3600 X-5.72 Y7.506
G1 F1800 X-6.626 Y7.506 E14.38341
G1 X-7.351 Y7.466 E14.41964
G1 X-8.068 Y7.347 E14.4559
G1 X-8.767 Y7.149 E14.49214
G1 X-9.44 Y6.876 E14.52838
G1 X-10.079 Y6.531 E14.56461
G1 X-10.676 Y6.117 E14.60085
G1 X-11.224 Y5.641 E14.63707
G1 X-11.785 Y5.034 E14.6783
G1 X-12.355 Y4.25 E14.72666
G1 X-12.75 Y3.64 E14.76292
G1 X-13.075 Y2.99 E14.79917
G1 X-13.327 Y2.309 E14.8354
G1 X-13.502 Y1.604 E14.87164
G1 X-13.599 Y0.884 E14.90789
G1 X-13.616 Y0.158 E14.94412
G1 X-13.553 Y-.566 E14.98037
G1 X-13.411 Y-1.278 E15.01659
G1 X-13.192 Y-1.971 E15.05285
G1 X-12.897 Y-2.635 E15.0891
G1 X-12.532 Y-3.262 E15.1253
G1 X-12.1 Y-3.846 E15.16154
G1 X-11.808 Y-4.16 E15.18293
G1 X-12.469 Y-5.432 E15.25445
G1 X-12.869 Y-6.627 E15.31732
G1 X-13.068 Y-7.422 E15.35821
G1 X-13.206 Y-8.136 E15.39449
G1 X-13.264 Y-8.86 E15.43072
G1 X-13.242 Y-9.586 E15.46696
G1 X-13.141 Y-10.305 E15.50318
G1 X-12.961 Y-11.009 E15.53944
G1 X-12.705 Y-11.688 E15.57564
G1 X-12.375 Y-12.336 E15.61192
G1 X-11.977 Y-12.943 E15.64813
G1 X-11.514 Y-13.503 E15.68438
G1 X-10.993 Y-14.009 E15.72062
G1 X-10.419 Y-14.454 E15.75685
G1 X-9.8 Y-14.834 E15.79309
G1 X-9.142 Y-15.143 E15.82935
G1 X-8.455 Y-15.378 E15.86558
G1 X-7.746 Y-15.536 E15.90182
G1 X-6.667 Y-15.625 E15.95583
G1 X1.998 Y-15.626 E16.38813
G1 X2.72 Y-15.587 E16.4242
G1 X3.512 Y-15.5 E16.46396
G1 X4.228 Y-15.381 E16.50017
G1 X4.99 Y-15.162 E16.53972
G1 X5.74 Y-14.897 E16.57941
G1 X6.41 Y-14.618 E16.61562
G1 X7.165 Y-14.204 E16.65857
G1 X8.136 Y-13.544 E16.71715
G1 X8.851 Y-12.907 E16.76492
G1 X9.399 Y-12.311 E16.80532
G1 X9.941 Y-11.586 E16.85048
G1 X10.31 Y-10.961 E16.88669
G1 X10.608 Y-10.298 E16.92295
G1 X10.884 Y-9.436 E16.96811
G1 X11.055 Y-8.577 E17.01181
G1 X11.118 Y-7.854 E17.04801
G1 X11.101 Y-7.128 E17.08424
G1 X11.004 Y-6.408 E17.12049
G1 X10.828 Y-5.703 E17.15674
G1 X10.577 Y-5.021 E17.193
G1 X10.252 Y-4.372 E17.22921
G1 X9.883 Y-3.803 E17.26304
G1 X10.357 Y-3.326 E17.29659
G1 X10.809 Y-2.757 E17.33285
G1 X11.196 Y-2.142 E17.3691
G1 X11.513 Y-1.489 E17.40531
G1 X11.702 Y-.983 E17.43226
G1 X12.253 Y0.709 E17.52104
G1 X12.439 Y1.411 E17.55727
G1 X12.547 Y2.13 E17.59354
G1 X12.576 Y2.855 E17.62974
G1 X12.525 Y3.58 E17.666
G1 X12.394 Y4.294 E17.70222
G1 X12.253 Y4.797 E17.72828
G1 X11.702 Y6.489 E17.81706
G1 X11.439 Y7.166 E17.85329
G1 X11.104 Y7.81 E17.88951
G1 X10.699 Y8.414 E17.92579
G1 X10.231 Y8.969 E17.96201
G1 X9.705 Y9.47 E17.99825
G1 X9.31 Y9.781 E18.02333
G1 X7.869 Y10.83 E18.11225
G1 X7.259 Y11.224 E18.14848
G1 X6.61 Y11.55 E18.18472
G1 X5.929 Y11.801 E18.22093
G1 X5.224 Y11.977 E18.25718
G1 X4.504 Y12.074 E18.29342
G1 X3.985 Y12.094 E18.31934
G1 X2.205 Y12.094 E18.40814
G1 X1.48 Y12.054 E18.44437
G1 X0.763 Y11.935 E18.48063
G1 X0.064 Y11.737 E18.51687
G1 X-.609 Y11.464 E18.55311
G1 X-1.248 Y11.119 E18.58934
G1 X-1.679 Y10.83 E18.61523
G1 X-3.12 Y9.781 E18.70415
G1 X-3.683 Y9.322 E18.74039
G1 X-4.192 Y8.804 E18.77662
G1 X-4.641 Y8.232 E18.8129
G1 X-5.134 Y7.441 E18.8594
G1 X-5.72 Y7.506 E18.88881
G0 F3600 X-5.998 Y7.106
G1 F1800 X-6.626 Y7.106 E18.92015
G1 X-7.329 Y7.066 E18.95527
G1 X-8.023 Y6.947 E18.9904
G1 X-8.698 Y6.749 E19.0255
G1 X-9.347 Y6.477 E19.06061
G1 X-9.961 Y6.132 E19.09574
G1 X-10.532 Y5.721 E19.13084
G1 X-11.053 Y5.247 E19.16598
G1 X-11.639 Y4.554 E19.21126
G1 X-12.032 Y4.014 E19.24458
G1 X-12.413 Y3.423 E19.27966
G1 X-12.725 Y2.791 E19.31483
G1 X-12.963 Y2.129 E19.34992
G1 X-13.125 Y1.444 E19.38504
G1 X-13.207 Y0.745 E19.42015
G1 X-13.21 Y0.041 E19.45528
G1 X-13.134 Y-.659 E19.4904
G1 X-12.978 Y-1.346 E19.52555
G1 X-12.746 Y-2.01 E19.56064
G1 X-12.439 Y-2.644 E19.59579
G1 X-12.063 Y-3.239 E19.6309
G1 X-11.622 Y-3.788 E19.66603
G1 X-11.273 Y-4.132 E19.69048
G1 X-11.555 Y-4.534 E19.71498
G1 X-12.102 Y-5.59 E19.77431
G1 X-12.481 Y-6.724 E19.83396
G1 X-12.68 Y-7.519 E19.87485
G1 X-12.812 Y-8.211 E19.91
G1 X-12.865 Y-8.913 E19.94512
G1 X-12.838 Y-9.616 E19.98022
G1 X-12.731 Y-10.312 E20.01535
G1 X-12.546 Y-10.992 E20.05051
G1 X-12.285 Y-11.645 E20.08559
G1 X-11.952 Y-12.266 E20.12075
G1 X-11.55 Y-12.844 E20.15587
G1 X-11.086 Y-13.373 E20.19098
G1 X-10.564 Y-13.846 E20.22612
G1 X-9.993 Y-14.257 E20.26122
G1 X-9.378 Y-14.6 E20.29635
G1 X-8.729 Y-14.872 E20.33146
G1 X-8.053 Y-15.068 E20.36658
G1 X-7.359 Y-15.186 E20.4017
G1 X-6.667 Y-15.225 E20.43627
G1 X1.998 Y-15.226 E20.86857
G1 X2.676 Y-15.189 E20.90245
G1 X3.468 Y-15.102 E20.9422
G1 X4.162 Y-14.985 E20.97731
G1 X4.857 Y-14.785 E21.01339
G1 X5.607 Y-14.52 E21.05308
G1 X6.256 Y-14.248 E21.08819
G1 X6.966 Y-13.857 E21.12862
G1 X7.89 Y-13.229 E21.18436
G1 X8.584 Y-12.608 E21.23082
G1 X9.097 Y-12.046 E21.26879
G1 X9.62 Y-11.346 E21.31238
G1 X9.975 Y-10.738 E21.34751
G1 X10.258 Y-10.094 E21.3826
G1 X10.499 Y-9.326 E21.42276
G1 X10.662 Y-8.499 E21.46481
G1 X10.719 Y-7.798 E21.4999
G1 X10.696 Y-7.094 E21.53504
G1 X10.594 Y-6.398 E21.57014
G1 X10.413 Y-5.717 E21.60529
G1 X10.157 Y-5.062 E21.64038
G1 X9.827 Y-4.439 E21.67555
G1 X9.363 Y-3.761 E21.71654
G1 X10.073 Y-3.044 E21.76688
G1 X10.508 Y-2.49 E21.80202
G1 X10.878 Y-1.891 E21.83715
G1 X11.227 Y-1.147 E21.87814
G1 X11.872 Y0.833 E21.98204
G1 X12.052 Y1.514 E22.01718
G1 X12.153 Y2.211 E22.05232
G1 X12.175 Y2.914 E22.08741
G1 X12.117 Y3.616 E22.12255
G1 X11.959 Y4.406 E22.16274
G1 X11.321 Y6.365 E22.26553
G1 X11.066 Y7.021 E22.30064
G1 X10.737 Y7.643 E22.33575
G1 X10.34 Y8.225 E22.3709
G1 X9.88 Y8.758 E22.40602
G1 X9.294 Y9.298 E22.44578
G1 X7.634 Y10.507 E22.54823
G1 X7.042 Y10.888 E22.58335
G1 X6.411 Y11.2 E22.61847
G1 X5.749 Y11.438 E22.65357
G1 X5.063 Y11.599 E22.68872
G1 X4.263 Y11.694 E22.72892
G1 X2.205 Y11.694 E22.83159
G1 X1.502 Y11.654 E22.86672
G1 X0.808 Y11.535 E22.90185
G1 X0.133 Y11.337 E22.93694
G1 X-.516 Y11.065 E22.97205
G1 X-1.224 Y10.667 E23.01257
G1 X-2.885 Y9.458 E23.11507
G1 X-3.43 Y9.012 E23.1502
G1 X-3.92 Y8.507 E23.18531
G1 X-4.351 Y7.949 E23.22048
G1 X-4.715 Y7.347 E23.25558
G1 X-4.877 Y6.995 E23.27491
G1 X-5.095 Y7.04 E23.28602
G1 X-5.998 Y7.106 E23.33119
G0 F3600 X-5.998 Y6.706
G1 F1800 X-6.626 Y6.706 E23.36252
G1 X-7.306 Y6.666 E23.3965
G1 X-7.976 Y6.547 E23.43045
G1 X-8.628 Y6.35 E23.46443
G1 X-9.252 Y6.078 E23.4984
G1 X-9.84 Y5.734 E23.53238
G1 X-10.384 Y5.324 E23.56637
G1 X-10.875 Y4.853 E23.60031
G1 X-11.316 Y4.319 E23.63486
G1 X-11.709 Y3.779 E23.66818
G1 X-12.076 Y3.206 E23.70213
G1 X-12.374 Y2.594 E23.73609
G1 X-12.598 Y1.951 E23.77006
G1 X-12.746 Y1.286 E23.80405
G1 X-12.814 Y0.608 E23.83805
G1 X-12.802 Y-0.072 E23.87198
G1 X-12.711 Y-.747 E23.90596
G1 X-12.542 Y-1.406 E23.9399
G1 X-12.296 Y-2.041 E23.97387
