;FLAVOR:Marlin
;TIME:2864
;Filament used: 1.70592m
;Layer height: 0.2
;MINX:-12.308
;MINY:-16.828
;MINZ:0.3
;MAXX:14.817
;MAXY:13.405
;MAXZ:99.7
;Generated with Cura_SteamEngine 5.2.1
M140 S60
M105
M190 S60
M104 S200
M105
M109 S200
M82 ;absolute extrusion mode
G28 ;Home
G1 Z15.0 F6000 ;Move the platform down 15mm
;Prime the extruder
G92 E0
G1 F200 E3
G92 E0
M141 S28
G92 E0
G92 E0
G1 F1500 E-6.5
;LAYER_COUNT:498
;LAYER:0
M107
G0 F3600 X-10.228 Y-2.339 Z0.3
;TYPE:SKIRT
G1 F1500 E0
G1 F1800 X-10.683 Y-2.868 E0.03481
G1 X-11.134 Y-3.516 E0.0742
G1 X-11.518 Y-4.206 E0.1136
G1 X-11.83 Y-4.932 E0.15302
G1 X-12.067 Y-5.685 E0.1924
G1 X-12.227 Y-6.458 E0.23179
G1 X-12.308 Y-7.244 E0.27121
G1 X-12.308 Y-8.033 E0.31057
G1 X-12.229 Y-8.819 E0.34998
G1 X-12.097 Y-9.524 E0.38577
G1 X-11.852 Y-10.393 E0.43081
G1 X-11.563 Y-11.128 E0.47021
G1 X-11.201 Y-11.83 E0.50962
G1 X-10.769 Y-12.492 E0.54905
G1 X-10.274 Y-13.125 E0.58914
G1 X-9.617 Y-13.829 E0.63719
G1 X-8.92 Y-14.444 E0.68356
G1 X-8.127 Y-15.017 E0.73237
G1 X-7.43 Y-15.431 E0.77282
G1 X-6.727 Y-15.79 E0.8122
G1 X-6.143 Y-16.023 E0.84357
G1 X-5.394 Y-16.288 E0.8832
G1 X-4.637 Y-16.514 E0.92262
G1 X-3.701 Y-16.682 E0.97006
G1 X-2.908 Y-16.775 E1.0099
G1 X-1.999 Y-16.828 E1.05532
G1 X6.666 Y-16.828 E1.48762
G1 X7.455 Y-16.788 E1.52704
G1 X8.235 Y-16.669 E1.5664
G1 X9 Y-16.471 E1.60582
G1 X9.74 Y-16.197 E1.64519
G1 X10.449 Y-15.849 E1.6846
G1 X11.12 Y-15.431 E1.72404
G1 X11.744 Y-14.948 E1.7634
G1 X12.317 Y-14.405 E1.80279
G1 X12.832 Y-13.806 E1.8422
G1 X13.283 Y-13.158 E1.88159
G1 X13.667 Y-12.467 E1.92103
G1 X13.979 Y-11.742 E1.9604
G1 X14.216 Y-10.989 E1.99979
G1 X14.375 Y-10.215 E2.03921
G1 X14.456 Y-9.43 E2.07858
G1 X14.456 Y-8.64 E2.118
G1 X14.377 Y-7.854 E2.15741
G1 X14.261 Y-7.25 E2.18809
G1 X14.114 Y-6.622 E2.22027
G1 X13.788 Y-5.572 E2.27512
G1 X13.553 Y-4.968 E2.30745
G1 X13.253 Y-4.298 E2.34408
G1 X13.473 Y-4.005 E2.36236
G1 X13.882 Y-3.329 E2.40178
G1 X14.22 Y-2.616 E2.44114
G1 X14.484 Y-1.872 E2.48053
G1 X14.672 Y-1.105 E2.51993
G1 X14.782 Y-.322 E2.55938
G1 X14.817 Y0.475 E2.59918
G1 X14.772 Y1.358 E2.64329
G1 X14.653 Y2.138 E2.68265
G1 X14.455 Y2.903 E2.72207
G1 X14.181 Y3.643 E2.76144
G1 X13.833 Y4.352 E2.80085
G1 X13.415 Y5.023 E2.84029
G1 X12.932 Y5.647 E2.87965
G1 X12.389 Y6.22 E2.91904
G1 X11.79 Y6.735 E2.95845
G1 X11.142 Y7.186 E2.99784
G1 X10.451 Y7.57 E3.03728
G1 X9.424 Y7.987 E3.09258
G1 X8.176 Y8.393 E3.15805
G1 X7.742 Y9.08 E3.19859
G1 X7.252 Y9.699 E3.23798
G1 X6.702 Y10.266 E3.27739
G1 X5.979 Y10.862 E3.32414
G1 X4.538 Y11.911 E3.41306
G1 X3.876 Y12.343 E3.4525
G1 X3.175 Y12.706 E3.49188
G1 X2.441 Y12.996 E3.53125
G1 X1.68 Y13.21 E3.57069
G1 X0.903 Y13.346 E3.61005
G1 X-0.053 Y13.405 E3.65783
G1 X-1.833 Y13.405 E3.74664
G1 X-2.622 Y13.365 E3.78605
G1 X-3.402 Y13.246 E3.82542
G1 X-4.167 Y13.048 E3.86484
G1 X-4.907 Y12.774 E3.90421
G1 X-5.616 Y12.426 E3.94361
G1 X-6.424 Y11.911 E3.99142
G1 X-7.865 Y10.862 E4.08034
G1 X-8.479 Y10.366 E4.11972
G1 X-9.039 Y9.81 E4.15909
G1 X-9.541 Y9.2 E4.1985
G1 X-9.978 Y8.542 E4.23791
G1 X-10.347 Y7.844 E4.2773
G1 X-10.691 Y6.971 E4.32411
G1 X-11.242 Y5.279 E4.41289
G1 X-11.448 Y4.517 E4.45227
G1 X-11.576 Y3.738 E4.49166
G1 X-11.625 Y2.95 E4.53105
G1 X-11.593 Y2.16 E4.57049
G1 X-11.482 Y1.379 E4.60985
G1 X-11.242 Y0.449 E4.65777
G1 X-10.691 Y-1.243 E4.74654
G1 X-10.408 Y-1.981 E4.78598
G1 X-10.228 Y-2.339 E4.80597
G0 F3600 X-9.75 Y-2.396
G1 F1800 X-10.379 Y-3.129 E4.85416
G1 X-10.816 Y-3.762 E4.89253
G1 X-11.185 Y-4.437 E4.93091
G1 X-11.483 Y-5.146 E4.96928
G1 X-11.705 Y-5.882 E5.00763
G1 X-11.849 Y-6.638 E5.04603
G1 X-11.914 Y-7.404 E5.08438
G1 X-11.899 Y-8.173 E5.12275
G1 X-11.719 Y-9.392 E5.18423
G1 X-11.467 Y-10.285 E5.23052
G1 X-11.182 Y-10.999 E5.26888
G1 X-10.825 Y-11.68 E5.30724
G1 X-10.399 Y-12.321 E5.34563
G1 X-9.849 Y-12.994 E5.389
G1 X-9.324 Y-13.555 E5.42733
G1 X-8.637 Y-14.16 E5.473
G1 X-7.441 Y-14.977 E5.54526
G1 X-6.545 Y-15.433 E5.59542
G1 X-6.009 Y-15.646 E5.62419
G1 X-5.26 Y-15.911 E5.66383
G1 X-4.523 Y-16.13 E5.70219
G1 X-3.654 Y-16.285 E5.74623
G1 X-2.861 Y-16.378 E5.78606
G1 X-1.999 Y-16.428 E5.82914
G1 X6.666 Y-16.428 E6.26144
G1 X7.434 Y-16.388 E6.29981
G1 X8.194 Y-16.269 E6.33819
G1 X8.937 Y-16.071 E6.37655
G1 X9.656 Y-15.797 E6.41494
G1 X10.342 Y-15.45 E6.45329
G1 X10.989 Y-15.034 E6.49166
G1 X11.589 Y-14.553 E6.53003
G1 X12.136 Y-14.012 E6.56841
G1 X12.624 Y-13.417 E6.6068
G1 X13.047 Y-12.775 E6.64516
G1 X13.402 Y-12.092 E6.68356
G1 X13.683 Y-11.377 E6.72189
G1 X13.889 Y-10.635 E6.76031
G1 X14.017 Y-9.877 E6.79866
G1 X14.066 Y-9.109 E6.83706
G1 X14.034 Y-8.341 E6.87541
G1 X13.871 Y-7.341 E6.92595
G1 X13.724 Y-6.713 E6.95813
G1 X13.415 Y-5.717 E7.01016
G1 X13.18 Y-5.113 E7.04249
G1 X12.795 Y-4.255 E7.08941
G1 X13.262 Y-3.597 E7.12967
G1 X13.64 Y-2.927 E7.16805
G1 X13.945 Y-2.221 E7.20641
G1 X14.176 Y-1.487 E7.2448
G1 X14.33 Y-.734 E7.28315
G1 X14.418 Y0.449 E7.34233
G1 X14.372 Y1.337 E7.38669
G1 X14.253 Y2.097 E7.42507
G1 X14.055 Y2.84 E7.46343
G1 X13.781 Y3.559 E7.50182
G1 X13.434 Y4.245 E7.54018
G1 X13.018 Y4.892 E7.57855
G1 X12.537 Y5.492 E7.61692
G1 X11.996 Y6.039 E7.6553
G1 X11.401 Y6.527 E7.69369
G1 X10.759 Y6.95 E7.73205
G1 X10.076 Y7.305 E7.77045
G1 X9.3 Y7.606 E7.81198
G1 X7.895 Y8.063 E7.88569
G1 X7.8 Y8.251 E7.8962
G1 X7.381 Y8.896 E7.93457
G1 X6.899 Y9.495 E7.97293
G1 X6.356 Y10.04 E8.01131
G1 X5.743 Y10.539 E8.05074
G1 X4.302 Y11.588 E8.13967
G1 X3.658 Y12.007 E8.178
G1 X2.973 Y12.358 E8.2164
G1 X2.256 Y12.636 E8.25476
G1 X1.513 Y12.837 E8.29316
G1 X0.754 Y12.961 E8.33153
G1 X-0.053 Y13.005 E8.37185
G1 X-1.833 Y13.005 E8.46066
G1 X-2.601 Y12.965 E8.49903
G1 X-3.361 Y12.846 E8.53741
G1 X-4.104 Y12.648 E8.57577
G1 X-4.823 Y12.374 E8.61416
G1 X-5.509 Y12.027 E8.65251
G1 X-6.188 Y11.588 E8.69285
G1 X-7.629 Y10.539 E8.78177
G1 X-8.227 Y10.054 E8.82018
G1 X-8.771 Y9.511 E8.85853
G1 X-9.255 Y8.913 E8.89691
G1 X-9.675 Y8.269 E8.93527
G1 X-10.026 Y7.584 E8.97367
G1 X-10.31 Y6.847 E9.01308
G1 X-10.861 Y5.155 E9.10185
G1 X-11.061 Y4.413 E9.14019
G1 X-11.183 Y3.653 E9.1786
G1 X-11.225 Y2.885 E9.21697
G1 X-11.187 Y2.117 E9.25533
G1 X-11.07 Y1.357 E9.29369
G1 X-10.861 Y0.573 E9.33417
G1 X-10.31 Y-1.119 E9.42295
G1 X-10.034 Y-1.837 E9.46133
G1 X-9.75 Y-2.396 E9.49261
G0 F3600 X-9.588 Y-2.821
G1 F1800 X-10.074 Y-3.39 E9.52994
G1 X-10.497 Y-4.007 E9.56726
G1 X-10.851 Y-4.666 E9.60458
G1 X-11.133 Y-5.359 E9.64191
G1 X-11.34 Y-6.078 E9.67924
G1 X-11.468 Y-6.815 E9.71656
G1 X-11.517 Y-7.561 E9.75386
G1 X-11.487 Y-8.308 E9.79116
G1 X-11.325 Y-9.316 E9.84209
G1 X-11.081 Y-10.176 E9.88669
G1 X-10.801 Y-10.869 E9.92398
G1 X-10.449 Y-11.529 E9.9613
G1 X-9.713 Y-12.556 E10.02433
G1 X-9.032 Y-13.281 E10.07396
G1 X-8.385 Y-13.849 E10.11691
G1 X-7.239 Y-14.633 E10.18618
G1 X-6.364 Y-15.076 E10.23511
G1 X-5.876 Y-15.269 E10.26129
G1 X-5.127 Y-15.534 E10.30093
G1 X-4.409 Y-15.746 E10.33828
G1 X-3.607 Y-15.887 E10.37891
G1 X-2.814 Y-15.98 E10.41874
G1 X-1.999 Y-16.028 E10.45947
G1 X6.666 Y-16.028 E10.89177
G1 X7.413 Y-15.988 E10.92909
G1 X8.151 Y-15.869 E10.96639
G1 X8.873 Y-15.671 E11.00374
G1 X9.569 Y-15.398 E11.04104
G1 X10.232 Y-15.051 E11.07837
G1 X10.855 Y-14.636 E11.11572
G1 X11.429 Y-14.157 E11.15302
G1 X11.95 Y-13.62 E11.19034
G1 X12.409 Y-13.03 E11.22764
G1 X12.804 Y-12.394 E11.26499
G1 X13.128 Y-11.72 E11.3023
G1 X13.378 Y-11.015 E11.33962
G1 X13.552 Y-10.287 E11.37696
G1 X13.647 Y-9.545 E11.41428
G1 X13.662 Y-8.797 E11.45161
G1 X13.598 Y-8.052 E11.48891
G1 X13.482 Y-7.433 E11.52033
G1 X13.335 Y-6.805 E11.55251
G1 X13.043 Y-5.862 E11.60176
G1 X12.808 Y-5.258 E11.63409
G1 X12.5 Y-4.576 E11.67143
G1 X12.29 Y-4.22 E11.69205
G1 X12.628 Y-3.813 E11.71844
G1 X13.042 Y-3.19 E11.75576
G1 X13.387 Y-2.526 E11.79309
G1 X13.659 Y-1.83 E11.83037
G1 X13.855 Y-1.108 E11.8677
G1 X13.973 Y-.369 E11.90503
G1 X14.017 Y0.467 E11.9468
G1 X13.972 Y1.316 E11.98922
G1 X13.853 Y2.054 E12.02651
G1 X13.655 Y2.776 E12.06386
G1 X13.382 Y3.472 E12.10116
G1 X13.035 Y4.135 E12.13849
G1 X12.62 Y4.758 E12.17584
G1 X12.141 Y5.332 E12.21314
G1 X11.604 Y5.853 E12.25047
G1 X11.014 Y6.312 E12.28776
G1 X10.378 Y6.707 E12.32511
G1 X9.704 Y7.031 E12.36242
G1 X9.176 Y7.226 E12.3905
G1 X8.038 Y7.596 E12.4502
G1 X7.628 Y7.705 E12.47137
G1 X7.432 Y8.087 E12.49279
G1 X7.021 Y8.711 E12.53007
G1 X6.546 Y9.289 E12.56739
G1 X6.011 Y9.812 E12.60472
G1 X5.508 Y10.215 E12.63687
G1 X4.067 Y11.264 E12.7258
G1 X3.439 Y11.672 E12.76316
G1 X2.772 Y12.01 E12.80047
G1 X2.072 Y12.275 E12.83781
G1 X1.349 Y12.463 E12.87508
G1 X0.609 Y12.574 E12.91241
G1 X-0.053 Y12.605 E12.94547
G1 X-1.833 Y12.605 E13.03428
G1 X-2.58 Y12.565 E13.0716
G1 X-3.318 Y12.446 E13.10889
G1 X-4.04 Y12.248 E13.14624
G1 X-4.736 Y11.975 E13.18354
G1 X-5.399 Y11.628 E13.22088
G1 X-5.953 Y11.264 E13.25395
G1 X-7.394 Y10.215 E13.34287
G1 X-7.974 Y9.743 E13.38018
G1 X-8.501 Y9.212 E13.4175
G1 X-8.968 Y8.628 E13.45481
G1 X-9.37 Y7.997 E13.49214
G1 X-9.702 Y7.327 E13.52944
G1 X-9.93 Y6.724 E13.5616
G1 X-10.481 Y5.032 E13.65038
G1 X-10.674 Y4.309 E13.68771
G1 X-10.789 Y3.57 E13.72503
G1 X-10.825 Y2.822 E13.76239
G1 X-10.78 Y2.076 E13.79967
G1 X-10.657 Y1.338 E13.837
G1 X-10.481 Y0.696 E13.87021
G1 X-9.93 Y-.996 E13.95899
G1 X-9.661 Y-1.693 E13.99626
G1 X-9.253 Y-2.485 E14.04071
G1 X-9.588 Y-2.821 E14.06438
G0 F3600 X-9.256 Y-3.047
G1 F1800 X-9.77 Y-3.65 E14.10391
G1 X-10.177 Y-4.251 E14.14012
G1 X-10.516 Y-4.893 E14.17634
G1 X-10.782 Y-5.569 E14.21259
G1 X-10.973 Y-6.27 E14.24884
G1 X-11.085 Y-6.988 E14.28509
G1 X-11.118 Y-7.713 E14.3213
G1 X-11.07 Y-8.438 E14.35755
G1 X-10.931 Y-9.243 E14.3983
G1 X-10.696 Y-10.066 E14.441
G1 X-10.421 Y-10.738 E14.47723
G1 X-10.074 Y-11.376 E14.51346
G1 X-9.401 Y-12.305 E14.57069
G1 X-8.74 Y-13.007 E14.6188
G1 X-8.13 Y-13.54 E14.65921
G1 X-7.036 Y-14.288 E14.72533
G1 X-6.063 Y-14.778 E14.77968
G1 X-4.993 Y-15.157 E14.83631
G1 X-4.296 Y-15.361 E14.87255
G1 X-3.561 Y-15.49 E14.90978
G1 X-2.768 Y-15.583 E14.94961
G1 X-1.999 Y-15.628 E14.98804
G1 X6.666 Y-15.628 E15.42034
G1 X7.391 Y-15.588 E15.45657
G1 X8.108 Y-15.469 E15.49283
G1 X8.807 Y-15.271 E15.52907
G1 X9.48 Y-14.998 E15.56531
G1 X10.119 Y-14.653 E15.60153
G1 X10.716 Y-14.239 E15.63778
G1 X11.264 Y-13.763 E15.67399
G1 X11.757 Y-13.229 E15.71025
G1 X12.187 Y-12.644 E15.74647
G1 X12.551 Y-12.015 E15.78273
G1 X12.844 Y-11.35 E15.81899
G1 X13.062 Y-10.657 E15.85523
G1 X13.202 Y-9.945 E15.89143
G1 X13.263 Y-9.221 E15.92768
G1 X13.244 Y-8.495 E15.96391
G1 X13.092 Y-7.524 E16.01295
G1 X12.945 Y-6.896 E16.04512
G1 X12.67 Y-6.007 E16.09155
G1 X12.435 Y-5.403 E16.12388
G1 X12.135 Y-4.741 E16.16015
G1 X11.795 Y-4.169 E16.19334
G1 X11.983 Y-3.976 E16.20679
G1 X12.43 Y-3.403 E16.24304
G1 X12.812 Y-2.785 E16.27929
G1 X13.123 Y-2.129 E16.31551
G1 X13.36 Y-1.442 E16.35177
G1 X13.52 Y-.734 E16.38798
G1 X13.601 Y-0.012 E16.42422
G1 X13.612 Y0.569 E16.45322
G1 X13.572 Y1.294 E16.48944
G1 X13.453 Y2.011 E16.5257
G1 X13.255 Y2.71 E16.56195
G1 X12.982 Y3.383 E16.59818
G1 X12.637 Y4.022 E16.63441
G1 X12.223 Y4.619 E16.67066
G1 X11.747 Y5.167 E16.70687
G1 X11.213 Y5.66 E16.74313
G1 X10.628 Y6.09 E16.77935
G1 X9.999 Y6.454 E16.81561
G1 X9.053 Y6.846 E16.86669
G1 X7.915 Y7.216 E16.9264
G1 X7.356 Y7.364 E16.95524
G1 X7.066 Y7.921 E16.98657
G1 X6.661 Y8.525 E17.02286
G1 X6.193 Y9.08 E17.05907
G1 X5.667 Y9.581 E17.09532
G1 X5.272 Y9.892 E17.1204
G1 X3.831 Y10.941 E17.20932
G1 X3.221 Y11.335 E17.24555
G1 X2.572 Y11.661 E17.28178
G1 X1.891 Y11.912 E17.31799
G1 X1.186 Y12.088 E17.35425
G1 X0.466 Y12.185 E17.39049
G1 X-0.053 Y12.205 E17.4164
G1 X-1.833 Y12.205 E17.50521
G1 X-2.558 Y12.165 E17.54143
G1 X-3.275 Y12.046 E17.57769
G1 X-3.974 Y11.848 E17.61394
G1 X-4.647 Y11.575 E17.65017
G1 X-5.286 Y11.23 E17.6864
G1 X-5.717 Y10.941 E17.71229
G1 X-7.158 Y9.892 E17.80121
G1 X-7.721 Y9.433 E17.83745
G1 X-8.23 Y8.915 E17.87369
G1 X-8.679 Y8.343 E17.90997
G1 X-9.063 Y7.727 E17.94618
G1 X-9.376 Y7.071 E17.98244
G1 X-9.55 Y6.6 E18.00749
G1 X-10.101 Y4.908 E18.09627
G1 X-10.287 Y4.206 E18.1325
G1 X-10.395 Y3.487 E18.16878
G1 X-10.424 Y2.762 E18.20497
G1 X-10.373 Y2.037 E18.24123
G1 X-10.242 Y1.323 E18.27745
G1 X-10.101 Y0.82 E18.30351
G1 X-9.55 Y-.872 E18.39229
G1 X-9.287 Y-1.549 E18.42852
G1 X-8.952 Y-2.193 E18.46474
G1 X-8.71 Y-2.553 E18.48638
G1 X-9.256 Y-3.047 E18.52312
G0 F3600 X-8.969 Y-3.325
G1 F1800 X-9.465 Y-3.909 E18.56134
G1 X-9.856 Y-4.494 E18.59645
G1 X-10.179 Y-5.12 E18.63159
G1 X-10.429 Y-5.778 E18.66671
G1 X-10.603 Y-6.46 E18.70182
G1 X-10.699 Y-7.157 E18.73693
G1 X-10.714 Y-7.861 E18.77206
G1 X-10.65 Y-8.562 E18.80717
G1 X-10.505 Y-9.279 E18.84367
G1 X-10.311 Y-9.956 E18.87881
G1 X-10.041 Y-10.606 E18.91392
G1 X-9.699 Y-11.221 E18.94903
G1 X-9.088 Y-12.055 E19.00061
G1 X-8.448 Y-12.732 E19.04709
G1 X-7.764 Y-13.307 E19.09167
G1 X-6.835 Y-13.942 E19.14781
G1 X-5.898 Y-14.413 E19.20013
G1 X-4.86 Y-14.78 E19.25506
G1 X-4.184 Y-14.977 E19.29019
G1 X-3.514 Y-15.093 E19.32411
G1 X-2.721 Y-15.186 E19.36394
G1 X-1.999 Y-15.228 E19.40002
G1 X6.666 Y-15.228 E19.83232
G1 X7.369 Y-15.188 E19.86745
G1 X8.063 Y-15.069 E19.90258
G1 X8.738 Y-14.871 E19.93768
G1 X9.387 Y-14.599 E19.97278
G1 X10.001 Y-14.254 E20.00792
G1 X10.572 Y-13.843 E20.04302
G1 X11.093 Y-13.369 E20.07816
G1 X11.557 Y-12.839 E20.1133
G1 X11.957 Y-12.26 E20.14841
G1 X12.289 Y-11.639 E20.18355
G1 X12.549 Y-10.985 E20.21866
G1 X12.733 Y-10.305 E20.2538
G1 X12.839 Y-9.609 E20.28893
G1 X12.865 Y-8.906 E20.32402
G1 X12.811 Y-8.204 E20.35915
G1 X12.703 Y-7.615 E20.38903
G1 X12.556 Y-6.987 E20.4212
G1 X12.297 Y-6.152 E20.46482
G1 X12.062 Y-5.548 E20.49715
G1 X11.77 Y-4.907 E20.53229
G1 X11.296 Y-4.12 E20.57813
G1 X11.808 Y-3.564 E20.61584
G1 X12.223 Y-2.995 E20.65097
G1 X12.57 Y-2.383 E20.68607
G1 X12.846 Y-1.735 E20.72121
G1 X13.046 Y-1.06 E20.75634
G1 X13.169 Y-.367 E20.79145
G1 X13.218 Y0.465 E20.83303
G1 X13.172 Y1.272 E20.87336
G1 X13.053 Y1.966 E20.90849
G1 X12.855 Y2.641 E20.94358
G1 X12.583 Y3.29 E20.97869
G1 X12.238 Y3.904 E21.01383
G1 X11.827 Y4.475 E21.04893
G1 X11.353 Y4.996 E21.08407
G1 X10.823 Y5.46 E21.11921
G1 X10.244 Y5.86 E21.15432
G1 X9.623 Y6.192 E21.18945
G1 X8.929 Y6.465 E21.22666
G1 X7.791 Y6.835 E21.28636
G1 X7.09 Y7.015 E21.32246
G1 X6.699 Y7.754 E21.36418
G1 X6.302 Y8.336 E21.39932
G1 X5.842 Y8.869 E21.43445
G1 X5.256 Y9.409 E21.4742
G1 X3.596 Y10.618 E21.57666
G1 X3.004 Y10.999 E21.61178
G1 X2.373 Y11.311 E21.6469
G1 X1.711 Y11.549 E21.682
G1 X1.025 Y11.71 E21.71715
G1 X0.225 Y11.805 E21.75735
G1 X-1.833 Y11.805 E21.86002
G1 X-2.536 Y11.765 E21.89515
G1 X-3.23 Y11.646 E21.93028
G1 X-3.905 Y11.448 E21.96537
G1 X-4.554 Y11.176 E22.00048
G1 X-5.262 Y10.778 E22.041
G1 X-6.923 Y9.569 E22.1435
G1 X-7.468 Y9.123 E22.17863
G1 X-7.958 Y8.618 E22.21374
G1 X-8.389 Y8.06 E22.24891
G1 X-8.753 Y7.458 E22.28401
G1 X-9.084 Y6.739 E22.3235
G1 X-9.72 Y4.784 E22.42607
G1 X-9.9 Y4.103 E22.46121
G1 X-10.001 Y3.406 E22.49634
G1 X-10.023 Y2.703 E22.53143
G1 X-9.965 Y2.001 E22.56658
G1 X-9.807 Y1.211 E22.60677
G1 X-9.169 Y-.748 E22.70956
G1 X-8.914 Y-1.404 E22.74467
G1 X-8.585 Y-2.026 E22.77978
G1 X-8.187 Y-2.605 E22.81483
G1 X-8.969 Y-3.325 E22.86786
G0 F3600 X-8.684 Y-3.606
G1 F1800 X-9.159 Y-4.168 E22.90457
G1 X-9.535 Y-4.736 E22.93856
G1 X-9.841 Y-5.344 E22.97252
G1 X-10.074 Y-5.984 E23.0065
G1 X-10.231 Y-6.646 E23.04044
G1 X-10.309 Y-7.323 E23.07444
G1 X-10.307 Y-8.004 E23.10841
G1 X-10.158 Y-9.042 E23.16073
G1 X-9.926 Y-9.845 E23.20243
G1 X-9.661 Y-10.472 E23.23639
G1 X-9.325 Y-11.064 E23.27035
G1 X-8.773 Y-11.808 E23.31657
G1 X-8.157 Y-12.457 E23.36121
G1 X-7.514 Y-12.996 E23.40307
G1 X-6.631 Y-13.599 E23.45642
G1 X-5.735 Y-14.046 E23.50637
G1 X-4.727 Y-14.403 E23.55972
G1 X-4.072 Y-14.592 E23.59373
G1 X-3.468 Y-14.696 E23.62431
G1 X-2.675 Y-14.789 E23.66414
G1 X-1.999 Y-14.828 E23.69793
G1 X6.666 Y-14.828 E24.13023
G1 X7.346 Y-14.788 E24.16421
G1 X8.016 Y-14.669 E24.19816
G1 X8.668 Y-14.472 E24.23214
G1 X9.292 Y-14.2 E24.2661
G1 X9.88 Y-13.856 E24.30009
G1 X10.424 Y-13.446 E24.33407
G1 X10.915 Y-12.975 E24.36802
G1 X11.349 Y-12.45 E24.402
G1 X11.718 Y-11.878 E24.43596
G1 X12.017 Y-11.266 E24.46994
G1 X12.242 Y-10.624 E24.50388
G1 X12.391 Y-9.959 E24.53788
