;FLAVOR:Marlin
;TIME:4220
;Filament used: 4.05733m
;Layer height: 0.2
;MINX:-29.049
;MINY:-22.462
;MINZ:0.3
;MAXX:30.94
;MAXY:22.056
;MAXZ:26.1
;Generated with Cura_SteamEngine 5.2.1
M140 S60
M105
M190 S60
M104 S200
M105
M109 S200
M82 ;absolute extrusion mode
G28 ;Home
G1 Z15.0 F6000 ;Move the platform down 15mm
;Prime the extruder
G92 E0
G1 F200 E3
G92 E0
M141 S28
G92 E0
G92 E0
G1 F1500 E-6.5
;LAYER_COUNT:130
;LAYER:0
M107
G0 F3600 X-0.013 Y14.636 Z0.3
;TYPE:SKIRT
G1 F1500 E0
G1 F1800 X-.463 Y14.729 E0.02293
G1 X-1.036 Y14.788 E0.05166
G1 X-1.117 Y15.359 E0.08044
G1 X-1.369 Y16.342 E0.13106
G1 X-1.69 Y17.199 E0.17672
G1 X-2.041 Y17.906 E0.2161
G1 X-2.461 Y18.575 E0.25551
G1 X-2.947 Y19.197 E0.29489
G1 X-3.493 Y19.767 E0.33427
G1 X-4.094 Y20.279 E0.37366
G1 X-4.684 Y20.7 E0.40982
G1 X-5.466 Y21.16 E0.45508
G1 X-6.183 Y21.49 E0.49446
G1 X-6.93 Y21.746 E0.53386
G1 X-7.699 Y21.925 E0.57325
G1 X-8.483 Y22.025 E0.61268
G1 X-9.053 Y22.048 E0.64114
G1 X-11.397 Y22.056 E0.75808
G1 X-14.996 Y22.037 E0.93764
G1 X-18.013 Y22.032 E1.08816
G1 X-18.801 Y21.991 E1.12753
G1 X-19.582 Y21.87 E1.16695
G1 X-20.475 Y21.643 E1.21292
G1 X-21.401 Y21.31 E1.26202
G1 X-22.114 Y20.969 E1.30145
G1 X-22.788 Y20.558 E1.34083
G1 X-23.795 Y19.756 E1.40506
G1 X-24.464 Y19.067 E1.45297
G1 X-24.955 Y18.448 E1.49239
G1 X-25.381 Y17.783 E1.53179
G1 X-25.737 Y17.078 E1.57119
G1 X-26.064 Y16.246 E1.61579
G1 X-26.341 Y15.297 E1.66511
G1 X-26.484 Y14.52 E1.70453
G1 X-26.551 Y13.5 E1.75553
G1 X-26.552 Y-.499 E2.45394
G1 X-26.512 Y-1.288 E2.49335
G1 X-26.393 Y-2.069 E2.53277
G1 X-26.195 Y-2.833 E2.57214
G1 X-26.041 Y-3.248 E2.59423
G1 X-26.381 Y-3.582 E2.61801
G1 X-26.886 Y-4.189 E2.6574
G1 X-27.327 Y-4.844 E2.69679
G1 X-27.7 Y-5.54 E2.73619
G1 X-27.988 Y-6.239 E2.77391
G1 X-28.599 Y-7.947 E2.86441
G1 X-28.827 Y-8.703 E2.9038
G1 X-28.978 Y-9.478 E2.94319
G1 X-29.049 Y-10.265 E2.98262
G1 X-29.04 Y-11.054 E3.02198
G1 X-28.903 Y-12.106 E3.07491
G1 X-28.371 Y-14.762 E3.21005
G1 X-28.177 Y-15.527 E3.24943
G1 X-27.907 Y-16.269 E3.28882
G1 X-27.562 Y-16.98 E3.32825
G1 X-27.148 Y-17.652 E3.36762
G1 X-26.668 Y-18.279 E3.40702
G1 X-26.127 Y-18.855 E3.44644
G1 X-25.305 Y-19.542 E3.49989
G1 X-24.535 Y-20.101 E3.54736
G1 X-23.874 Y-20.532 E3.58673
G1 X-23.172 Y-20.894 E3.62614
G1 X-22.437 Y-21.183 E3.66554
G1 X-21.677 Y-21.396 E3.70491
G1 X-20.899 Y-21.531 E3.74431
G1 X-19.953 Y-21.589 E3.79159
G1 X-19.003 Y-21.589 E3.83899
G1 X-18.214 Y-21.549 E3.8784
G1 X-17.434 Y-21.43 E3.91777
G1 X-16.669 Y-21.232 E3.95719
G1 X-15.929 Y-20.958 E3.99656
G1 X-15.22 Y-20.61 E4.03596
G1 X-14.271 Y-20.005 E4.09211
G1 X-13.176 Y-20.443 E4.15095
G1 X-12.417 Y-20.661 E4.19035
G1 X-11.64 Y-20.801 E4.22974
G1 X-10.649 Y-20.864 E4.27928
G1 X-9.277 Y-20.864 E4.34773
G1 X-8.488 Y-20.824 E4.38714
G1 X-8.429 Y-20.815 E4.39012
G1 X-7.363 Y-20.897 E4.44346
G1 X-7.097 Y-21.024 E4.45816
G1 X-6.354 Y-21.291 E4.49755
G1 X-5.588 Y-21.481 E4.53693
G1 X-4.816 Y-21.59 E4.57582
G1 X-4.225 Y-21.839 E4.60782
G1 X-3.47 Y-22.071 E4.64723
G1 X-2.696 Y-22.226 E4.68661
G1 X-1.994 Y-22.297 E4.72181
G1 X0.958 Y-22.462 E4.86931
G1 X2.135 Y-22.439 E4.92805
G1 X5.379 Y-22.129 E5.09063
G1 X6.16 Y-22.014 E5.13001
G1 X6.926 Y-21.821 E5.16942
G1 X7.668 Y-21.551 E5.20882
G1 X8.696 Y-21.024 E5.26645
G1 X9.477 Y-20.548 E5.31208
G1 X10.478 Y-20.548 E5.36202
G1 X11.267 Y-20.508 E5.40143
G1 X12.047 Y-20.389 E5.4408
G1 X12.507 Y-20.27 E5.4645
G1 X13.344 Y-20.268 E5.50626
G1 X14.129 Y-20.184 E5.54565
G1 X14.377 Y-20.162 E5.55807
G1 X14.695 Y-20.355 E5.57663
G1 X15.407 Y-20.694 E5.61597
G1 X16.151 Y-20.96 E5.65539
G1 X16.918 Y-21.149 E5.6948
G1 X17.7 Y-21.26 E5.73421
G1 X18.402 Y-21.292 E5.76927
G1 X19.332 Y-21.292 E5.81566
G1 X20.121 Y-21.252 E5.85508
G1 X20.901 Y-21.133 E5.89444
G1 X21.666 Y-20.935 E5.93387
G1 X22.406 Y-20.661 E5.97323
G1 X23.115 Y-20.313 E6.01264
G1 X23.926 Y-19.796 E6.06062
G1 X24.678 Y-19.248 E6.10704
G1 X25.292 Y-18.751 E6.14645
G1 X25.852 Y-18.195 E6.18582
G1 X26.353 Y-17.585 E6.2252
G1 X26.79 Y-16.927 E6.26461
G1 X27.159 Y-16.228 E6.30405
G1 X27.5 Y-15.363 E6.35043
G1 X27.788 Y-14.48 E6.39677
G1 X27.994 Y-13.717 E6.4362
G1 X28.058 Y-13.329 E6.45582
G1 X28.312 Y-13.124 E6.4721
G1 X28.873 Y-12.568 E6.51151
G1 X29.375 Y-11.959 E6.55088
G1 X29.813 Y-11.301 E6.59032
G1 X30.182 Y-10.603 E6.62971
G1 X30.479 Y-9.871 E6.66912
G1 X30.667 Y-9.25 E6.70149
G1 X30.837 Y-8.478 E6.74093
G1 X30.929 Y-7.694 E6.78031
G1 X30.94 Y-6.904 E6.81973
G1 X30.871 Y-6.118 E6.85909
G1 X30.724 Y-5.342 E6.8985
G1 X30.498 Y-4.585 E6.93791
G1 X30.197 Y-3.855 E6.97731
G1 X29.824 Y-3.159 E7.0167
G1 X29.383 Y-2.504 E7.0561
G1 X28.877 Y-1.897 E7.09552
G1 X28.313 Y-1.345 E7.13489
G1 X27.696 Y-.852 E7.1743
G1 X27.032 Y-.425 E7.21368
G1 X26.552 Y-.18 E7.24057
G1 X26.548 Y13.566 E7.92636
G1 X26.508 Y14.355 E7.96577
G1 X26.388 Y15.135 E8.00514
G1 X26.19 Y15.9 E8.04457
G1 X25.916 Y16.64 E8.08394
G1 X25.687 Y17.126 E8.11074
G1 X25.455 Y17.578 E8.13609
G1 X25.06 Y18.261 E8.17545
G1 X24.597 Y18.901 E8.21486
G1 X24.072 Y19.491 E8.25426
G1 X23.49 Y20.025 E8.29367
G1 X22.857 Y20.497 E8.33306
G1 X22.179 Y20.902 E8.37246
G1 X21.703 Y21.135 E8.3989
G1 X21.187 Y21.366 E8.42711
G1 X20.451 Y21.652 E8.4665
G1 X19.69 Y21.862 E8.50589
G1 X18.911 Y21.994 E8.5453
G1 X18.005 Y22.047 E8.59058
G1 X8.461 Y22.053 E9.06673
G1 X7.672 Y22.014 E9.10615
G1 X6.892 Y21.894 E9.14552
G1 X6.127 Y21.697 E9.18493
G1 X5.386 Y21.424 E9.22433
G1 X4.677 Y21.076 E9.26373
G1 X4.006 Y20.659 E9.30314
G1 X3.35 Y20.161 E9.34423
G1 X2.668 Y19.535 E9.39042
G1 X2.144 Y18.945 E9.42979
G1 X1.681 Y18.305 E9.4692
G1 X1.286 Y17.621 E9.5086
G1 X0.962 Y16.901 E9.54799
G1 X0.713 Y16.152 E9.58737
G1 X0.553 Y15.454 E9.6231
G1 X0.445 Y14.716 E9.66031
G1 X-0.013 Y14.636 E9.68351
G0 F3600 X0.123 Y14.261
G1 F1800 X0.005 Y14.23 E9.68959
G1 X-.801 Y14.371 E9.73042
G1 X-1.382 Y14.405 E9.75945
G1 X-1.522 Y15.341 E9.80667
G1 X-1.752 Y16.226 E9.85229
G1 X-2.065 Y17.058 E9.89664
G1 X-2.409 Y17.746 E9.93501
G1 X-2.823 Y18.394 E9.97338
G1 X-3.302 Y18.996 E10.01176
G1 X-3.841 Y19.545 E10.05014
G1 X-4.434 Y20.035 E10.08852
G1 X-5.006 Y20.425 E10.12306
G1 X-5.669 Y20.815 E10.16143
G1 X-6.369 Y21.133 E10.19979
G1 X-7.098 Y21.378 E10.23816
G1 X-7.849 Y21.545 E10.27654
G1 X-8.734 Y21.647 E10.32099
G1 X-11.395 Y21.656 E10.45375
G1 X-14.994 Y21.637 E10.6333
G1 X-18.012 Y21.632 E10.78387
G1 X-18.78 Y21.591 E10.82224
G1 X-19.54 Y21.47 E10.86064
G1 X-20.367 Y21.257 E10.90324
G1 X-21.266 Y20.933 E10.95092
G1 X-21.958 Y20.598 E10.98928
G1 X-22.612 Y20.193 E11.02765
G1 X-23.525 Y19.46 E11.08607
G1 X-24.177 Y18.788 E11.13278
G1 X-24.652 Y18.183 E11.17115
G1 X-25.063 Y17.532 E11.20956
G1 X-25.403 Y16.843 E11.2479
G1 X-25.692 Y16.097 E11.28781
G1 X-25.956 Y15.185 E11.33518
G1 X-26.092 Y14.428 E11.37355
G1 X-26.151 Y13.5 E11.41994
G1 X-26.152 Y-.499 E12.11835
G1 X-26.112 Y-1.268 E12.15677
G1 X-25.993 Y-2.027 E12.1951
G1 X-25.795 Y-2.771 E12.23351
G1 X-25.575 Y-3.349 E12.26436
G1 X-26.114 Y-3.882 E12.30218
G1 X-26.602 Y-4.477 E12.34057
G1 X-27.025 Y-5.119 E12.37893
G1 X-27.38 Y-5.802 E12.41733
G1 X-27.612 Y-6.373 E12.44808
G1 X-28.223 Y-8.081 E12.53858
G1 X-28.444 Y-8.818 E12.57697
G1 X-28.587 Y-9.574 E12.61536
G1 X-28.651 Y-10.34 E12.65371
G1 X-28.636 Y-11.109 E12.69208
G1 X-28.511 Y-12.027 E12.7383
G1 X-27.979 Y-14.683 E12.87344
G1 X-27.789 Y-15.429 E12.91185
G1 X-27.522 Y-16.15 E12.95021
G1 X-27.183 Y-16.84 E12.98856
G1 X-26.773 Y-17.491 E13.02694
G1 X-26.298 Y-18.096 E13.06532
G1 X-25.763 Y-18.649 E13.1037
G1 X-25.07 Y-19.218 E13.14844
G1 X-24.3 Y-19.777 E13.19591
G1 X-23.655 Y-20.196 E13.23428
G1 X-22.97 Y-20.546 E13.27266
G1 X-22.253 Y-20.823 E13.31101
G1 X-21.51 Y-21.023 E13.3494
G1 X-20.751 Y-21.146 E13.38776
G1 X-19.953 Y-21.189 E13.42763
G1 X-19.003 Y-21.189 E13.47502
G1 X-18.235 Y-21.149 E13.51339
G1 X-17.475 Y-21.03 E13.55177
G1 X-16.732 Y-20.832 E13.59013
G1 X-16.013 Y-20.558 E13.62852
G1 X-15.327 Y-20.211 E13.66687
G1 X-14.654 Y-19.776 E13.70685
G1 X-14.31 Y-19.526 E13.72807
G1 X-13.742 Y-19.787 E13.75925
G1 X-13.028 Y-20.071 E13.79759
G1 X-12.287 Y-20.28 E13.836
G1 X-11.529 Y-20.411 E13.87438
G1 X-10.649 Y-20.464 E13.91836
G1 X-9.277 Y-20.464 E13.98681
G1 X-8.509 Y-20.424 E14.02518
G1 X-8.438 Y-20.413 E14.02876
G1 X-7.258 Y-20.504 E14.08781
G1 X-6.906 Y-20.67 E14.10722
G1 X-6.181 Y-20.925 E14.14557
G1 X-5.433 Y-21.104 E14.18394
G1 X-4.715 Y-21.2 E14.22008
G1 X-4.051 Y-21.477 E14.25597
G1 X-3.314 Y-21.698 E14.29436
G1 X-2.558 Y-21.841 E14.33275
G1 X-1.972 Y-21.897 E14.36211
G1 X0.98 Y-22.062 E14.50962
G1 X2.097 Y-22.04 E14.56536
G1 X5.341 Y-21.73 E14.72794
G1 X6.102 Y-21.618 E14.76631
G1 X6.847 Y-21.426 E14.8047
G1 X7.568 Y-21.159 E14.84306
G1 X8.488 Y-20.683 E14.89473
G1 X9.366 Y-20.148 E14.94603
G1 X10.478 Y-20.148 E15.00151
G1 X11.246 Y-20.108 E15.03987
G1 X12.006 Y-19.989 E15.07825
G1 X12.464 Y-19.867 E15.1019
G1 X13.342 Y-19.867 E15.1457
G1 X14.106 Y-19.783 E15.18405
G1 X14.254 Y-19.751 E15.1916
G1 X14.502 Y-19.77 E15.20401
G1 X14.938 Y-20.031 E15.22936
G1 X15.635 Y-20.355 E15.26771
G1 X16.362 Y-20.605 E15.30607
G1 X17.112 Y-20.779 E15.34448
G1 X17.875 Y-20.873 E15.38283
G1 X18.402 Y-20.892 E15.40914
G1 X19.332 Y-20.892 E15.45554
G1 X20.1 Y-20.852 E15.49391
G1 X20.86 Y-20.733 E15.53228
G1 X21.603 Y-20.535 E15.57065
G1 X22.322 Y-20.261 E15.60903
G1 X23.008 Y-19.914 E15.64739
G1 X23.69 Y-19.473 E15.68791
G1 X24.442 Y-18.925 E15.73433
G1 X25.039 Y-18.44 E15.7727
G1 X25.583 Y-17.896 E15.81109
G1 X26.067 Y-17.298 E15.84947
G1 X26.487 Y-16.654 E15.88783
G1 X26.837 Y-15.969 E15.9262
G1 X27.119 Y-15.239 E15.96525
G1 X27.407 Y-14.356 E16.01158
G1 X27.607 Y-13.613 E16.04997
G1 X27.687 Y-13.114 E16.07518
G1 X28.06 Y-12.812 E16.09913
G1 X28.605 Y-12.269 E16.13751
G1 X29.09 Y-11.672 E16.17588
G1 X29.51 Y-11.028 E16.21424
G1 X29.861 Y-10.343 E16.25264
G1 X30.266 Y-9.219 E16.31225
G1 X30.446 Y-8.392 E16.35447
G1 X30.532 Y-7.628 E16.39283
G1 X30.538 Y-6.859 E16.4312
G1 X30.464 Y-6.093 E16.46959
G1 X30.311 Y-5.34 E16.50793
G1 X30.08 Y-4.606 E16.54632
G1 X29.775 Y-3.9 E16.58468
G1 X29.398 Y-3.229 E16.62308
G1 X28.953 Y-2.602 E16.66144
G1 X28.446 Y-2.024 E16.6998
G1 X27.881 Y-1.501 E16.73821
G1 X27.266 Y-1.04 E16.77656
G1 X26.605 Y-.646 E16.81495
G1 X26.152 Y-.435 E16.83988
G1 X26.148 Y13.566 E17.53839
G1 X26.108 Y14.334 E17.57676
G1 X25.988 Y15.094 E17.61515
G1 X25.79 Y15.837 E17.65351
G1 X25.477 Y16.659 E17.69739
G1 X25.099 Y17.395 E17.73867
G1 X24.713 Y18.06 E17.77703
G1 X24.26 Y18.682 E17.81542
G1 X23.745 Y19.253 E17.85378
G1 X23.173 Y19.767 E17.89215
G1 X22.551 Y20.219 E17.93051
G1 X21.54 Y20.77 E17.98795
G1 X21.024 Y21.001 E18.01616
G1 X20.306 Y21.278 E18.05455
G1 X19.564 Y21.48 E18.09292
G1 X18.805 Y21.603 E18.13128
G1 X18.005 Y21.647 E18.17125
G1 X8.461 Y21.653 E18.6474
G1 X7.693 Y21.614 E18.68577
G1 X6.933 Y21.494 E18.72415
G1 X6.189 Y21.297 E18.76255
G1 X5.47 Y21.024 E18.80092
G1 X4.784 Y20.677 E18.83928
G1 X4.137 Y20.262 E18.87762
G1 X3.591 Y19.841 E18.91202
G1 X2.94 Y19.24 E18.95622
G1 X2.431 Y18.663 E18.99461
G1 X1.985 Y18.037 E19.03296
G1 X1.606 Y17.367 E19.07136
G1 X1.299 Y16.662 E19.10972
G1 X1.067 Y15.929 E19.14808
G1 X0.915 Y15.241 E19.18323
G1 X0.805 Y14.368 E19.22713
G1 X0.123 Y14.261 E19.26157
G0 F3600 X0.166 Y13.861
G1 F1800 X-0.006 Y13.814 E19.27047
G1 X-.391 Y13.906 E19.29022
G1 X-1.133 Y14.001 E19.32754
G1 X-1.783 Y14.02 E19.35998
G1 X-1.81 Y14.583 E19.3881
G1 X-1.926 Y15.322 E19.42542
G1 X-2.135 Y16.113 E19.46624
G1 X-2.44 Y16.916 E19.50909
G1 X-2.777 Y17.584 E19.54642
G1 X-3.185 Y18.211 E19.58374
G1 X-3.656 Y18.792 E19.62106
G1 X-4.187 Y19.319 E19.65838
G1 X-5.086 Y20.009 E19.71492
G1 X-5.871 Y20.469 E19.76031
G1 X-6.554 Y20.776 E19.79767
G1 X-7.265 Y21.009 E19.835
G1 X-7.997 Y21.164 E19.87233
G1 X-9.055 Y21.248 E19.92528
G1 X-11.393 Y21.256 E20.04192
G1 X-14.992 Y21.237 E20.22148
G1 X-18.011 Y21.232 E20.3721
G1 X-18.758 Y21.191 E20.40942
G1 X-19.497 Y21.07 E20.44678
G1 X-20.262 Y20.871 E20.48622
G1 X-21.129 Y20.556 E20.53224
G1 X-21.801 Y20.228 E20.56955
G1 X-22.435 Y19.829 E20.60692
G1 X-23.258 Y19.161 E20.6598
G1 X-23.889 Y18.509 E20.70507
G1 X-24.349 Y17.919 E20.74239
G1 X-24.743 Y17.283 E20.77972
G1 X-25.068 Y16.609 E20.81705
G1 X-25.364 Y15.793 E20.86036
G1 X-25.571 Y15.074 E20.89768
G1 X-25.701 Y14.337 E20.93502
G1 X-25.751 Y13.5 E20.97685
G1 X-25.752 Y-.499 E21.67527
G1 X-25.712 Y-1.246 E21.71259
G1 X-25.593 Y-1.985 E21.74993
G1 X-25.395 Y-2.706 E21.78723
G1 X-25.094 Y-3.475 E21.82843
G1 X-25.316 Y-3.654 E21.84266
G1 X-25.846 Y-4.182 E21.87999
G1 X-26.316 Y-4.764 E21.91731
G1 X-26.721 Y-5.393 E21.95463
G1 X-27.12 Y-6.186 E21.99892
G1 X-27.846 Y-8.216 E22.10648
G1 X-28.06 Y-8.933 E22.14381
G1 X-28.196 Y-9.669 E22.18115
G1 X-28.253 Y-10.414 E22.21843
G1 X-28.23 Y-11.162 E22.25576
G1 X-28.119 Y-11.949 E22.29541
G1 X-27.587 Y-14.605 E22.43055
G1 X-27.401 Y-15.329 E22.46785
G1 X-27.139 Y-16.03 E22.50518
G1 X-26.803 Y-16.699 E22.54253
G1 X-26.398 Y-17.328 E22.57986
G1 X-25.929 Y-17.91 E22.61715
G1 X-25.399 Y-18.439 E22.65451
G1 X-24.835 Y-18.895 E22.69069
G1 X-24.065 Y-19.454 E22.73816
G1 X-23.437 Y-19.86 E22.77547
G1 X-22.77 Y-20.197 E22.81275
G1 X-22.07 Y-20.461 E22.85008
G1 X-21.346 Y-20.649 E22.8874
G1 X-20.606 Y-20.759 E22.92472
G1 X-19.953 Y-20.789 E22.95733
G1 X-19.003 Y-20.789 E23.00473
G1 X-18.256 Y-20.749 E23.04205
G1 X-17.518 Y-20.63 E23.07935
G1 X-16.796 Y-20.432 E23.1167
G1 X-16.1 Y-20.159 E23.154
G1 X-15.437 Y-19.812 E23.19133
G1 X-14.889 Y-19.453 E23.22401
G1 X-14.38 Y-19.084 E23.25538
G1 X-14.284 Y-19.097 E23.26021
G1 X-13.575 Y-19.423 E23.29914
G1 X-12.88 Y-19.699 E23.33645
G1 X-12.159 Y-19.899 E23.37378
G1 X-11.421 Y-20.021 E23.4111
G1 X-10.649 Y-20.064 E23.44967
G1 X-9.277 Y-20.064 E23.51812
G1 X-8.53 Y-20.024 E23.55544
G1 X-8.448 Y-20.011 E23.55959
G1 X-7.156 Y-20.11 E23.62423
G1 X-6.716 Y-20.316 E23.64847
G1 X-6.009 Y-20.559 E23.68577
G1 X-5.279 Y-20.725 E23.72312
G1 X-4.609 Y-20.807 E23.7568
G1 X-3.877 Y-21.114 E23.7964
G1 X-3.159 Y-21.324 E23.83372
G1 X-2.287 Y-21.479 E23.8779
G1 X1.002 Y-21.663 E24.04225
G1 X2.059 Y-21.642 E24.09499
G1 X5.303 Y-21.332 E24.25758
G1 X6.043 Y-21.221 E24.29491
G1 X6.766 Y-21.032 E24.33219
G1 X7.466 Y-20.767 E24.36953
G1 X8.28 Y-20.341 E24.41537
G1 X9.253 Y-19.748 E24.47222
G1 X10.478 Y-19.748 E24.53333
G1 X11.225 Y-19.708 E24.57065
G1 X11.963 Y-19.589 E24.60795
G1 X12.415 Y-19.465 E24.63133
G1 X12.591 Y-19.473 E24.64012
G1 X13.339 Y-19.467 E24.67744
G1 X14.082 Y-19.381 E24.71476
G1 X14.228 Y-19.348 E24.72222
G1 X14.624 Y-19.379 E24.74204
G1 X15.179 Y-19.706 E24.77418
G1 X15.861 Y-20.014 E24.81151
G1 X16.571 Y-20.248 E24.84881
G1 X17.303 Y-20.405 E24.88616
G1 X18.402 Y-20.492 E24.94116
G1 X19.332 Y-20.492 E24.98756
G1 X20.079 Y-20.452 E25.02488
G1 X20.817 Y-20.333 E25.06217
G1 X21.539 Y-20.135 E25.09952
G1 X22.235 Y-19.862 E25.13682
G1 X22.898 Y-19.515 E25.17416
G1 X23.455 Y-19.149 E25.20741
G1 X24.207 Y-18.601 E25.25383
G1 X24.787 Y-18.129 E25.29114
G1 X25.313 Y-17.598 E25.32843
G1 X25.78 Y-17.013 E25.36577
G1 X26.182 Y-16.382 E25.4031
G1 X26.514 Y-15.712 E25.4404
G1 X26.739 Y-15.115 E25.47223
G1 X27.027 Y-14.232 E25.51857
G1 X27.221 Y-13.509 E25.55592
G1 X27.316 Y-12.901 E25.58662
G1 X27.808 Y-12.501 E25.61825
G1 X28.335 Y-11.97 E25.65558
G1 X28.802 Y-11.386 E25.69288
G1 X29.205 Y-10.756 E25.73019
G1 X29.538 Y-10.086 E25.76752
G1 X29.881 Y-9.109 E25.81918
G1 X30.055 Y-8.307 E25.86012
G1 X30.135 Y-7.563 E25.89746
G1 X30.135 Y-6.815 E25.93477
G1 X30.056 Y-6.071 E25.9721
G1 X29.897 Y-5.34 E26.00942
G1 X29.661 Y-4.63 E26.04675
G1 X29.351 Y-3.95 E26.08403
G1 X28.97 Y-3.306 E26.12137
G1 X28.523 Y-2.706 E26.15869
G1 X28.014 Y-2.158 E26.19601
G1 X27.45 Y-1.667 E26.23331
G1 X26.836 Y-1.239 E26.27065
G1 X26.18 Y-.879 E26.30799
G1 X25.752 Y-.7 E26.33113
G1 X25.748 Y13.566 E27.04287
G1 X25.708 Y14.313 E27.08019
G1 X25.588 Y15.051 E27.11749
G1 X25.39 Y15.773 E27.15484
G1 X24.976 Y16.76 E27.20824
G1 X24.744 Y17.212 E27.23359
G1 X24.367 Y17.859 E27.27094
G1 X23.923 Y18.461 E27.30826
G1 X23.418 Y19.013 E27.34559
G1 X22.857 Y19.507 E27.38288
G1 X22.246 Y19.939 E27.42021
G1 X21.376 Y20.405 E27.46945
G1 X20.86 Y20.636 E27.49766
