; generated by Slic3r 1.2.9 on 2022-12-16 at 13:57:03

; external perimeters extrusion width = 0.40mm
; perimeters extrusion width = 0.48mm
; infill extrusion width = 0.48mm
; solid infill extrusion width = 0.48mm
; top infill extrusion width = 0.48mm

M107
M190 S60 ; set bed temperature
M104 S200 ; set temperature
G28 ; home all axes
G1 Z5 F5000 ; lift nozzle

M109 S200 ; wait for temperature to be reached
G21 ; set units to millimeters
G90 ; use absolute coordinates
M82 ; use absolute distances for extrusion
G92 E0
G1 Z0.400 F1800.000
G1 E-2.00000 F2400.00000
G92 E0
G1 X2.695 Y-15.425 F1800.000
G1 E2.00000 F2400.00000
G1 X4.579 Y-15.096 E2.20439 F1800.000
G1 X5.372 Y-14.907 E2.29158
G1 X5.965 Y-14.719 E2.35804
G1 X7.292 Y-14.246 E2.50859
G1 X8.111 Y-13.891 E2.60408
G1 X10.179 Y-12.811 E2.85341
G1 X11.100 Y-12.228 E2.97001
G1 X16.511 Y-8.150 E3.69420
G1 X17.904 Y-6.731 E3.90671
G1 X18.999 Y-5.203 E4.10763
G1 X20.004 Y-3.079 E4.35881
G1 X20.028 Y-2.990 E4.36864
G1 X20.253 Y-0.837 E4.60010
G1 X20.202 Y-0.230 E4.66512
G1 X20.089 Y0.660 E4.76104
G1 X18.945 Y3.640 E5.10228
G1 X18.097 Y4.829 E5.25838
G1 X17.175 Y5.969 E5.41511
G1 X16.507 Y6.746 E5.52461
G1 X15.261 Y8.047 E5.71719
G1 X13.891 Y9.294 E5.91515
G1 X10.917 Y11.699 E6.32401
G1 X9.113 Y13.042 E6.56439
G1 X8.539 Y13.424 E6.63811
G1 X6.404 Y14.695 E6.90370
G1 X5.036 Y15.302 E7.06366
G1 X4.559 Y15.437 E7.11662
G1 X1.966 Y16.069 E7.40195
G1 X1.350 Y16.188 E7.46900
G1 X-0.084 Y16.398 E7.62385
G1 X-0.973 Y16.495 E7.71949
G1 X-1.674 Y16.530 E7.79451
G1 X-2.659 Y16.526 E7.89979
G1 X-4.056 Y16.462 E8.04930
G1 X-6.374 Y15.919 E8.30378
G1 X-8.908 Y14.823 E8.59885
G1 X-9.745 Y14.393 E8.69946
G1 X-10.387 Y13.979 E8.78112
G1 X-10.585 Y13.835 E8.80724
G1 X-11.274 Y13.259 E8.90325
G1 X-13.342 Y11.278 E9.20937
G1 X-14.550 Y10.038 E9.39445
G1 X-15.065 Y9.442 E9.47858
G1 X-15.605 Y8.740 E9.57328
G1 X-16.226 Y7.769 E9.69645
G1 X-16.998 Y6.292 E9.87462
G1 X-17.442 Y5.206 E9.99999
G1 X-17.867 Y3.741 E10.16301
G1 X-18.195 Y2.440 E10.30646
G1 X-18.364 Y1.496 E10.40898
G1 X-18.430 Y0.625 E10.50231
G1 X-18.433 Y0.361 E10.53051
G1 X-18.397 Y-0.409 E10.61290
G1 X-18.263 Y-1.665 E10.74792
G1 X-18.069 Y-3.153 E10.90837
G1 X-17.744 Y-4.469 E11.05327
G1 X-17.228 Y-5.893 E11.21509
G1 X-16.998 Y-6.465 E11.28101
G1 X-16.694 Y-7.103 E11.35654
G1 X-16.148 Y-8.108 E11.47880
G1 X-15.454 Y-9.142 E11.61192
G1 X-14.174 Y-10.660 E11.82416
G1 X-13.673 Y-11.201 E11.90299
G1 X-12.849 Y-11.952 E12.02216
G1 X-12.178 Y-12.470 E12.11277
G1 X-11.240 Y-13.076 E12.23218
G1 X-10.587 Y-13.425 E12.31129
G1 X-8.791 Y-14.276 E12.52375
G1 X-7.615 Y-14.684 E12.65679
G1 X-6.516 Y-14.953 E12.77773
G1 X-5.882 Y-15.076 E12.84670
G1 X-1.906 Y-15.654 E13.27623
G1 X-0.635 Y-15.717 E13.41222
G1 X0.918 Y-15.646 E13.57837
G1 X1.970 Y-15.541 E13.69135 F1800.000
G1 X2.636 Y-15.435 E13.76344
G1 E11.76344 F2400.00000
G92 E0
G1 X-5.932 Y5.307 F1800.000
G1 E2.00000 F2400.00000
G1 X-0.351 Y5.711 E2.59814 F1800.000
G1 X-3.179 Y8.453 E3.01919
G1 X-4.475 Y7.380 E3.19908
G1 X-6.444 Y5.691 E3.47641
G1 X-5.653 Y5.679 E3.56103
G1 X-5.896 Y5.355 E3.60436
G1 X-5.998 Y4.912 F1800.000
G1 X-6.008 Y4.157 F1800.000
G1 X-6.670 Y3.218 E3.72712 F1800.000
G1 X-7.047 Y2.523 E3.81174
G1 X-7.250 Y2.010 E3.87066
G1 X-7.399 Y1.483 E3.92921
G1 X-7.512 Y0.726 E4.01103
G1 X-7.526 Y0.113 E4.07653
G1 X-7.481 Y-0.464 E4.13838
G1 X-7.374 Y-1.019 E4.19879
G1 X-7.205 Y-1.547 E4.25811
G1 X-6.972 Y-2.044 E4.31673
G1 X-6.675 Y-2.501 E4.37497
G1 X-6.316 Y-2.910 E4.43312
G1 X-5.900 Y-3.262 E4.49134
G1 X-5.436 Y-3.549 E4.54974
G1 X-4.925 Y-3.770 E4.60923
G1 X-4.382 Y-3.917 E4.66932
G1 X-3.773 Y-3.999 E4.73500
G1 X-2.813 Y-3.940 E4.83788
G1 X-1.929 Y-3.631 E4.93793
G1 X-1.192 Y-3.154 E5.03177
G1 X-0.588 Y-2.589 E5.12025
G1 X-0.080 Y-1.988 E5.20433
G1 X1.113 Y-0.359 E5.42012
G1 X1.428 Y-0.005 E5.47083
G1 X1.688 Y0.210 E5.50682
G1 X1.866 Y0.293 E5.52785
G1 X2.074 Y0.315 E5.55020
G1 X2.163 Y0.141 E5.57105
G1 X2.215 Y-0.047 E5.59197
G1 X2.228 Y-0.184 E5.60659
G1 X2.209 Y-0.497 E5.64012
G1 X2.068 Y-0.991 E5.69507
G1 X1.882 Y-1.334 E5.73682
G1 X1.627 Y-1.669 E5.78180
G1 X1.504 Y-1.799 E5.80091
G1 X1.122 Y-2.130 E5.85493
G1 X-1.609 Y-4.084 E6.21386
G1 X4.021 Y-4.485 E6.81717
G1 X4.594 Y-3.796 E6.91298
G1 X4.971 Y-3.265 E6.98250
G1 X5.290 Y-2.690 E7.05281
G1 X5.535 Y-2.097 E7.12141
G1 X5.643 Y-1.751 E7.16012
G1 X5.786 Y-1.115 E7.22976
G1 X5.868 Y-0.429 E7.30364
G1 X5.875 Y0.129 E7.36327
G1 X5.814 Y0.678 E7.42234
G1 X5.687 Y1.206 E7.48041
G1 X5.496 Y1.707 E7.53773
G1 X5.243 Y2.175 E7.59455
G1 X4.932 Y2.603 E7.65112
G1 X4.565 Y2.984 E7.70766
G1 X4.149 Y3.314 E7.76442
G1 X3.688 Y3.586 E7.82162
G1 X3.189 Y3.796 E7.87951
G1 X2.658 Y3.940 E7.93834
G1 X2.072 Y4.020 E8.00155
G1 X1.030 Y3.973 E8.11305
G1 X0.081 Y3.685 E8.21899
G1 X-0.717 Y3.217 E8.31789
G1 X-1.366 Y2.644 E8.41046
G1 X-1.895 Y2.029 E8.49720
G1 X-2.335 Y1.420 E8.57751
G1 X-3.056 Y0.355 E8.71496
G1 X-3.344 Y-0.006 E8.76434
G1 X-3.823 Y-0.448 E8.83391
G1 X-3.896 Y0.203 E8.90394
G1 X-3.893 Y0.313 E8.91566
G1 X-3.859 Y0.564 E8.94274
G1 X-3.791 Y0.823 E8.97136
G1 X-3.611 Y1.230 E9.01888
G1 X-3.277 Y1.701 E9.08064
G1 X-1.213 Y3.816 E9.39650
G1 X-5.948 Y4.153 E9.90386
G1 X-5.656 Y3.416 F1800.000
G1 X-6.062 Y2.841 E9.97907 F1800.000
G1 X-6.399 Y2.220 E10.05457
G1 X-6.572 Y1.781 E10.10502
G1 X-6.699 Y1.332 E10.15490
G1 X-6.799 Y0.664 E10.22709
G1 X-6.812 Y0.133 E10.28389
G1 X-6.772 Y-0.368 E10.33759
G1 X-6.681 Y-0.842 E10.38917
G1 X-6.539 Y-1.286 E10.43898
G1 X-6.346 Y-1.696 E10.48742
G1 X-6.104 Y-2.068 E10.53491
G1 X-5.814 Y-2.399 E10.58188
G1 X-5.479 Y-2.682 E10.62878
G1 X-5.105 Y-2.914 E10.67588
G1 X-4.688 Y-3.094 E10.72436
G1 X-4.240 Y-3.216 E10.77399
G1 X-3.748 Y-3.282 E10.82710
G1 X-2.955 Y-3.233 E10.91198
G1 X-2.245 Y-2.985 E10.99238
G1 X-1.634 Y-2.589 E11.07025
G1 X-1.106 Y-2.096 E11.14743
G1 X-0.642 Y-1.546 E11.22441
G1 X0.557 Y0.090 E11.44118
G1 X0.931 Y0.511 E11.50141
G1 X1.303 Y0.818 E11.55290
G1 X1.672 Y0.991 E11.59643
G1 X2.069 Y1.033 E11.63917
G1 X2.260 Y0.990 E11.66000
G1 X2.478 Y0.871 E11.68656
G1 X2.567 Y0.796 E11.69910
G1 X2.746 Y0.569 E11.72997
G1 X2.880 Y0.256 E11.76634
G1 X2.922 Y0.063 E11.78744
G1 X2.943 Y-0.156 E11.81099
G1 X2.938 Y-0.405 E11.83758
G1 X2.913 Y-0.625 E11.86124
G1 X2.796 Y-1.090 E11.91250
G1 X2.717 Y-1.293 E11.93574
G1 X2.483 Y-1.723 E11.98810
G1 X2.172 Y-2.132 E12.04307
G1 X1.998 Y-2.316 E12.07006
G1 X1.564 Y-2.691 E12.13141
G1 X0.417 Y-3.513 E12.28220
G1 X3.707 Y-3.746 E12.63468
G1 X4.028 Y-3.360 E12.68840
G1 X4.366 Y-2.884 E12.75077
G1 X4.645 Y-2.380 E12.81244
G1 X4.862 Y-1.853 E12.87332
G1 X4.953 Y-1.565 E12.90554
G1 X5.081 Y-0.995 E12.96808
G1 X5.154 Y-0.382 E13.03398
G1 X5.160 Y0.094 E13.08490
G1 X5.109 Y0.555 E13.13450
G1 X5.004 Y0.995 E13.18283
G1 X4.846 Y1.409 E13.23020
G1 X4.638 Y1.793 E13.27688
G1 X4.383 Y2.143 E13.32317
G1 X4.084 Y2.455 E13.36934
G1 X3.744 Y2.724 E13.41568
G1 X3.367 Y2.947 E13.46250
G1 X2.956 Y3.119 E13.51012
G1 X2.516 Y3.239 E13.55886
G1 X2.040 Y3.303 E13.61023
G1 X1.151 Y3.263 E13.70531
G1 X0.369 Y3.027 E13.79261
G1 X-0.296 Y2.636 E13.87508
G1 X-0.857 Y2.141 E13.95501
G1 X-1.334 Y1.586 E14.03326
G1 X-1.750 Y1.010 E14.10920
G1 X-2.481 Y-0.069 E14.24848
G1 X-2.820 Y-0.494 E14.30665
G1 X-3.150 Y-0.799 E14.35467
G1 X-3.469 Y-0.967 E14.39321
G1 X-3.830 Y-1.010 E14.43209
G1 X-4.040 Y-0.959 E14.45512
G1 X-4.233 Y-0.839 E14.47949
G1 X-4.390 Y-0.656 E14.50521
G1 X-4.528 Y-0.364 E14.53972
G1 X-4.567 Y-0.222 E14.55543
G1 X-4.611 Y0.173 E14.59797
G1 X-4.606 Y0.370 E14.61903
G1 X-4.562 Y0.703 E14.65489
G1 X-4.470 Y1.050 E14.69333
G1 X-4.318 Y1.420 E14.73604
G1 X-4.225 Y1.596 E14.75728
G1 X-3.963 Y1.990 E14.80795
G1 X-3.811 Y2.177 E14.83362
G1 X-2.800 Y3.213 E14.98837
G1 X-5.597 Y3.412 E15.28805
G1 X-6.020 Y3.584 F1800.000
G1 E13.28805 F2400.00000
G92 E0
G1 X-3.923 Y-0.263 F1800.000
G1 X-2.201 Y2.244 F1800.000
G1 X0.851 Y4.512 F1800.000
G1 X5.473 Y4.143 F1800.000
G1 X8.142 Y-1.581 F1800.000
G1 X6.802 Y-3.477 F1800.000
G1 X5.957 Y-4.423 F1800.000
G1 X5.676 Y-4.718 F1800.000
G1 X5.030 Y-5.247 F1800.000
G1 X4.465 Y-5.599 F1800.000
G1 X4.336 Y-5.223 F1800.000
G1 E2.00000 F2400.00000
G1 X-3.260 Y-4.683 E2.81404 F1800.000
G1 X-3.799 Y-4.716 E2.87175
G1 X-4.525 Y-4.619 E2.94999
G1 X-5.161 Y-4.445 E3.02053
G1 X-5.767 Y-4.184 E3.09103
G1 X-6.321 Y-3.841 E3.16073
G1 X-6.818 Y-3.420 E3.23029
G1 X-7.246 Y-2.933 E3.29960
G1 X-7.597 Y-2.392 E3.36859
G1 X-7.871 Y-1.809 E3.43739
G1 X-8.067 Y-1.196 E3.50624
G1 X-8.190 Y-0.560 E3.57547
G1 X-8.241 Y0.093 E3.64548
G1 X-8.225 Y0.787 E3.71966
G1 X-8.098 Y1.633 E3.81112
G1 X-7.927 Y2.238 E3.87835
G1 X-7.696 Y2.825 E3.94574
G1 X-7.175 Y3.785 E4.06244
G1 X-8.728 Y3.672 E4.22888
G1 X-9.325 Y2.531 E4.36654
G1 X-9.646 Y1.417 E4.49046
G1 X-9.882 Y0.471 E4.59469
G1 X-9.890 Y0.377 E4.60473
G1 X-9.787 Y-0.600 E4.70977
G1 X-9.635 Y-1.767 E4.83549
G1 X-9.126 Y-3.138 E4.99186
G1 X-8.729 Y-3.869 E5.08076
G1 X-7.879 Y-4.886 E5.22246
G1 X-7.513 Y-5.280 E5.27997
G1 X-7.083 Y-5.612 E5.33799
G1 X-6.606 Y-5.866 E5.39574
G1 X-5.404 Y-6.430 E5.53767
G1 X-4.579 Y-6.632 E5.62848
G1 X-2.724 Y-6.877 E5.82848
G1 X-1.405 Y-7.024 E5.97035
G1 X-0.792 Y-7.167 E6.03759
G1 X0.430 Y-7.116 E6.16838
G1 X0.911 Y-7.057 E6.22019
G1 X1.862 Y-6.815 E6.32503
G1 X3.018 Y-6.687 E6.44935
G1 X4.310 Y-6.239 E6.59558
G1 X6.038 Y-5.336 E6.80396
G1 X6.452 Y-4.990 E6.86160
G1 X8.509 Y-3.418 E7.13830
G1 X10.254 Y-2.105 E7.37176
G1 X11.103 Y-1.512 E7.48242
G1 X11.171 Y-1.400 E7.49648
G1 X11.406 Y-1.141 E7.53386
G1 X11.635 Y-0.818 E7.57614
G1 X11.316 Y-0.369 E7.63501
G1 X10.202 Y0.981 E7.82209
G1 X9.418 Y1.815 E7.94447
G1 X8.448 Y2.710 E8.08547
G1 X7.746 Y3.283 E8.18238
G1 X7.326 Y3.588 E8.23786
G1 X5.779 Y4.875 E8.45294
G1 X4.090 Y6.131 E8.67795
G1 X2.154 Y7.283 E8.91879
G1 X1.530 Y5.876 E9.08329
G1 X2.804 Y4.641 E9.27302
G1 X3.422 Y4.473 E9.34144
G1 X4.010 Y4.226 E9.40961
G1 X4.554 Y3.904 E9.47719
G1 X5.047 Y3.514 E9.54436
G1 X5.480 Y3.062 E9.61129
G1 X5.849 Y2.557 E9.67813
G1 X6.147 Y2.006 E9.74509
G1 X6.371 Y1.418 E9.81236
G1 X6.519 Y0.801 E9.88016
G1 X6.589 Y0.164 E9.94870
G1 X6.581 Y-0.476 E10.01706
G1 X6.491 Y-1.236 E10.09891
G1 X6.333 Y-1.937 E10.17565
G1 X6.207 Y-2.340 E10.22084
G1 X5.935 Y-3.000 E10.29717
G1 X5.576 Y-3.646 E10.37613
G1 X5.161 Y-4.231 E10.45279
G1 X4.375 Y-5.177 E10.58428
G1 X8.654 Y-0.396 F1800.000
G1 X6.013 Y3.651 F1800.000
G1 X3.811 Y5.254 F1800.000
G1 X2.883 Y5.661 F1800.000
G1 X2.553 Y6.007 F1800.000
G1 X1.818 Y6.023 F1800.000
G1 X1.028 Y5.209 F1800.000
G1 X1.291 Y5.114 F1800.000
G1 X-7.445 Y4.481 E11.52048 F1800.000
G1 X-7.066 Y4.986 E11.58796
G1 X-8.495 Y5.008 E11.74071
G1 X-8.918 Y4.595 E11.80383
G1 X-9.337 Y4.049 E11.87742
G1 X-9.991 Y2.798 E12.02830
G1 X-10.336 Y1.602 E12.16134
G1 X-10.584 Y0.607 E12.27094
G1 X-10.604 Y0.344 E12.29921
G1 X-10.497 Y-0.684 E12.40960
G1 X-10.333 Y-1.939 E12.54494
G1 X-9.778 Y-3.434 E12.71542
G1 X-9.322 Y-4.272 E12.81735
G1 X-8.415 Y-5.358 E12.96861
G1 X-7.996 Y-5.810 E13.03446
G1 X-7.472 Y-6.214 E13.10521
G1 X-6.926 Y-6.505 E13.17130
G1 X-5.643 Y-7.107 E13.32279
G1 X-4.711 Y-7.335 E13.42537
G1 X-2.810 Y-7.586 E13.63030
G1 X-1.526 Y-7.729 E13.76843
G1 X-0.850 Y-7.887 E13.84261
G1 X0.501 Y-7.828 E13.98721
G1 X0.813 Y-7.778 E14.02092
G1 X1.022 Y-7.765 E14.04329
G1 X1.990 Y-7.519 E14.15006
G1 X3.176 Y-7.388 E14.27765
G1 X4.594 Y-6.896 E14.43810
G1 X6.437 Y-5.934 E14.66034
G1 X6.898 Y-5.548 E14.72456
G1 X8.940 Y-3.987 E14.99931
G1 X10.673 Y-2.683 E15.23110
G1 X11.637 Y-2.011 E15.35674
G1 X11.747 Y-1.827 E15.37961
G1 X11.963 Y-1.589 E15.41398
G1 X12.405 Y-0.967 E15.49549
G1 X12.359 Y-0.604 E15.53460
G1 X11.883 Y0.065 E15.62240
G1 X10.738 Y1.453 E15.81473
G1 X9.920 Y2.323 E15.94228
G1 X8.917 Y3.249 E16.08831
G1 X8.182 Y3.849 E16.18970
G1 X7.765 Y4.152 E16.24481
G1 X6.221 Y5.436 E16.45946
G1 X4.487 Y6.726 E16.69047
G1 X2.583 Y7.859 E16.92726
G1 X1.721 Y8.070 E17.02212
G1 X1.133 Y6.742 E17.17730
G1 X-0.226 Y7.012 E17.32536
G1 X-0.375 Y6.729 E17.35960
G1 X1.248 Y5.155 E17.60119
G1 X0.711 Y7.554 F1800.000
G1 X-1.862 Y8.107 E17.88252 F1800.000
G1 X-1.788 Y8.897 E17.96738
G1 X-0.859 Y8.927 E18.06670
G1 X-0.837 Y9.319 E18.10860
G1 X-1.672 Y9.415 E18.19846
G1 X-2.626 Y9.412 E18.30046
G1 X-3.615 Y9.361 E18.40631
G1 X-6.063 Y8.302 E18.69139
G1 X-6.370 Y8.104 E18.73049
G1 X-7.236 Y7.200 E18.86427
G1 X-8.244 Y6.314 E19.00770
G1 X-9.190 Y5.312 E19.15501
G1 X-9.445 Y5.081 E19.19170
G1 X-9.941 Y4.435 E19.27882
G1 X-10.657 Y3.065 E19.44401
G1 X-11.026 Y1.788 E19.58617
G1 X-11.286 Y0.744 E19.70113
G1 X-11.317 Y0.525 E19.72478
G1 X-11.319 Y0.310 E19.74773
G1 X-11.206 Y-0.767 E19.86347
G1 X-11.031 Y-2.112 E20.00844
G1 X-10.430 Y-3.731 E20.19302
G1 X-9.916 Y-4.676 E20.30798
G1 X-8.951 Y-5.830 E20.46881
G1 X-8.479 Y-6.339 E20.54298
G1 X-7.861 Y-6.816 E20.62647
G1 X-7.246 Y-7.144 E20.70091
G1 X-5.882 Y-7.783 E20.86195
G1 X-4.843 Y-8.038 E20.97631
G1 X-2.897 Y-8.295 E21.18616
G1 X-1.647 Y-8.434 E21.32056
G1 X-0.908 Y-8.606 E21.40168
G1 X0.573 Y-8.540 E21.56009
G1 X0.891 Y-8.489 E21.59459
G1 X1.132 Y-8.474 E21.62038
G1 X2.118 Y-8.224 E21.72907
G1 X3.334 Y-8.089 E21.85992
G1 X4.878 Y-7.554 E22.03459
G1 X6.836 Y-6.531 E22.27070
G1 X7.344 Y-6.106 E22.34150
G1 X9.372 Y-4.556 E22.61430
G1 X11.092 Y-3.261 E22.84442
G1 X12.171 Y-2.509 E22.98504
G1 X12.323 Y-2.255 E23.01672
G1 X12.520 Y-2.037 E23.04808
G1 X13.148 Y-1.154 E23.16393
G1 X13.045 Y-0.337 E23.25196
G1 X12.451 Y0.500 E23.36164
G1 X11.274 Y1.926 E23.55924
G1 X10.423 Y2.830 E23.69196
G1 X9.385 Y3.789 E23.84301
G1 X8.618 Y4.415 E23.94888
G1 X8.203 Y4.716 E24.00363
G1 X6.663 Y5.998 E24.21784
G1 X4.884 Y7.321 E24.45486
G1 X2.856 Y8.527 E24.70699
G1 X0.320 Y9.147 E24.98613
G1 X0.171 Y8.830 E25.02361
G1 X1.003 Y8.213 E25.13440
G1 X0.736 Y7.609 E25.20496
G1 X0.601 Y7.170 F1800.000
G1 X-0.614 Y7.041 F1800.000
G1 X-1.895 Y7.730 E25.36047 F1800.000
G1 X-3.806 Y8.665 F1800.000
G1 X-5.739 Y7.466 E25.87588 F1800.000
G1 X-6.676 Y6.586 E26.16712
G1 X-8.089 Y5.359 E26.59140
G1 X-8.174 Y3.354 F1800.000
G1 X-8.660 Y2.264 E26.86191 F1800.000
G1 X-8.802 Y1.762 E26.98030
G1 X-8.920 Y1.222 E27.10547
G1 X-8.997 Y0.828 E27.19652
G1 X-9.059 Y0.362 E27.30299
G1 X-8.980 Y-0.642 E27.53126
G1 X-8.823 Y-1.565 E27.74352
G1 X-8.623 Y-2.137 E27.88069
G1 X-8.351 Y-2.785 E28.04010
G1 X-8.002 Y-3.374 E28.19526
G1 X-7.351 Y-4.146 E28.42392
G1 X-6.818 Y-4.440 F1800.000
G1 X-7.307 Y-4.929 E28.49795 F1800.000
G1 X-6.731 Y-5.366 E28.57545
G1 X-5.907 Y-4.542 E28.70037
G1 X-5.202 Y-4.850 E28.78286
G1 X-6.052 Y-5.700 E28.91178
G1 X-5.363 Y-6.024 E28.99342
G1 X-4.396 Y-5.057 E29.14002
G1 X-3.468 Y-5.142 E29.23988
G1 X-4.543 Y-6.216 E29.40279
G1 X-3.648 Y-6.334 E29.49956
G1 X-2.478 Y-5.165 E29.67688
G1 X-1.532 Y-5.232 E29.77852
G1 X-2.752 Y-6.451 E29.96338
G1 X-1.841 Y-6.553 E30.06165
G1 X-0.587 Y-5.299 E30.25177
G1 X0.359 Y-5.367 E30.35340
G1 X-0.981 Y-6.707 E30.55661
G1 X0.049 Y-6.689 E30.66710
G1 X1.305 Y-5.434 E30.85745
G1 X1.282 Y-6.470 E30.96851
G1 X1.632 Y-6.119 E31.02162
G1 X2.061 Y-5.926 F1800.000
G1 X2.843 Y-5.910 E31.19882 F1800.000
G1 X4.038 Y-5.752 E31.47215
G1 X4.039 Y-5.757 F1800.000
G1 X4.489 Y-5.663 E31.52126 F1800.000
G1 X4.546 Y-5.636 E31.52804
G1 X5.039 Y-5.238 E31.59581
G1 X5.039 Y-5.238 F1800.000
G1 X5.646 Y-4.748 E31.77242 F1800.000
G1 X6.223 Y-4.129 E31.96427
G1 X10.916 Y-0.822 F1800.000
G1 X10.417 Y-1.321 E32.04792 F1800.000
G1 X10.568 Y-0.050 E32.19959
G1 X6.625 Y-3.993 E32.86033
G1 X6.468 Y-3.031 E32.97585
G1 X10.062 Y0.563 E33.57818
G1 X9.528 Y1.149 E33.67210
G1 X6.922 Y-1.457 E34.10873
G1 X7.022 Y-0.238 E34.25367
G1 X8.968 Y1.709 E34.57982
G1 X8.393 Y2.253 E34.67367
G1 X6.936 Y0.796 E34.91785
G1 X6.693 Y1.673 E35.02563
G1 X7.787 Y2.767 E35.20901
G1 X7.151 Y3.251 E35.30368
G1 X6.435 Y2.534 E35.42375
G1 X6.372 Y3.317 F1800.000
G1 X5.577 Y4.057 E35.66979 F1800.000
G1 X5.309 Y4.277 E35.74854
G1 X4.960 Y4.543 E35.84789
G1 X3.985 Y5.190 E36.11308
G1 X3.455 Y5.377 F1800.000
G1 X3.064 Y4.986 E36.17330 F1800.000
G1 X2.510 Y5.461 E36.25284
G1 X3.243 Y6.194 E36.36577
G1 X2.597 Y6.578 E36.44759
G1 X2.240 Y6.221 E36.50258
G1 X2.324 Y4.609 F1800.000
G1 X0.827 Y4.521 E36.66287 F1800.000
G1 X0.829 Y4.508 F1800.000
