; generated by Slic3r 1.2.9 on 2022-12-16 at 14:16:33

; external perimeters extrusion width = 0.40mm
; perimeters extrusion width = 0.48mm
; infill extrusion width = 0.48mm
; solid infill extrusion width = 0.48mm
; top infill extrusion width = 0.48mm

M107
M190 S60 ; set bed temperature
M104 S200 ; set temperature
G28 ; home all axes
G1 Z5 F5000 ; lift nozzle

M109 S200 ; wait for temperature to be reached
G21 ; set units to millimeters
G90 ; use absolute coordinates
M82 ; use absolute distances for extrusion
G92 E0
G1 Z0.400 F1800.000
G1 E-2.00000 F2400.00000
G92 E0
G1 X5.180 Y13.864 F1800.000
G1 E2.00000 F2400.00000
G1 X4.215 Y14.225 E2.11014 F1800.000
G1 X2.986 Y14.555 E2.24612
G1 X-0.977 Y15.227 E2.67575
G1 X-1.617 Y15.304 E2.74471
G1 X-2.746 Y15.385 E2.86566
G1 X-3.991 Y15.359 E2.99876
G1 X-5.671 Y15.145 E3.17977
G1 X-6.690 Y14.968 E3.29037
G1 X-7.770 Y14.679 E3.40983
G1 X-8.567 Y14.392 E3.50043
G1 X-9.582 Y13.929 E3.61963
G1 X-10.479 Y13.419 E3.72997
G1 X-11.909 Y12.516 E3.91071
G1 X-12.887 Y11.744 E4.04389
G1 X-13.716 Y10.955 E4.16625
G1 X-14.201 Y10.441 E4.24178
G1 X-14.595 Y9.968 E4.30759
G1 X-15.522 Y8.771 E4.46940
G1 X-16.235 Y7.618 E4.61435
G1 X-16.877 Y6.261 E4.77479
G1 X-17.391 Y5.102 E4.91029
G1 X-17.738 Y4.133 E5.02029
G1 X-17.942 Y3.284 E5.11364
G1 X-18.070 Y2.338 E5.21568
G1 X-18.157 Y0.993 E5.35972
G1 X-18.202 Y-0.532 E5.52278
G1 X-18.112 Y-1.701 E5.64815
G1 X-17.831 Y-3.337 E5.82556
G1 X-17.537 Y-4.452 E5.94881
G1 X-17.236 Y-5.296 E6.04460
G1 X-16.929 Y-6.019 E6.12854
G1 X-16.102 Y-7.679 E6.32682
G1 X-14.796 Y-10.097 E6.62050
G1 X-14.182 Y-11.042 E6.74104
G1 X-13.556 Y-11.787 E6.84502
G1 X-13.042 Y-12.288 E6.92176
G1 X-10.954 Y-14.120 E7.21864
G1 X-8.915 Y-15.348 E7.47301
G1 X-7.561 Y-15.855 E7.62757
G1 X-6.669 Y-16.146 E7.72788
G1 X-5.991 Y-16.328 E7.80289
G1 X-5.144 Y-16.502 E7.89539
G1 X-3.686 Y-16.748 E8.05338
G1 X-3.063 Y-16.823 E8.12041
G1 X-0.444 Y-17.015 E8.40113
G1 X0.011 Y-17.032 E8.44983
G1 X1.584 Y-16.874 E8.61887
G1 X4.010 Y-16.320 E8.88483 F1800.000
G1 X4.675 Y-16.132 E8.95862
G1 X7.061 Y-15.315 E9.22820
G1 X10.372 Y-14.033 E9.60778
G1 X12.057 Y-13.266 E9.80568
G1 X13.280 Y-12.614 E9.95377
G1 X14.514 Y-11.878 E10.10735
G1 X15.741 Y-11.076 E10.26402
G1 X16.911 Y-10.206 E10.41984
G1 X18.915 Y-7.720 E10.76116
G1 X19.291 Y-6.917 E10.85603
G1 X19.529 Y-6.347 E10.92198
G1 X19.975 Y-4.228 E11.15347
G1 X19.979 Y-4.141 E11.16274
G1 X19.674 Y-1.812 E11.41383
G1 X19.111 Y-0.043 E11.61232
G1 X18.214 Y1.753 E11.82682
G1 X14.311 Y7.304 E12.55219
G1 X13.612 Y8.143 E12.66887
G1 X11.976 Y9.804 E12.91813
G1 X11.304 Y10.394 E13.01369
G1 X9.928 Y11.440 E13.19847
G1 X9.685 Y11.609 E13.23013
G1 X8.987 Y12.033 E13.31739
G1 X6.984 Y13.088 E13.55937
G1 X6.103 Y13.502 E13.66338
G1 X5.236 Y13.843 E13.76297
G1 E11.76297 F2400.00000
G92 E0
G1 X-7.300 Y-4.142 F1800.000
G1 E2.00000 F2400.00000
G1 X-7.147 Y-4.589 E2.05047 F1800.000
G1 X-7.913 Y-4.355 E2.13610
G1 X-6.544 Y-6.595 E2.41667
G1 X-5.623 Y-8.044 E2.60029
G1 X-2.033 Y-6.271 E3.02833
G1 X-7.245 Y-4.165 E3.62919
G1 X-7.699 Y-4.179 F1800.000
G1 X-7.000 Y-3.039 F1800.000
G1 X-2.333 Y-4.187 E4.14296 F1800.000
G1 X-3.648 Y-1.541 E4.45882
G1 X-3.821 Y-0.989 E4.52059
G1 X-3.868 Y-0.547 E4.56811
G1 X-3.853 Y-0.280 E4.59674
G1 X-3.808 Y-0.030 E4.62381
G1 X-3.777 Y0.075 E4.63554
G1 X-3.507 Y0.672 E4.70556
G1 X-3.188 Y0.105 E4.77513
G1 X-3.024 Y-0.327 E4.82452
G1 X-2.665 Y-1.562 E4.96197
G1 X-2.433 Y-2.277 E5.04229
G1 X-2.118 Y-3.025 E5.12902
G1 X-1.676 Y-3.769 E5.22159
G1 X-1.061 Y-4.460 E5.32050
G1 X-0.246 Y-5.025 E5.42644
G1 X0.735 Y-5.390 E5.53832
G1 X1.339 Y-5.495 E5.60386
G1 X1.863 Y-5.519 E5.65996
G1 X2.403 Y-5.473 E5.71785
G1 X2.925 Y-5.355 E5.77505
G1 X3.422 Y-5.169 E5.83181
G1 X3.888 Y-4.918 E5.88836
G1 X4.316 Y-4.607 E5.94492
G1 X4.700 Y-4.240 E6.00175
G1 X5.036 Y-3.821 E6.05907
G1 X5.319 Y-3.358 E6.11713
G1 X5.545 Y-2.853 E6.17621
G1 X5.710 Y-2.320 E6.23584
G1 X5.842 Y-1.642 E6.30972
G1 X5.903 Y-0.977 E6.38107
G1 X5.889 Y-0.318 E6.45156
G1 X5.799 Y0.333 E6.52179
G1 X5.636 Y0.972 E6.59233
G1 X5.214 Y2.102 E6.72123
G1 X-0.284 Y3.454 E7.32642
G1 X1.715 Y0.755 E7.68534
G1 X1.977 Y0.323 E7.73937
G1 X2.054 Y0.162 E7.75847
G1 X2.194 Y-0.235 E7.80346
G1 X2.266 Y-0.619 E7.84521
G1 X2.248 Y-1.133 E7.90016
G1 X2.170 Y-1.437 E7.93369
G1 X2.116 Y-1.562 E7.94832
G1 X2.008 Y-1.726 E7.96923
G1 X1.871 Y-1.864 E7.99008
G1 X1.680 Y-1.779 E8.01243
G1 X1.536 Y-1.645 E8.03346
G1 X1.354 Y-1.362 E8.06945
G1 X1.163 Y-0.927 E8.12017
G1 X0.527 Y0.989 E8.33597
G1 X0.229 Y1.717 E8.42005
G1 X-0.173 Y2.440 E8.50852
G1 X-0.728 Y3.121 E8.60236
G1 X-1.474 Y3.685 E8.70242
G1 X-2.370 Y4.037 E8.80530
G1 X-2.975 Y4.146 E8.87098
G1 X-3.537 Y4.172 E8.93106
G1 X-4.088 Y4.119 E8.99027
G1 X-4.621 Y3.988 E9.04890
G1 X-5.125 Y3.781 E9.10718
G1 X-5.592 Y3.502 E9.16532
G1 X-6.014 Y3.158 E9.22356
G1 X-6.389 Y2.757 E9.28218
G1 X-6.712 Y2.306 E9.34151
G1 X-6.984 Y1.810 E9.40191
G1 X-7.209 Y1.264 E9.46509
G1 X-7.432 Y0.445 E9.55584
G1 X-7.522 Y-0.347 E9.64105
G1 X-7.491 Y-1.151 E9.72706
G1 X-7.342 Y-1.943 E9.81316
G1 X-7.018 Y-2.982 E9.92950
G1 X-6.439 Y-2.442 F1800.000
G1 X-3.658 Y-3.126 E10.23559 F1800.000
G1 X-4.302 Y-1.829 E10.39035
G1 X-4.389 Y-1.605 E10.41602
G1 X-4.518 Y-1.149 E10.46669
G1 X-4.552 Y-0.953 E10.48793
G1 X-4.583 Y-0.555 E10.53064
G1 X-4.564 Y-0.196 E10.56908
G1 X-4.504 Y0.134 E10.60494
G1 X-4.448 Y0.323 E10.62600
G1 X-4.284 Y0.686 E10.66854
G1 X-4.204 Y0.809 E10.68425
G1 X-3.983 Y1.045 E10.71876
G1 X-3.778 Y1.170 E10.74448
G1 X-3.557 Y1.226 E10.76885
G1 X-3.342 Y1.209 E10.79188
G1 X-3.012 Y1.058 E10.83076
G1 X-2.759 Y0.800 E10.86930
G1 X-2.539 Y0.408 E10.91733
G1 X-2.346 Y-0.101 E10.97549
G1 X-1.982 Y-1.352 E11.11478
G1 X-1.763 Y-2.028 E11.19073
G1 X-1.479 Y-2.702 E11.26897
G1 X-1.097 Y-3.346 E11.34891
G1 X-0.584 Y-3.921 E11.43137
G1 X0.087 Y-4.387 E11.51868
G1 X0.922 Y-4.698 E11.61390
G1 X1.417 Y-4.783 E11.66759
G1 X1.849 Y-4.804 E11.71385
G1 X2.293 Y-4.765 E11.76147
G1 X2.721 Y-4.669 E11.80829
G1 X3.127 Y-4.517 E11.85463
G1 X3.507 Y-4.313 E11.90080
G1 X3.857 Y-4.058 E11.94709
G1 X4.173 Y-3.756 E11.99377
G1 X4.450 Y-3.410 E12.04114
G1 X4.685 Y-3.024 E12.08947
G1 X4.875 Y-2.601 E12.13908
G1 X5.016 Y-2.146 E12.18999
G1 X5.135 Y-1.541 E12.25590
G1 X5.188 Y-0.952 E12.31905
G1 X5.176 Y-0.374 E12.38083
G1 X5.098 Y0.195 E12.44228
G1 X4.953 Y0.758 E12.50443
G1 X4.677 Y1.499 E12.58890
G1 X1.469 Y2.288 E12.94206
G1 X2.308 Y1.154 E13.09284
G1 X2.606 Y0.663 E13.15419
G1 X2.715 Y0.435 E13.18118
G1 X2.886 Y-0.050 E13.23616
G1 X2.976 Y-0.531 E13.28851
G1 X2.989 Y-0.748 E13.31176
G1 X2.957 Y-1.227 E13.36302
G1 X2.914 Y-1.444 E13.38668
G1 X2.842 Y-1.682 E13.41327
G1 X2.755 Y-1.884 E13.43682
G1 X2.656 Y-2.055 E13.45793
G1 X2.433 Y-2.312 E13.49429
G1 X2.204 Y-2.466 E13.52375
G1 X1.953 Y-2.550 E13.55210
G1 X1.660 Y-2.552 E13.58341
G1 X1.280 Y-2.384 E13.62776
G1 X0.983 Y-2.106 E13.67130
G1 X0.723 Y-1.700 E13.72278
G1 X0.496 Y-1.184 E13.78302
G1 X-0.143 Y0.741 E13.99979
G1 X-0.416 Y1.407 E14.07677
G1 X-0.766 Y2.038 E14.15395
G1 X-1.227 Y2.603 E14.23183
G1 X-1.827 Y3.057 E14.31222
G1 X-2.566 Y3.347 E14.39710
G1 X-3.055 Y3.435 E14.45021
G1 X-3.519 Y3.456 E14.49985
G1 X-3.968 Y3.413 E14.54808
G1 X-4.398 Y3.308 E14.59541
G1 X-4.804 Y3.140 E14.64232
G1 X-5.181 Y2.915 E14.68930
G1 X-5.526 Y2.635 E14.73679
G1 X-5.835 Y2.303 E14.78523
G1 X-6.107 Y1.925 E14.83504
G1 X-6.339 Y1.502 E14.88661
G1 X-6.532 Y1.033 E14.94079
G1 X-6.729 Y0.310 E15.02088
G1 X-6.806 Y-0.374 E15.09442
G1 X-6.779 Y-1.071 E15.16905
G1 X-6.648 Y-1.770 E15.24509
G1 X-6.456 Y-2.385 E15.31388
G1 X-6.463 Y-2.841 F1800.000
G1 X-7.998 Y-2.320 F1800.000
G1 X-8.202 Y-1.231 E15.43224 F1800.000
G1 X-8.238 Y-0.321 E15.52963
G1 X-8.136 Y0.580 E15.62651
G1 X-7.886 Y1.495 E15.72790
G1 X-7.629 Y2.119 E15.80009
G1 X-7.317 Y2.687 E15.86932
G1 X-6.942 Y3.210 E15.93816
G1 X-6.503 Y3.681 E16.00696
G1 X-6.002 Y4.088 E16.07595
G1 X-5.446 Y4.421 E16.14527
G1 X-4.843 Y4.669 E16.21491
G1 X-4.208 Y4.825 E16.28483
G1 X-3.554 Y4.888 E16.35502
G1 X-2.895 Y4.857 E16.42556
G1 X-2.175 Y4.728 E16.50381
G1 X-1.672 Y4.530 E16.56152
G1 X5.752 Y2.706 E17.37864
G1 X6.318 Y1.186 E17.55196
G1 X6.501 Y0.471 E17.63090
G1 X6.602 Y-0.261 E17.70991
G1 X6.618 Y-1.002 E17.78911
G1 X6.550 Y-1.743 E17.86865
G1 X6.403 Y-2.495 E17.95050
G1 X6.214 Y-3.106 E18.01886
G1 X5.952 Y-3.691 E18.08741
G1 X5.622 Y-4.232 E18.15520
G1 X5.228 Y-4.723 E18.22248
G1 X4.775 Y-5.156 E18.28944
G1 X4.269 Y-5.524 E18.35628
G1 X3.718 Y-5.821 E18.42320
G1 X3.129 Y-6.041 E18.49037
G1 X2.513 Y-6.180 E18.55796
G1 X1.877 Y-6.235 E18.62613
G1 X1.318 Y-6.209 E18.68602
G1 X-0.244 Y-6.980 E18.87215
G1 X-0.083 Y-8.494 E19.03484
G1 X2.015 Y-8.014 E19.26488
G1 X4.007 Y-7.336 E19.48985
G1 X5.876 Y-6.585 E19.70515
G1 X6.384 Y-6.419 E19.76224
G1 X7.213 Y-6.096 E19.85735
G1 X8.408 Y-5.542 E19.99818
G1 X9.431 Y-4.978 E20.12300
G1 X11.061 Y-3.926 E20.33037
G1 X11.320 Y-3.727 E20.36532
G1 X11.199 Y-3.342 E20.40852
G1 X11.060 Y-3.036 E20.44440
G1 X11.030 Y-2.904 E20.45888
G1 X10.403 Y-2.079 E20.56965
G1 X9.144 Y-0.292 E20.80323
G1 X7.669 Y1.837 E21.08017
G1 X7.377 Y2.299 E21.13853
G1 X6.010 Y3.688 E21.34685
G1 X4.921 Y4.509 E21.49259
G1 X3.857 Y4.987 E21.61734
G1 X3.029 Y5.507 E21.72188
G1 X2.590 Y5.711 E21.77354
G1 X1.440 Y6.136 E21.90463
G1 X0.812 Y6.189 E21.97201
G1 X-0.488 Y6.453 E22.11379
G1 X-2.329 Y6.790 E22.31384
G1 X-3.176 Y6.851 E22.40465
G1 X-4.493 Y6.684 E22.54656
G1 X-5.025 Y6.588 E22.60432
G1 X-5.536 Y6.404 E22.66232
G1 X-6.005 Y6.141 E22.71983
G1 X-7.126 Y5.434 E22.86149
G1 X-7.729 Y4.860 E22.95048
G1 X-8.633 Y3.712 E23.10671
G1 X-9.135 Y2.648 E23.23240
G1 X-9.545 Y1.712 E23.34164
G1 X-9.620 Y0.685 E23.45167
G1 X-9.655 Y-0.474 E23.57562
G1 X-9.438 Y-1.738 E23.71276
G1 X-8.054 Y-2.297 E23.87231
G1 X-8.484 Y-2.894 F1800.000
G1 X-0.288 Y-6.205 E24.81721 F1800.000
G1 X-2.350 Y-7.224 E25.06303
G1 X-2.292 Y-7.542 E25.09755
G1 X-0.888 Y-7.681 E25.24842
G1 X-0.733 Y-9.144 E25.40565
G1 X0.018 Y-9.199 E25.48617
G1 X2.210 Y-8.702 E25.72633
G1 X4.256 Y-8.006 E25.95731
G1 X6.121 Y-7.257 E26.17217
G1 X6.625 Y-7.092 E26.22889
G1 X7.493 Y-6.753 E26.32848
G1 X8.731 Y-6.179 E26.47434
G1 X9.792 Y-5.595 E26.60377
G1 X10.377 Y-5.232 E26.67745
G1 X11.474 Y-4.508 E26.81791
G1 X11.942 Y-4.151 E26.88079
G1 X12.098 Y-3.818 E26.92013
G1 X11.867 Y-3.086 E27.00215
G1 X11.740 Y-2.806 E27.03503
G1 X11.691 Y-2.594 E27.05831
G1 X10.979 Y-1.657 E27.18406
G1 X9.730 Y0.117 E27.41596
G1 X8.265 Y2.231 E27.69095
G1 X7.940 Y2.745 E27.75590
G1 X6.482 Y4.227 E27.97808
G1 X5.287 Y5.127 E28.13804
G1 X4.195 Y5.618 E28.26605
G1 X3.351 Y6.148 E28.37251
G1 X3.154 Y6.225 E28.39520
G1 X2.874 Y6.368 E28.42875
G1 X1.606 Y6.839 E28.57334
G1 X0.913 Y6.897 E28.64767
G1 X-0.352 Y7.154 E28.78571
G1 X-2.239 Y7.500 E28.99069
G1 X-3.196 Y7.569 E29.09327
G1 X-4.602 Y7.390 E29.24475
G1 X-5.210 Y7.280 E29.31086
G1 X-5.833 Y7.056 E29.38159
G1 X-6.370 Y6.755 E29.44743
G1 X-7.567 Y6.000 E29.59866
G1 X-8.258 Y5.342 E29.70069
G1 X-9.245 Y4.090 E29.87102
G1 X-9.785 Y2.945 E30.00635
G1 X-10.204 Y1.997 E30.11722
G1 X-10.241 Y1.880 E30.13032
G1 X-10.333 Y0.721 E30.25459
G1 X-10.371 Y-0.524 E30.38766
G1 X-10.133 Y-1.908 E30.53781
G1 X-9.898 Y-2.566 E30.61249
G1 X-9.625 Y-3.084 E30.67511
G1 X-8.277 Y-3.496 E30.82571
G1 X-8.465 Y-2.950 E30.88742
G1 X-8.965 Y-2.390 F1800.000
G1 X-9.249 Y-3.319 F1800.000
G1 X-8.374 Y-5.173 F1800.000
G1 X-7.729 Y-6.327 F1800.000
G1 X-7.171 Y-6.984 F1800.000
G1 X-7.054 Y-6.912 F1800.000
G1 X-4.340 Y-8.056 F1800.000
G1 X-1.537 Y-8.334 E31.18850 F1800.000
G1 X-1.460 Y-9.056 E31.26605
G1 X-2.448 Y-9.390 E31.37747
G1 X-2.403 Y-9.738 E31.41493
G1 X0.037 Y-9.917 E31.67642
G1 X0.176 Y-9.899 E31.69149
G1 X2.405 Y-9.390 E31.93580
G1 X4.504 Y-8.676 E32.17279
G1 X6.365 Y-7.928 E32.38721
G1 X6.866 Y-7.764 E32.44355
G1 X7.773 Y-7.410 E32.54764
G1 X9.054 Y-6.817 E32.69853
G1 X10.152 Y-6.211 E32.83257
G1 X10.762 Y-5.833 E32.90927
G1 X11.888 Y-5.091 E33.05346
G1 X12.514 Y-4.612 E33.13767
G1 X12.863 Y-3.868 E33.22549
G1 X12.535 Y-2.830 E33.34185
G1 X12.420 Y-2.576 E33.37173
G1 X12.352 Y-2.283 E33.40381
G1 X11.556 Y-1.235 E33.54454
G1 X10.315 Y0.526 E33.77476
G1 X8.860 Y2.625 E34.04781
G1 X8.503 Y3.191 E34.11934
G1 X6.954 Y4.765 E34.35538
G1 X5.653 Y5.746 E34.52956
G1 X4.533 Y6.249 E34.66083
G1 X3.674 Y6.789 E34.76921
G1 X3.447 Y6.877 E34.79531
G1 X3.158 Y7.025 E34.82997
G1 X2.285 Y7.337 E34.92906
G1 X1.772 Y7.542 E34.98809
G1 X1.014 Y7.605 E35.06936
G1 X-0.217 Y7.856 E35.20366
G1 X-2.149 Y8.209 E35.41357
G1 X-3.216 Y8.286 E35.52793
G1 X-4.710 Y8.096 E35.68897
G1 X-5.396 Y7.972 E35.76343
G1 X-6.131 Y7.708 E35.84689
G1 X-6.736 Y7.369 E35.92106
G1 X-8.008 Y6.566 E36.08187
G1 X-8.788 Y5.824 E36.19693
G1 X-9.856 Y4.468 E36.38137
G1 X-10.435 Y3.242 E36.52633
G1 X-10.874 Y2.248 E36.64254
G1 X-10.936 Y2.047 E36.66500
G1 X-10.973 Y1.834 E36.68809
G1 X-11.047 Y0.756 E36.80363
G1 X-11.087 Y-0.574 E36.94582
G1 X-10.826 Y-2.090 E37.11028
G1 X-10.549 Y-2.867 E37.19848
G1 X-10.381 Y-3.158 E37.23435
G1 X-9.782 Y-4.413 E37.38300
G1 X-9.101 Y-5.555 E37.52508
G1 X-8.551 Y-6.686 E37.65957
G1 X-8.326 Y-6.962 E37.69767
G1 X-6.317 Y-8.725 E37.98329
G1 X-5.347 Y-9.094 E38.09426
G1 X-4.484 Y-9.375 E38.19129
G1 X-3.733 Y-9.526 E38.27308
G1 X-3.634 Y-9.146 E38.31502
G1 X-4.512 Y-8.833 E38.41460
G1 X-4.353 Y-8.114 E38.49331
G1 X-4.284 Y-7.660 F1800.000
G1 X-4.089 Y-7.704 F1800.000
G1 X-2.672 Y-7.447 E38.64726 F1800.000
G1 X-2.141 Y-4.831 F1800.000
G1 X-1.274 Y-5.104 E38.85320 F1800.000
G1 X-0.632 Y-5.451 E39.01850
G1 X-0.641 Y-5.467 F1800.000
G1 X0.845 Y-6.044 E39.18889 F1800.000
G1 X0.425 Y-7.048 F1800.000
G1 X0.633 Y-7.963 E39.28925 F1800.000
G1 X1.484 Y-7.650 F1800.000
G1 X1.830 Y-7.304 E39.34153 F1800.000
G1 X2.186 Y-7.092 F1800.000
G1 X3.319 Y-6.773 E39.60842 F1800.000
G1 X3.743 Y-6.623 E39.71025
G1 X4.056 Y-6.500 E39.78650
G1 X5.041 Y-6.039 E40.03295
G1 X6.844 Y1.820 F1800.000
G1 X2.518 Y4.581 F1800.000
G1 X-0.004 Y3.267 F1800.000
G1 X1.512 Y-0.096 F1800.000
G1 X1.713 Y-0.781 F1800.000
G1 X1.769 Y-1.139 F1800.000
G1 X1.792 Y-1.298 F1800.000
G1 X1.800 Y-1.403 F1800.000
G1 X1.796 Y-1.389 F1800.000
G1 X1.692 Y-0.690 E40.10850 F1800.000
G1 X1.615 Y-0.390 E40.14159
G1 X1.504 Y-0.066 E40.17823
G1 X1.269 Y0.456 E40.23939
G1 X0.768 Y1.399 E40.35356
G1 X3.281 Y4.167 F1800.000
G1 X2.929 Y3.815 E40.40766 F1800.000
G1 X2.105 Y4.018 E40.50006
G1 X3.102 Y5.015 E40.65342
G1 X2.416 Y5.357 E40.73675
G1 X1.280 Y4.221 E40.91157
G1 X0.455 Y4.423 E41.00396
G1 X1.666 Y5.634 E41.19025
G1 X0.782 Y5.778 E41.28766
G1 X-0.370 Y4.626 E41.46487
G1 X-1.195 Y4.829 E41.55727
G1 X-0.072 Y5.952 E41.73002
G1 X-0.934 Y6.117 E41.82550
G1 X-1.981 Y5.071 E41.98645
G1 X-2.818 Y5.261 E42.07986
G1 X-1.803 Y6.277 E42.23602
G1 X-2.715 Y6.392 E42.33603
G1 X-3.789 Y5.318 E42.50125
G1 X-3.826 Y6.309 E42.60913
G1 X-5.019 Y5.116 E42.79265
G1 X-5.516 Y5.647 E42.87173
G1 X-5.146 Y6.017 E42.92860
G1 X-5.731 Y5.274 F1800.000
G1 X-6.586 Y4.741 E43.15688 F1800.000
G1 X-7.099 Y4.287 E43.31223
G1 X-7.557 Y3.753 E43.47163
G1 X-7.922 Y3.271 E43.60849
G1 X-8.356 Y2.440 E43.82101
G1 X-8.737 Y1.509 E44.04894
G1 X-8.873 Y0.691 E44.23707
G1 X-8.944 Y-0.424 E44.49012
G1 X-8.820 Y-1.603 E44.75872
G1 X-9.360 Y-3.539 F1800.000
G1 X-8.389 Y-5.148 E45.18470 F1800.000
G1 X-7.807 Y-6.211 E45.45938
G1 X-7.701 Y-6.360 E45.50076
G1 X-6.355 Y-7.942 E45.97145
G1 X-7.054 Y-6.912 F1800.000
G1 X-8.374 Y-5.173 F1800.000
G1 X-9.401 Y-3.411 F1800.000
G1 X-8.424 Y-1.934 F1800.000
G1 X-7.906 Y-2.404 F1800.000
G1 X-7.274 Y-3.075 F1800.000
G1 X-6.975 Y-3.269 F1800.000
G1 X-4.813 Y-3.968 F1800.000
G1 X-2.141 Y-4.831 E46.27160 F1800.000
G1 X5.292 Y-5.665 F1800.000
G1 X9.506 Y-1.451 E46.93320 F1800.000
G1 X9.937 Y-2.069 E47.01684
G1 X5.965 Y-6.041 E47.64051
G1 X7.793 Y-5.261 F1800.000
G1 X10.383 Y-2.672 E48.04705 F1800.000
G1 X10.382 Y-3.722 E48.16359
G1 X10.771 Y-3.333 E48.22459
G1 X6.689 Y-3.218 F1800.000
G1 X9.074 Y-0.833 E48.59901 F1800.000
G1 X8.643 Y-0.216 E48.68265
G1 X6.991 Y-1.868 E48.94201
G1 X7.045 Y-0.764 E49.06468
G1 X8.211 Y0.402 E49.24773
G1 X7.324 Y0.563 E49.34786
G1 X6.959 Y0.199 E49.40515
G1 X7.205 Y1.083 F1800.000
