; generated by Slic3r 1.2.9 on 2022-12-16 at 14:37:02

; external perimeters extrusion width = 0.40mm
; perimeters extrusion width = 0.48mm
; infill extrusion width = 0.48mm
; solid infill extrusion width = 0.48mm
; top infill extrusion width = 0.48mm

M107
M190 S60 ; set bed temperature
M104 S200 ; set temperature
G28 ; home all axes
G1 Z5 F5000 ; lift nozzle

M109 S200 ; wait for temperature to be reached
G21 ; set units to millimeters
G90 ; use absolute coordinates
M82 ; use absolute distances for extrusion
G92 E0
G1 Z-0.600 F1800.000
G1 E-2.00000 F2400.00000
G92 E0
G1 X-3.591 Y-8.954 F1800.000
G1 E2.00000 F2400.00000
G1 X-0.971 Y-10.005 E2.30178 F1363.443
G1 X-0.200 Y-10.262 E2.38858
G1 X0.205 Y-10.369 E2.43339
G1 X1.062 Y-10.539 E2.52676
G1 X1.462 Y-10.591 E2.56991
G1 X2.369 Y-10.648 E2.66702
G1 X2.747 Y-10.646 E2.70739 F1363.443
G1 X3.652 Y-10.582 E2.80435
G1 X4.032 Y-10.529 E2.84540
G1 X4.926 Y-10.342 E2.94300
G1 X5.291 Y-10.239 E2.98354
G1 X6.150 Y-9.932 E3.08109
G1 X6.497 Y-9.781 E3.12147
G1 X7.301 Y-9.364 E3.21839
G1 X7.625 Y-9.167 E3.25892
G1 X8.359 Y-8.651 E3.35472
G1 X8.657 Y-8.410 E3.39573
G1 X9.305 Y-7.812 E3.49000
G1 X9.575 Y-7.529 E3.53179
G1 X10.128 Y-6.865 E3.62418
G1 X10.365 Y-6.541 E3.66705
G1 X10.819 Y-5.830 E3.75722
G1 X11.019 Y-5.467 E3.80150
G1 X11.371 Y-4.727 E3.88909
G1 X11.717 Y-3.807 E3.99417
G1 X11.892 Y-3.217 E4.06000
G1 X12.041 Y-2.606 E4.12714
G1 X12.158 Y-1.979 E4.19537
G1 X12.243 Y-1.336 E4.26468
G1 X12.300 Y-0.420 E4.36280
G1 X12.274 Y0.623 E4.47435
G1 X12.210 Y1.268 E4.54357
G1 X12.110 Y1.899 E4.61186
G1 X11.979 Y2.512 E4.67886
G1 X11.738 Y3.373 E4.77446
G1 X10.689 Y5.430 E5.02126
G1 X9.005 Y7.010 E5.26806
G1 X7.512 Y7.744 E5.44592
G1 X0.634 Y10.118 E6.22366
G1 X-0.240 Y10.370 E6.32092
G1 X-1.113 Y10.542 E6.41601
G1 X-1.519 Y10.594 E6.45978
G1 X-2.461 Y10.649 E6.56064
G1 X-2.855 Y10.644 E6.60272
G1 X-3.833 Y10.561 E6.70765
G1 X-4.212 Y10.500 E6.74865
G1 X-5.184 Y10.270 E6.85542
G1 X-5.545 Y10.155 E6.89597
G1 X-6.467 Y9.785 E7.00209
G1 X-6.809 Y9.618 E7.04280
G1 X-7.643 Y9.132 E7.14597
G1 X-7.963 Y8.913 E7.18743
G1 X-8.686 Y8.343 E7.28582
G1 X-8.982 Y8.074 E7.32856
G1 X-9.584 Y7.453 E7.42104
G1 X-9.854 Y7.136 E7.46551
G1 X-10.338 Y6.493 E7.55157
G1 X-10.579 Y6.130 E7.59818
G1 X-10.956 Y5.487 E7.67781
G1 X-11.165 Y5.078 E7.72693
G1 X-11.448 Y4.451 E7.80047
G1 X-11.624 Y3.998 E7.85237
G1 X-11.848 Y3.332 E7.92752
G1 X-12.067 Y2.464 E8.02316
G1 X-12.165 Y1.923 E8.08196
G1 X-12.236 Y1.380 E8.14051
G1 X-12.289 Y0.621 E8.22177
G1 X-12.284 Y-0.253 E8.31524
G1 X-12.225 Y-1.010 E8.39643
G1 X-12.152 Y-1.546 E8.45421
G1 X-12.055 Y-2.075 E8.51174
G1 X-11.933 Y-2.597 E8.56903
G1 X-11.003 Y-4.711 E8.81583
G1 X-9.412 Y-6.384 E9.06264
G1 X-7.913 Y-7.221 E9.24610
G1 X-3.647 Y-8.932 E9.73746
G1 E7.73746 F2400.00000
G92 E0
G1 X-5.073 Y-0.682 F1800.000
G1 E2.00000 F2400.00000
G1 X-4.405 Y-0.906 E2.07524 F1363.443
G1 X-4.527 Y-0.281 E2.14324
G1 X-4.553 Y-0.005 E2.17295
G1 X-4.550 Y0.487 E2.22549
G1 X-4.486 Y0.945 E2.27488
G1 X-4.375 Y1.357 E2.32055
G1 X-4.269 Y1.632 E2.35206
G1 X-4.018 Y2.083 E2.40723
G1 X-3.847 Y2.303 E2.43701
G1 X-3.497 Y2.618 E2.48733
G1 X-3.278 Y2.749 E2.51461
G1 X-3.056 Y2.842 E2.54040
G1 X-2.821 Y2.900 E2.56621
G1 X-2.579 Y2.920 E2.59220
G1 X-2.333 Y2.900 E2.61853
G1 X-2.067 Y2.833 E2.64781
G1 X-1.528 Y2.529 E2.71403
G1 X-1.137 Y2.057 E2.77957
G1 X-0.880 Y1.498 E2.84529
G1 X-0.705 Y0.887 E2.91324
G1 X-0.442 Y-0.408 E3.05448
G1 X-0.291 Y-1.055 E3.12545
G1 X-0.092 Y-1.665 E3.19411
G1 X0.177 Y-2.218 E3.25984
G1 X0.538 Y-2.696 E3.32383
G1 X1.017 Y-3.091 E3.39022
G1 X1.666 Y-3.396 E3.46688
G1 X2.010 Y-3.488 E3.50488
G1 X2.371 Y-3.533 E3.54382
G1 X2.696 Y-3.532 E3.57852
G1 X3.022 Y-3.487 E3.61371
G1 X3.334 Y-3.399 E3.64839
G1 X3.631 Y-3.270 E3.68294
G1 X3.909 Y-3.101 E3.71771
G1 X4.166 Y-2.893 E3.75304
G1 X4.399 Y-2.648 E3.78925
G1 X4.605 Y-2.365 E3.82667
G1 X4.782 Y-2.046 E3.86564
G1 X4.926 Y-1.689 E3.90675
G1 X5.071 Y-1.177 E3.96369
G1 X5.159 Y-0.680 E4.01761
G1 X5.189 Y-0.194 E4.06959
G1 X5.163 Y0.287 E4.12115
G1 X5.081 Y0.773 E4.17384
G1 X4.993 Y1.085 E4.20849
G1 X4.300 Y1.318 E4.28665
G1 X4.525 Y0.458 E4.38170
G1 X4.586 Y-0.140 E4.44589
G1 X4.579 Y-0.458 E4.47987
G1 X4.492 Y-1.034 E4.54214
G1 X4.405 Y-1.334 E4.57551
G1 X4.283 Y-1.643 E4.61107
G1 X4.135 Y-1.920 E4.64460
G1 X3.966 Y-2.162 E4.67623
G1 X3.777 Y-2.370 E4.70625
G1 X3.573 Y-2.544 E4.73488
G1 X3.357 Y-2.683 E4.76230
G1 X3.122 Y-2.793 E4.79007
G1 X2.680 Y-2.901 E4.83868
G1 X2.252 Y-2.886 E4.88446
G1 X2.011 Y-2.825 E4.91104
G1 X1.439 Y-2.514 E4.98064
G1 X1.007 Y-2.038 E5.04936
G1 X0.706 Y-1.469 E5.11816
G1 X0.491 Y-0.842 E5.18901
G1 X0.011 Y1.137 E5.40669
G1 X-0.183 Y1.752 E5.47564
G1 X-0.431 Y2.302 E5.54012
G1 X-0.748 Y2.765 E5.60005
G1 X-1.155 Y3.129 E5.65838
G1 X-1.698 Y3.395 E5.72307
G1 X-2.051 Y3.490 E5.76210
G1 X-2.403 Y3.535 E5.80003
G1 X-2.739 Y3.531 E5.83596
G1 X-3.059 Y3.480 E5.87063
G1 X-3.364 Y3.383 E5.90483
G1 X-3.654 Y3.241 E5.93929
G1 X-3.928 Y3.054 E5.97474
G1 X-4.184 Y2.822 E6.01177
G1 X-4.422 Y2.543 E6.05091
G1 X-4.637 Y2.218 E6.09258
G1 X-4.827 Y1.847 E6.13711
G1 X-4.989 Y1.432 E6.18470
G1 X-5.089 Y1.075 E6.22431
G1 X-5.172 Y0.503 E6.28616
G1 X-5.180 Y0.125 E6.32655
G1 X-5.117 Y-0.482 E6.39178
G1 X-5.086 Y-0.623 E6.40726
G1 X-4.702 Y-0.533 F1800.000
G1 Z-0.300 F1800.000
G1 X-3.997 Y2.406 F1800.000
G1 X-3.604 Y2.762 E6.43218 F710.727
G1 X-3.359 Y2.908 E6.44560
G1 X-3.112 Y3.011 E6.45819
G1 X-2.850 Y3.076 E6.47085
G1 X-2.579 Y3.098 E6.48364
G1 X-2.305 Y3.075 E6.49659
G1 X-2.002 Y2.999 E6.51127
G1 X-1.413 Y2.667 E6.54307
G1 X-0.986 Y2.152 E6.57453
G1 X-0.714 Y1.560 E6.60517
G1 X-0.534 Y0.929 E6.63602
G1 X-0.270 Y-0.370 E6.69835
G1 X-0.120 Y-1.007 E6.72910
G1 X0.073 Y-1.599 E6.75837
G1 X0.329 Y-2.125 E6.78591
G1 X0.666 Y-2.573 E6.81226
G1 X1.112 Y-2.940 E6.83943
G1 X1.727 Y-3.229 E6.87136
G1 X2.041 Y-3.313 E6.88666
G1 X2.406 Y-3.356 E6.90392
G1 X2.683 Y-3.355 E6.91695
G1 X2.985 Y-3.313 E6.93130
G1 X3.274 Y-3.232 E6.94542
G1 X3.548 Y-3.112 E6.95948
G1 X3.806 Y-2.956 E6.97366
G1 X4.044 Y-2.763 E6.98809
G1 X4.262 Y-2.534 E7.00293
G1 X4.455 Y-2.269 E7.01833
G1 X4.621 Y-1.970 E7.03444
G1 X4.757 Y-1.632 E7.05157
G1 X4.815 Y-1.428 E7.06152
G1 X4.588 Y-1.351 E7.07276
G1 X4.444 Y-1.718 E7.09128
G1 X4.286 Y-2.013 E7.10701
G1 X4.104 Y-2.273 E7.12195
G1 X3.900 Y-2.498 E7.13623
G1 X3.678 Y-2.687 E7.14991
G1 X3.443 Y-2.838 E7.16309
G1 X3.181 Y-2.961 E7.17670
G1 X2.698 Y-3.079 E7.20005
G1 X2.227 Y-3.063 E7.22223
G1 X1.945 Y-2.992 E7.23587
G1 X1.327 Y-2.655 E7.26895
G1 X0.861 Y-2.140 E7.30164
G1 X0.543 Y-1.540 E7.33360
G1 X0.320 Y-0.892 E7.36580
G1 X-0.160 Y1.090 E7.46167
G1 X-0.350 Y1.689 E7.49123
G1 X-0.587 Y2.215 E7.51835
G1 X-0.883 Y2.647 E7.54297
G1 X-1.256 Y2.980 E7.56649
G1 X-1.761 Y3.229 E7.59298
G1 X-2.086 Y3.315 E7.60878
G1 X-2.414 Y3.358 E7.62432
G1 X-2.724 Y3.354 E7.63893
G1 X-3.019 Y3.307 E7.65295
G1 X-3.299 Y3.218 E7.66675
G1 X-3.565 Y3.088 E7.68070
G1 X-3.818 Y2.915 E7.69511
G1 X-4.057 Y2.698 E7.71029
G1 X-4.166 Y2.570 E7.71817
G1 X-4.040 Y2.448 E7.72642
G1 E5.72642 F2400.00000
G92 E0
G1 X4.754 Y-0.482 F1800.000
G1 E2.00000 F2400.00000
G1 X4.711 Y-0.768 E2.01357 F710.727
G1 X4.956 Y-0.808 E2.02524
G1 X4.996 Y-0.512 E2.03929
G1 X4.813 Y-0.490 E2.04794
G1 X4.761 Y-0.119 F1800.000
G1 X5.006 Y-0.100 E2.05948 F710.727
G1 X4.986 Y0.267 E2.07680
G1 X4.907 Y0.734 E2.09906
G1 X4.847 Y0.947 E2.10945
G1 X4.553 Y1.045 E2.12401
G1 X4.699 Y0.489 E2.15105
G1 X4.755 Y-0.060 E2.17699
G1 E0.17699 F2400.00000
G92 E0
G1 X-4.207 Y2.110 F1800.000
G1 E2.00000 F2400.00000
G1 X-4.413 Y2.236 E2.01137 F710.727
G1 X-4.545 Y2.009 E2.02370
G1 X-4.327 Y1.893 E2.03532
G1 X-4.236 Y2.058 E2.04420
G1 X-4.527 Y1.478 F1800.000
G1 X-4.753 Y1.552 E2.05539 F710.727
G1 X-4.916 Y1.039 E2.08072
G1 X-4.996 Y0.488 E2.10687
G1 X-5.003 Y0.132 E2.12361
G1 X-4.922 Y-0.546 E2.15572
G1 X-4.638 Y-0.641 E2.16981
G1 X-4.703 Y-0.307 E2.18583
G1 X-4.731 Y-0.012 E2.19972
G1 X-4.727 Y0.500 E2.22380
G1 X-4.661 Y0.980 E2.24660
G1 X-4.542 Y1.420 E2.26802
G1 X-5.244 Y-0.836 F1800.000
G1 X-4.096 Y-1.221 E2.31363 F1421.455
G1 X-4.228 Y-0.775 E2.33114
G1 X-4.329 Y-0.253 E2.35118
G1 X-4.353 Y0.004 E2.36090
G1 X-4.350 Y0.472 E2.37855
G1 X-4.290 Y0.905 E2.39499
G1 X-4.185 Y1.295 E2.41022
G1 X-4.088 Y1.547 E2.42040
G1 X-3.851 Y1.972 E2.43873
G1 X-3.700 Y2.166 E2.44799
G1 X-3.378 Y2.457 E2.46433
G1 X-3.188 Y2.570 E2.47266
G1 X-2.993 Y2.652 E2.48063
G1 X-2.789 Y2.702 E2.48854
G1 X-2.579 Y2.719 E2.49648
G1 X-2.366 Y2.702 E2.50453
G1 X-2.143 Y2.646 E2.51322
G1 X-1.659 Y2.373 E2.53415
G1 X-1.308 Y1.949 E2.55487
G1 X-1.069 Y1.428 E2.57646
G1 X-0.900 Y0.839 E2.59955
G1 X-0.638 Y-0.451 E2.64915
G1 X-0.484 Y-1.109 E2.67459
G1 X-0.278 Y-1.741 E2.69963
G1 X0.005 Y-2.323 E2.72405
G1 X0.392 Y-2.836 E2.74823
G1 X0.909 Y-3.262 E2.77347
G1 X1.597 Y-3.585 E2.80210
G1 X1.970 Y-3.685 E2.81666
G1 X2.384 Y-3.734 E2.83236
G1 X2.709 Y-3.732 E2.84462
G1 X3.062 Y-3.683 E2.85805
G1 X3.401 Y-3.588 E2.87130
G1 X3.722 Y-3.448 E2.88450
G1 X4.023 Y-3.265 E2.89777
G1 X4.301 Y-3.041 E2.91122
G1 X4.552 Y-2.776 E2.92497
G1 X4.774 Y-2.473 E2.93912
G1 X4.962 Y-2.132 E2.95379
G1 X5.114 Y-1.754 E2.96914
G1 X5.266 Y-1.222 E2.98999
G1 X5.357 Y-0.701 E3.00992
G1 X5.380 Y-0.449 E3.01946
G1 X5.389 Y-0.198 E3.02889
G1 X5.361 Y0.309 E3.04804
G1 X5.275 Y0.817 E3.06744
G1 X5.156 Y1.241 E3.08404
G1 X3.874 Y1.671 E3.13498
G1 X4.065 Y1.289 E3.15107
G1 X4.177 Y0.995 E3.16292
G1 X4.327 Y0.422 E3.18523
G1 X4.385 Y-0.148 E3.20681
G1 X4.378 Y-0.441 E3.21784
G1 X4.295 Y-0.991 E3.23881
G1 X4.215 Y-1.269 E3.24972
G1 X4.101 Y-1.559 E3.26146
G1 X3.964 Y-1.815 E3.27239
G1 X3.808 Y-2.037 E3.28262
G1 X3.637 Y-2.227 E3.29223
G1 X3.453 Y-2.383 E3.30133
G1 X3.260 Y-2.507 E3.30999
G1 X3.055 Y-2.603 E3.31852
G1 X2.659 Y-2.700 E3.33387
G1 X2.280 Y-2.687 E3.34816
G1 X2.084 Y-2.638 E3.35577
G1 X1.564 Y-2.355 E3.37807
G1 X1.172 Y-1.922 E3.40007
G1 X0.890 Y-1.389 E3.42279
G1 X0.682 Y-0.786 E3.44682
G1 X0.204 Y1.191 E3.52345
G1 X0.003 Y1.824 E3.54846
G1 X-0.257 Y2.401 E3.57230
G1 X-0.598 Y2.897 E3.59500
G1 X-1.043 Y3.296 E3.61750
G1 X-1.628 Y3.584 E3.64207
G1 X-2.013 Y3.686 E3.65707
G1 X-2.392 Y3.735 E3.67147
G1 X-2.757 Y3.731 E3.68522
G1 X-3.106 Y3.675 E3.69855
G1 X-3.439 Y3.569 E3.71173
G1 X-3.755 Y3.414 E3.72498
G1 X-4.052 Y3.211 E3.73853
G1 X-4.329 Y2.961 E3.75259
G1 X-4.582 Y2.663 E3.76732
G1 X-4.810 Y2.319 E3.78288
G1 X-5.011 Y1.929 E3.79938
G1 X-5.180 Y1.496 E3.81691
G1 X-5.285 Y1.117 E3.83173
G1 X-5.373 Y0.519 E3.85449
G1 X-5.380 Y0.117 E3.86965
G1 X-5.316 Y-0.514 E3.89355
G1 X-5.257 Y-0.777 E3.90370
G1 X-4.873 Y-0.687 F1800.000
G1 Z0.000 F1800.000
G1 X-3.998 Y2.406 F1800.000
G1 X-3.604 Y2.761 E3.92862 F710.279
G1 X-3.359 Y2.908 E3.94204
G1 X-3.112 Y3.011 E3.95462
G1 X-2.851 Y3.075 E3.96728
G1 X-2.580 Y3.098 E3.98007
G1 X-2.305 Y3.075 E3.99302
G1 X-2.002 Y2.999 E4.00771
G1 X-1.413 Y2.667 E4.03950
G1 X-0.986 Y2.152 E4.07097
G1 X-0.715 Y1.559 E4.10161
G1 X-0.534 Y0.929 E4.13246
G1 X-0.270 Y-0.371 E4.19479
G1 X-0.121 Y-1.007 E4.22553
G1 X0.072 Y-1.599 E4.25481
G1 X0.328 Y-2.126 E4.28234
G1 X0.665 Y-2.573 E4.30870
G1 X1.112 Y-2.941 E4.33587
G1 X1.726 Y-3.229 E4.36780
G1 X2.043 Y-3.314 E4.38321
G1 X2.380 Y-3.356 E4.39920
G1 X2.682 Y-3.355 E4.41339
G1 X2.984 Y-3.313 E4.42774
G1 X3.273 Y-3.232 E4.44186
G1 X3.548 Y-3.112 E4.45593
G1 X3.805 Y-2.956 E4.47010
G1 X4.044 Y-2.763 E4.48454
G1 X4.261 Y-2.534 E4.49938
G1 X4.455 Y-2.270 E4.51478
G1 X4.620 Y-1.970 E4.53089
G1 X4.757 Y-1.632 E4.54802
G1 X4.814 Y-1.428 E4.55797
G1 X4.588 Y-1.352 E4.56921
G1 X4.443 Y-1.718 E4.58773
G1 X4.286 Y-2.013 E4.60345
G1 X4.103 Y-2.273 E4.61840
G1 X3.900 Y-2.498 E4.63267
G1 X3.678 Y-2.687 E4.64636
G1 X3.442 Y-2.838 E4.65953
G1 X3.180 Y-2.961 E4.67314
G1 X2.697 Y-3.079 E4.69650
G1 X2.226 Y-3.063 E4.71867
G1 X1.945 Y-2.992 E4.73232
G1 X1.327 Y-2.656 E4.76540
G1 X0.860 Y-2.140 E4.79808
G1 X0.542 Y-1.540 E4.83004
G1 X0.319 Y-0.892 E4.86225
G1 X-0.161 Y1.089 E4.95811
G1 X-0.350 Y1.689 E4.98767
G1 X-0.587 Y2.215 E5.01480
G1 X-0.884 Y2.646 E5.03942
G1 X-1.256 Y2.980 E5.06293
G1 X-1.762 Y3.228 E5.08942
G1 X-2.086 Y3.315 E5.10522
G1 X-2.414 Y3.358 E5.12077
G1 X-2.725 Y3.354 E5.13537
G1 X-3.019 Y3.307 E5.14940
G1 X-3.299 Y3.218 E5.16320
G1 X-3.565 Y3.087 E5.17714
G1 X-3.819 Y2.914 E5.19156
G1 X-4.058 Y2.698 E5.20674
G1 X-4.166 Y2.570 E5.21462
G1 X-4.041 Y2.448 E5.22286
G1 E3.22286 F2400.00000
G92 E0
G1 X4.750 Y-0.501 F1800.000
G1 E2.00000 F2400.00000
G1 X4.710 Y-0.768 E2.01269 F710.279
G1 X4.955 Y-0.808 E2.02436
G1 X4.989 Y-0.526 E2.03769
G1 X4.810 Y-0.507 E2.04618
G1 X4.760 Y-0.120 F1800.000
G1 X5.005 Y-0.100 E2.05772 F710.279
G1 X4.985 Y0.267 E2.07504
G1 X4.906 Y0.734 E2.09730
G1 X4.846 Y0.947 E2.10769
G1 X4.553 Y1.045 E2.12225
G1 X4.698 Y0.489 E2.14929
G1 X4.754 Y-0.060 E2.17523
G1 E0.17523 F2400.00000
G92 E0
G1 X-4.207 Y2.110 F1800.000
G1 E2.00000 F2400.00000
G1 X-4.414 Y2.235 E2.01137 F710.279
G1 X-4.546 Y2.009 E2.02370
G1 X-4.328 Y1.892 E2.03532
G1 X-4.236 Y2.057 E2.04420
G1 X-4.527 Y1.477 F1800.000
G1 X-4.753 Y1.552 E2.05539 F710.279
G1 X-4.916 Y1.038 E2.08071
G1 X-4.996 Y0.488 E2.10687
G1 X-5.003 Y0.132 E2.12361
G1 X-4.923 Y-0.546 E2.15572
G1 X-4.639 Y-0.641 E2.16981
G1 X-4.704 Y-0.307 E2.18583
G1 X-4.731 Y-0.013 E2.19972
G1 X-4.728 Y0.499 E2.22380
G1 X-4.661 Y0.980 E2.24660
G1 X-4.543 Y1.420 E2.26801
G1 X-5.245 Y-0.836 F1800.000
G1 X-4.097 Y-1.221 E2.31363 F1420.558
G1 X-4.228 Y-0.775 E2.33114
G1 X-4.330 Y-0.253 E2.35117
G1 X-4.354 Y0.004 E2.36090
G1 X-4.351 Y0.472 E2.37854
G1 X-4.291 Y0.904 E2.39499
G1 X-4.186 Y1.295 E2.41022
G1 X-4.088 Y1.547 E2.42040
G1 X-3.852 Y1.972 E2.43873
G1 X-3.701 Y2.166 E2.44799
G1 X-3.379 Y2.457 E2.46433
G1 X-3.189 Y2.570 E2.47266
G1 X-2.994 Y2.652 E2.48063
G1 X-2.790 Y2.702 E2.48854
G1 X-2.580 Y2.719 E2.49648
G1 X-2.367 Y2.701 E2.50453
G1 X-2.143 Y2.646 E2.51322
G1 X-1.659 Y2.373 E2.53414
G1 X-1.309 Y1.949 E2.55486
G1 X-1.069 Y1.428 E2.57646
G1 X-0.901 Y0.839 E2.59954
G1 X-0.639 Y-0.451 E2.64914
G1 X-0.485 Y-1.109 E2.67459
G1 X-0.279 Y-1.741 E2.69963
G1 X0.005 Y-2.323 E2.72404
G1 X0.391 Y-2.836 E2.74822
G1 X0.908 Y-3.262 E2.77346
G1 X1.596 Y-3.585 E2.80210
G1 X1.970 Y-3.685 E2.81668
G1 X2.357 Y-3.734 E2.83137
G1 X2.709 Y-3.733 E2.84463
G1 X3.062 Y-3.683 E2.85806
G1 X3.400 Y-3.588 E2.87131
G1 X3.722 Y-3.448 E2.88451
G1 X4.023 Y-3.265 E2.89778
G1 X4.300 Y-3.041 E2.91123
G1 X4.552 Y-2.776 E2.92497
G1 X4.773 Y-2.473 E2.93912
G1 X4.962 Y-2.132 E2.95379
G1 X5.114 Y-1.754 E2.96915
G1 X5.265 Y-1.222 E2.99000
G1 X5.356 Y-0.704 E3.00982
G1 X5.388 Y-0.196 E3.02900
G1 X5.361 Y0.309 E3.04804
G1 X5.275 Y0.817 E3.06744
G1 X5.156 Y1.241 E3.08404
G1 X3.874 Y1.671 E3.13497
G1 X4.065 Y1.289 E3.15107
G1 X4.176 Y0.995 E3.16291
G1 X4.326 Y0.422 E3.18523
G1 X4.384 Y-0.148 E3.20681
G1 X4.378 Y-0.441 E3.21783
G1 X4.295 Y-0.991 E3.23881
G1 X4.215 Y-1.269 E3.24971
G1 X4.100 Y-1.559 E3.26145
G1 X3.963 Y-1.815 E3.27239
G1 X3.808 Y-2.038 E3.28261
G1 X3.637 Y-2.227 E3.29223
G1 X3.452 Y-2.383 E3.30133
G1 X3.259 Y-2.507 E3.30999
G1 X3.054 Y-2.604 E3.31852
G1 X2.658 Y-2.700 E3.33387
G1 X2.279 Y-2.688 E3.34816
G1 X2.083 Y-2.638 E3.35577
G1 X1.563 Y-2.355 E3.37807
G1 X1.171 Y-1.922 E3.40007
G1 X0.889 Y-1.389 E3.42279
G1 X0.682 Y-0.786 E3.44682
G1 X0.203 Y1.191 E3.52344
G1 X0.003 Y1.824 E3.54845
G1 X-0.257 Y2.401 E3.57229
G1 X-0.598 Y2.897 E3.59499
G1 X-1.043 Y3.296 E3.61749
G1 X-1.629 Y3.583 E3.64207
G1 X-2.013 Y3.686 E3.65707
G1 X-2.392 Y3.735 E3.67147
G1 X-2.757 Y3.731 E3.68521
G1 X-3.107 Y3.675 E3.69855
G1 X-3.440 Y3.569 E3.71172
G1 X-3.756 Y3.414 E3.72497
G1 X-4.053 Y3.211 E3.73852
G1 X-4.329 Y2.961 E3.75258
G1 X-4.583 Y2.663 E3.76732
G1 X-4.811 Y2.319 E3.78287
G1 X-5.011 Y1.929 E3.79938
G1 X-5.180 Y1.495 E3.81691
G1 X-5.286 Y1.117 E3.83173
G1 X-5.373 Y0.519 E3.85448
G1 X-5.381 Y0.117 E3.86965
G1 X-5.316 Y-0.514 E3.89354
G1 X-5.258 Y-0.777 E3.90369
G1 X-4.873 Y-0.687 F1800.000
M106 S255
G1 Z0.300 F1800.000
G1 X-3.998 Y2.406 F1800.000
G1 X-3.605 Y2.761 E3.92862 F710.722
G1 X-3.360 Y2.908 E3.94203
G1 X-3.113 Y3.011 E3.95462
G1 X-2.851 Y3.075 E3.96728
G1 X-2.580 Y3.097 E3.98007
G1 X-2.306 Y3.075 E3.99302
G1 X-2.003 Y2.999 E4.00770
