; generated by Slic3r 1.2.9 on 2022-12-18 at 17:17:15

; external perimeters extrusion width = 0.40mm
; perimeters extrusion width = 0.48mm
; infill extrusion width = 0.48mm
; solid infill extrusion width = 0.48mm
; top infill extrusion width = 0.48mm

M107
M190 S60 ; set bed temperature
M104 S200 ; set temperature
G28 ; home all axes
G1 Z5 F5000 ; lift nozzle

M109 S200 ; wait for temperature to be reached
G21 ; set units to millimeters
G90 ; use absolute coordinates
M82 ; use absolute distances for extrusion
G92 E0
G1 Z0.400 F7800.000
G1 E-2.00000 F2400.00000
G92 E0
G1 X15.188 Y12.297 F7800.000
G1 E2.00000 F2400.00000
G1 X12.795 Y15.220 E2.44862 F1800.000
G1 X11.567 Y16.646 E2.67211
G1 X10.575 Y17.718 E2.84556
G1 X9.929 Y18.344 E2.95245
G1 X9.228 Y18.935 E3.06135
G1 X7.882 Y19.921 E3.25953
G1 X6.958 Y20.490 E3.38832
G1 X6.095 Y20.929 E3.50332
G1 X5.556 Y21.174 E3.57368
G1 X5.033 Y21.384 E3.64061
G1 X4.012 Y21.703 E3.76761
G1 X2.587 Y22.026 E3.94114
G1 X1.562 Y22.177 E4.06428
G1 X0.604 Y22.242 E4.17831
G1 X0.002 Y22.261 E4.24984
G1 X-0.554 Y22.246 E4.31583
G1 X-1.562 Y22.177 E4.43582
G1 X-2.587 Y22.026 E4.55896
G1 X-4.012 Y21.703 E4.73249
G1 X-5.033 Y21.384 E4.85949
G1 X-5.556 Y21.174 E4.92642
G1 X-6.095 Y20.929 E4.99678
G1 X-6.958 Y20.490 E5.11178
G1 X-7.882 Y19.921 E5.24057
G1 X-9.228 Y18.935 E5.43874
G1 X-9.929 Y18.344 E5.54764
G1 X-10.881 Y17.402 E5.70666
G1 X-11.683 Y16.514 E5.84891
G1 X-12.795 Y15.220 E6.05148
G1 X-16.483 Y10.699 E6.74439
G1 X-16.953 Y10.042 E6.84038
G1 X-17.390 Y9.252 E6.94756
G1 X-17.925 Y8.091 E7.09932
G1 X-18.325 Y7.113 E7.22488
G1 X-18.576 Y6.380 E7.31692
G1 X-19.075 Y4.597 E7.53672
G1 X-19.249 Y3.780 E7.63593
G1 X-19.512 Y1.980 E7.85198
G1 X-19.582 Y1.214 E7.94339
G1 X-19.694 Y-0.784 E8.18103
G1 X-19.685 Y-2.825 E8.42342
G1 X-19.628 Y-4.437 E8.61506
G1 X-19.526 Y-5.523 E8.74461
G1 X-19.333 Y-6.864 E8.90545
G1 X-19.118 Y-7.857 E9.02620
G1 X-18.633 Y-9.533 E9.23336
G1 X-18.345 Y-10.314 E9.33215
G1 X-17.973 Y-11.039 E9.42896
G1 X-17.271 Y-12.209 E9.59103
G1 X-16.339 Y-13.610 E9.79087
G1 X-14.761 Y-15.762 E10.10784
G1 X-14.121 Y-16.551 E10.22845
G1 X-12.508 Y-18.405 E10.52041
G1 X-11.776 Y-19.108 E10.64082
G1 X-10.612 Y-20.089 E10.82167
G1 X-9.790 Y-20.681 E10.94193
G1 X-8.245 Y-21.626 E11.15710
G1 X-7.235 Y-22.132 E11.29125
G1 X-6.122 Y-22.578 E11.43368
G1 X-5.157 Y-22.905 E11.55469
G1 X-4.244 Y-23.130 E11.66628
G1 X-2.538 Y-23.424 E11.87196
G1 X-1.724 Y-23.514 E11.96920
G1 X-0.329 Y-23.583 E12.13504
G1 X0.329 Y-23.583 E12.21326
G1 X1.724 Y-23.514 E12.37910
G1 X2.538 Y-23.424 E12.47633 F1800.000
G1 X4.244 Y-23.130 E12.68202
G1 X5.157 Y-22.905 E12.79361
G1 X6.122 Y-22.578 E12.91461
G1 X7.235 Y-22.132 E13.05705
G1 X8.245 Y-21.626 E13.19119
G1 X9.790 Y-20.681 E13.40636
G1 X10.612 Y-20.089 E13.52662
G1 X11.776 Y-19.108 E13.70748
G1 X12.508 Y-18.405 E13.82789
G1 X12.804 Y-18.083 E13.87993
G1 X14.513 Y-16.080 E14.19263
G1 X16.531 Y-13.333 E14.59748
G1 X17.441 Y-11.937 E14.79533
G1 X17.973 Y-11.039 E14.91934
G1 X18.352 Y-10.299 E15.01809
G1 X18.624 Y-9.564 E15.11110
G1 X19.051 Y-8.104 E15.29181
G1 X19.203 Y-7.517 E15.36374
G1 X19.333 Y-6.864 E15.44289
G1 X19.494 Y-5.771 E15.57408
G1 X19.593 Y-4.914 E15.67656
G1 X19.628 Y-4.437 E15.73330
G1 X19.681 Y-3.052 E15.89796
G1 X19.694 Y-0.784 E16.16733
G1 X19.582 Y1.214 E16.40497
G1 X19.512 Y1.980 E16.49638
G1 X19.249 Y3.780 E16.71244
G1 X19.075 Y4.597 E16.81165
G1 X18.576 Y6.380 E17.03144
G1 X18.325 Y7.113 E17.12348
G1 X17.925 Y8.091 E17.24905
G1 X17.390 Y9.252 E17.40080
G1 X16.907 Y10.113 E17.51805
G1 X16.483 Y10.699 E17.60396
G1 X15.226 Y12.251 E17.84113
G1 E15.84113 F2400.00000
G92 E0
G1 X-2.345 Y-14.789 F7800.000
G1 E2.00000 F2400.00000
G1 X-1.193 Y-14.988 E2.13878 F1800.000
G1 X-0.000 Y-15.046 E2.28070
G1 X0.189 Y-15.037 E2.30317
G1 X1.193 Y-14.988 E2.42261 F1800.000
G1 X2.664 Y-14.734 E2.59980
G1 X3.007 Y-14.623 E2.64268
G1 X3.894 Y-14.268 E2.75615
G1 X4.418 Y-13.927 E2.83033
G1 X5.190 Y-13.477 E2.93647
G1 X5.524 Y-13.166 E2.99066
G1 X6.226 Y-12.610 E3.09709
G1 X6.331 Y-12.504 E3.11480
G1 X6.781 Y-11.919 E3.20248
G1 X7.287 Y-11.345 E3.29330
G1 X7.668 Y-10.952 E3.35826
G1 X7.870 Y-10.708 E3.39590
G1 X8.121 Y-10.321 E3.45066
G1 X8.684 Y-9.579 E3.56128
G1 X9.004 Y-9.093 E3.63041
G1 X9.444 Y-8.560 E3.71251
G1 X10.113 Y-7.538 E3.85759
G1 X10.275 Y-7.234 E3.89855
G1 X10.515 Y-6.852 E3.95214
G1 X10.899 Y-5.499 E4.11911
G1 X11.094 Y-4.047 E4.29314
G1 X11.143 Y-2.758 E4.44640
G1 X11.151 Y-0.810 E4.67770
G1 X11.046 Y0.838 E4.87382
G1 X10.816 Y2.410 E5.06248
G1 X10.378 Y3.978 E5.25586
G1 X10.039 Y4.807 E5.36221
G1 X9.730 Y5.448 E5.44676
G1 X9.273 Y5.959 E5.52815
G1 X9.078 Y6.243 E5.56907
G1 X8.775 Y6.576 E5.62258
G1 X8.113 Y7.458 E5.75350
G1 X7.809 Y7.782 E5.80625
G1 X7.680 Y7.956 E5.83203
G1 X7.394 Y8.262 E5.88177
G1 X6.897 Y8.854 E5.97350
G1 X6.302 Y9.664 E6.09295
G1 X5.786 Y10.202 E6.18144
G1 X5.520 Y10.512 E6.23001
G1 X5.219 Y10.918 E6.28999
G1 X4.927 Y11.194 E6.33763
G1 X4.574 Y11.632 E6.40449
G1 X4.209 Y11.961 E6.46284
G1 X4.050 Y12.134 E6.49076
G1 X3.315 Y12.645 E6.59710
G1 X2.919 Y12.960 E6.65722
G1 X2.293 Y13.279 E6.74061
G1 X1.981 Y13.404 E6.78061
G1 X1.007 Y13.625 E6.89922
G1 X-1.007 Y13.625 E7.13833
G1 X-1.981 Y13.404 E7.25695
G1 X-2.293 Y13.279 E7.29694
G1 X-2.919 Y12.960 E7.38033
G1 X-3.315 Y12.645 E7.44046
G1 X-4.050 Y12.134 E7.54679
G1 X-4.209 Y11.961 E7.57471
G1 X-4.574 Y11.632 E7.63307
G1 X-4.927 Y11.194 E7.69992
G1 X-5.219 Y10.918 E7.74756
G1 X-5.520 Y10.512 E7.80754
G1 X-5.786 Y10.202 E7.85612
G1 X-6.302 Y9.664 E7.94460
G1 X-6.897 Y8.854 E8.06406
G1 X-7.394 Y8.262 E8.15579
G1 X-7.680 Y7.956 E8.20552
G1 X-7.809 Y7.782 E8.23130
G1 X-8.113 Y7.458 E8.28405
G1 X-8.775 Y6.576 E8.41498
G1 X-9.078 Y6.243 E8.46848
G1 X-9.273 Y5.959 E8.50941
G1 X-9.730 Y5.448 E8.59080
G1 X-10.039 Y4.807 E8.67534
G1 X-10.378 Y3.978 E8.78170
G1 X-10.816 Y2.410 E8.97508
G1 X-11.046 Y0.836 E9.16402
G1 X-11.151 Y-0.810 E9.35980
G1 X-11.143 Y-2.758 E9.59116
G1 X-11.094 Y-4.047 E9.74441
G1 X-10.899 Y-5.498 E9.91831
G1 X-10.510 Y-6.863 E10.08680
G1 X-10.277 Y-7.231 E10.13858
G1 X-10.113 Y-7.538 E10.17996
G1 X-9.444 Y-8.560 E10.32504
G1 X-9.004 Y-9.093 E10.40713
G1 X-8.684 Y-9.579 E10.47627
G1 X-8.121 Y-10.321 E10.58688
G1 X-7.870 Y-10.708 E10.64164
G1 X-7.668 Y-10.952 E10.67928
G1 X-7.287 Y-11.345 E10.74424
G1 X-6.781 Y-11.919 E10.83507
G1 X-6.331 Y-12.504 E10.92275
G1 X-6.226 Y-12.610 E10.94046
G1 X-5.524 Y-13.166 E11.04689
G1 X-5.190 Y-13.477 E11.10107
G1 X-4.418 Y-13.927 E11.20721
G1 X-3.894 Y-14.268 E11.28140
G1 X-3.007 Y-14.623 E11.39486
G1 X-2.664 Y-14.734 E11.43774
G1 X-2.404 Y-14.779 E11.46903
G1 X-2.467 Y-15.492 F7800.000
G1 X-1.272 Y-15.699 E11.61299 F1800.000
G1 X-0.000 Y-15.761 E11.76425
G1 X0.224 Y-15.750 E11.79089
G1 X1.272 Y-15.699 E11.91551 F1800.000
G1 X2.835 Y-15.429 E12.10383
G1 X3.250 Y-15.295 E12.15561
G1 X4.225 Y-14.905 E12.28039
G1 X4.793 Y-14.535 E12.36088
G1 X5.618 Y-14.053 E12.47435
G1 X5.989 Y-13.708 E12.53454
G1 X6.705 Y-13.142 E12.64293
G1 X6.871 Y-12.973 E12.67105
G1 X7.333 Y-12.373 E12.76097
G1 X7.812 Y-11.830 E12.84700
G1 X8.200 Y-11.429 E12.91324
G1 X8.447 Y-11.132 E12.95915
G1 X8.705 Y-10.732 E13.01575
G1 X9.267 Y-9.992 E13.12604
G1 X9.579 Y-9.518 E13.19340
G1 X10.022 Y-8.982 E13.27603
G1 X10.719 Y-7.920 E13.42686
G1 X10.894 Y-7.592 E13.47104
G1 X11.174 Y-7.145 E13.53371
G1 X11.599 Y-5.650 E13.71834
G1 X11.746 Y-4.649 E13.83845
G1 X11.807 Y-4.100 E13.90410
G1 X11.857 Y-2.773 E14.06181
G1 X11.866 Y-0.789 E14.29745
G1 X11.757 Y0.913 E14.49991
G1 X11.516 Y2.558 E14.69742
G1 X11.054 Y4.210 E14.90111
G1 X10.692 Y5.097 E15.01497
G1 X10.329 Y5.849 E15.11405
G1 X9.836 Y6.401 E15.20191
G1 X9.640 Y6.688 E15.24327
G1 X9.326 Y7.033 E15.29866
G1 X8.660 Y7.917 E15.43014
G1 X8.358 Y8.240 E15.48261
G1 X8.229 Y8.415 E15.50841
G1 X7.928 Y8.736 E15.56067
G1 X7.459 Y9.295 E15.64738
G1 X6.849 Y10.125 E15.76966
G1 X6.315 Y10.682 E15.86136
G1 X6.078 Y10.958 E15.90456
G1 X5.755 Y11.394 E15.96898
G1 X5.453 Y11.680 E16.01836
G1 X5.094 Y12.125 E16.08626
G1 X4.712 Y12.469 E16.14740
G1 X4.522 Y12.675 E16.18063
G1 X3.742 Y13.218 E16.29355
G1 X3.307 Y13.564 E16.35952
G1 X2.589 Y13.930 E16.45526
G1 X2.194 Y14.088 E16.50577
G1 X1.087 Y14.339 E16.64066
G1 X-1.087 Y14.339 E16.89877
G1 X-2.194 Y14.088 E17.03365
G1 X-2.589 Y13.930 E17.08417
G1 X-3.307 Y13.564 E17.17991
G1 X-3.742 Y13.218 E17.24587
G1 X-4.522 Y12.675 E17.35880
G1 X-4.712 Y12.469 E17.39202
G1 X-5.095 Y12.125 E17.45317
G1 X-5.453 Y11.680 E17.52106
G1 X-5.755 Y11.394 E17.57044
G1 X-6.078 Y10.958 E17.63487
G1 X-6.315 Y10.682 E17.67807
G1 X-6.849 Y10.125 E17.76977
G1 X-7.459 Y9.295 E17.89204
G1 X-7.928 Y8.736 E17.97875
G1 X-8.229 Y8.415 E18.03102
G1 X-8.358 Y8.240 E18.05681
G1 X-8.660 Y7.917 E18.10929
G1 X-9.326 Y7.033 E18.24077
G1 X-9.640 Y6.688 E18.29616
G1 X-9.836 Y6.401 E18.33751
G1 X-10.329 Y5.849 E18.42538
G1 X-10.692 Y5.097 E18.52445
G1 X-11.054 Y4.210 E18.63831
G1 X-11.516 Y2.558 E18.84201
G1 X-11.757 Y0.911 E19.03969
G1 X-11.866 Y-0.788 E19.24195
G1 X-11.857 Y-2.773 E19.47761
G1 X-11.807 Y-4.100 E19.63532
G1 X-11.746 Y-4.649 E19.70097
G1 X-11.599 Y-5.649 E19.82100
G1 X-11.169 Y-7.158 E20.00732
G1 X-10.895 Y-7.590 E20.06813
G1 X-10.719 Y-7.920 E20.11256
G1 X-10.022 Y-8.982 E20.26339
G1 X-9.579 Y-9.518 E20.34602
G1 X-9.267 Y-9.992 E20.41338
G1 X-8.706 Y-10.732 E20.52368
G1 X-8.447 Y-11.132 E20.58027
G1 X-8.200 Y-11.429 E20.62618
G1 X-7.812 Y-11.830 E20.69242
G1 X-7.333 Y-12.373 E20.77845
G1 X-6.871 Y-12.973 E20.86837
G1 X-6.705 Y-13.142 E20.89650
G1 X-5.989 Y-13.708 E21.00489
G1 X-5.618 Y-14.053 E21.06507
G1 X-4.793 Y-14.535 E21.17855
G1 X-4.225 Y-14.905 E21.25903
G1 X-3.250 Y-15.295 E21.38381
G1 X-2.835 Y-15.429 E21.43559
G1 X-2.526 Y-15.482 E21.47282
G1 X-2.588 Y-16.196 F7800.000
G1 X-1.351 Y-16.410 E21.62197 F1800.000
G1 X-0.000 Y-16.476 E21.78257
G1 X0.259 Y-16.464 E21.81338
G1 X1.351 Y-16.410 E21.94318 F1800.000
G1 X3.006 Y-16.124 E22.14263
G1 X3.492 Y-15.968 E22.20331
G1 X4.556 Y-15.542 E22.33940
G1 X5.168 Y-15.143 E22.42619
G1 X6.047 Y-14.630 E22.54700
G1 X6.455 Y-14.251 E22.61318
G1 X7.183 Y-13.674 E22.72353
G1 X7.410 Y-13.443 E22.76207
G1 X7.884 Y-12.828 E22.85423
G1 X8.336 Y-12.315 E22.93547
G1 X8.732 Y-11.906 E23.00299
G1 X9.023 Y-11.555 E23.05717
G1 X9.290 Y-11.142 E23.11560
G1 X9.850 Y-10.405 E23.22558
G1 X10.154 Y-9.943 E23.29116
G1 X10.600 Y-9.404 E23.37433
G1 X11.180 Y-8.498 E23.50202
G1 X11.325 Y-8.302 E23.53095
G1 X11.512 Y-7.950 E23.57835
G1 X11.834 Y-7.438 E23.65011
G1 X12.299 Y-5.800 E23.85240
G1 X12.455 Y-4.740 E23.97961
G1 X12.519 Y-4.152 E24.04986
G1 X12.571 Y-2.788 E24.21203
G1 X12.580 Y-0.767 E24.45199
G1 X12.467 Y0.987 E24.66079
G1 X12.216 Y2.707 E24.86715
G1 X11.731 Y4.442 E25.08117
G1 X11.344 Y5.388 E25.20253
G1 X10.929 Y6.249 E25.31614
G1 X10.400 Y6.842 E25.41047
G1 X10.201 Y7.132 E25.45226
G1 X9.876 Y7.489 E25.50953
G1 X9.208 Y8.377 E25.64157
G1 X8.908 Y8.698 E25.69377
G1 X8.778 Y8.873 E25.71957
G1 X8.463 Y9.210 E25.77437
G1 X8.021 Y9.737 E25.85606
G1 X7.397 Y10.585 E25.98115
G1 X6.844 Y11.162 E26.07607
G1 X6.637 Y11.404 E26.11389
G1 X6.292 Y11.870 E26.18277
G1 X5.979 Y12.165 E26.23389
G1 X5.615 Y12.618 E26.30282
G1 X5.214 Y12.977 E26.36675
G1 X4.995 Y13.216 E26.40530
G1 X4.169 Y13.791 E26.52480
G1 X3.696 Y14.168 E26.59661
G1 X2.885 Y14.580 E26.70469
G1 X2.408 Y14.772 E26.76573
G1 X1.044 Y15.081 E26.93179
G1 X0.545 Y15.116 E26.99128
G1 X0.545 Y15.054 E26.99865
G1 X-0.445 Y15.054 E27.11613
G1 X-0.445 Y15.103 E27.12204
G1 X-0.465 Y15.103 E27.12445
G1 X-0.466 Y15.121 E27.12655
G1 X-1.044 Y15.081 E27.19536
G1 X-2.408 Y14.772 E27.36142
G1 X-2.885 Y14.580 E27.42246
G1 X-3.696 Y14.168 E27.53055
G1 X-4.169 Y13.791 E27.60235
G1 X-4.995 Y13.216 E27.72186
G1 X-5.214 Y12.977 E27.76040
G1 X-5.615 Y12.618 E27.82433
G1 X-5.979 Y12.165 E27.89327
G1 X-6.292 Y11.870 E27.94438
G1 X-6.637 Y11.404 E28.01326
G1 X-6.844 Y11.162 E28.05108
G1 X-7.397 Y10.585 E28.14600
G1 X-8.021 Y9.737 E28.27109
G1 X-8.463 Y9.210 E28.35278
G1 X-8.778 Y8.873 E28.40758
G1 X-8.908 Y8.698 E28.43338
G1 X-9.208 Y8.377 E28.48559
G1 X-9.876 Y7.489 E28.61762
G1 X-10.201 Y7.132 E28.67489
G1 X-10.400 Y6.842 E28.71668
G1 X-10.929 Y6.249 E28.81102
G1 X-11.344 Y5.388 E28.92462
G1 X-11.731 Y4.442 E29.04599
G1 X-12.216 Y2.707 E29.26000
G1 X-12.468 Y0.987 E29.46643
G1 X-12.580 Y-0.767 E29.67515
G1 X-12.571 Y-2.788 E29.91513
G1 X-12.519 Y-4.152 E30.07729
G1 X-12.455 Y-4.740 E30.14754
G1 X-12.299 Y-5.800 E30.27472
G1 X-11.827 Y-7.453 E30.47887
G1 X-11.513 Y-7.949 E30.54871
G1 X-11.325 Y-8.302 E30.59620
G1 X-11.180 Y-8.498 E30.62513
G1 X-10.600 Y-9.404 E30.75283
G1 X-10.154 Y-9.943 E30.83599
G1 X-9.850 Y-10.405 E30.90158
G1 X-9.290 Y-11.142 E31.01155
G1 X-9.023 Y-11.555 E31.06999
G1 X-8.732 Y-11.906 E31.12417
G1 X-8.336 Y-12.315 E31.19169
G1 X-7.884 Y-12.828 E31.27293
G1 X-7.410 Y-13.443 E31.36508
G1 X-7.183 Y-13.674 E31.40362
G1 X-6.455 Y-14.251 E31.51397
G1 X-6.047 Y-14.630 E31.58016
G1 X-5.168 Y-15.143 E31.70097
G1 X-4.556 Y-15.542 E31.78775
G1 X-3.492 Y-15.968 E31.92385
G1 X-3.006 Y-16.124 E31.98452
G1 X-2.647 Y-16.186 E32.02770
G1 X-2.332 Y-15.889 F7800.000
G1 Z0.700 F7800.000
G1 X-2.617 Y-16.356 F7800.000
G1 X-1.298 Y-16.596 E32.09775 F3305.793
G1 X-0.001 Y-16.665 E32.16561
G1 X0.822 Y-16.620 E32.20869
G1 X1.300 Y-16.596 E32.23370 F3305.793
G1 X2.882 Y-16.308 E32.31771
G1 X3.630 Y-16.042 E32.35919
G1 X4.386 Y-15.804 E32.40058
G1 X4.777 Y-15.585 E32.42397
G1 X5.780 Y-15.090 E32.48244
G1 X5.960 Y-14.955 E32.49419
G1 X6.639 Y-14.313 E32.54299
G1 X7.019 Y-14.012 E32.56834
G1 X7.425 Y-13.550 E32.60047
G1 X8.203 Y-12.812 E32.65651
G1 X8.832 Y-11.950 E32.71221
G1 X9.286 Y-11.445 E32.74770
G1 X9.477 Y-11.181 E32.76474
G1 X9.897 Y-10.700 E32.79813
G1 X10.174 Y-10.279 E32.82442
G1 X10.533 Y-9.846 E32.85380
G1 X11.290 Y-8.765 E32.92278
G1 X11.903 Y-7.216 E33.00981
G1 X12.267 Y-5.673 E33.09261
G1 X12.449 Y-4.090 E33.17590
G1 X12.509 Y-2.415 E33.26342
G1 X12.351 Y0.940 E33.43893
G1 X12.089 Y2.614 E33.52742
G1 X11.703 Y4.279 E33.61672
G1 X11.055 Y5.896 E33.70775
G1 X10.228 Y7.258 E33.79099
G1 X10.134 Y7.363 E33.79835
G1 X9.925 Y7.668 E33.81766
G1 X9.404 Y8.276 E33.85948
G1 X8.636 Y9.097 E33.91825
G1 X8.060 Y9.873 E33.96872
G1 X7.329 Y10.668 E34.02513
G1 X6.917 Y11.231 E34.06160
G1 X6.624 Y11.544 E34.08401
G1 X6.340 Y11.928 E34.10894
G1 X5.961 Y12.320 E34.13741
G1 X5.741 Y12.595 E34.15582
G1 X5.256 Y13.031 E34.18992
G1 X4.566 Y13.773 E34.24284
G1 X3.748 Y14.259 E34.29255
G1 X3.449 Y14.458 E34.31132
G1 X2.861 Y14.689 E34.34434
G1 X2.220 Y14.972 E34.38095
G1 X0.954 Y15.276 E34.44895
G1 X0.652 Y15.298 E34.46476
G1 X-0.652 Y15.298 E34.53292
G1 X-0.954 Y15.276 E34.54873
G1 X-2.220 Y14.972 E34.61672
G1 X-2.861 Y14.689 E34.65334
G1 X-3.449 Y14.457 E34.68636
G1 X-3.748 Y14.259 E34.70513
G1 X-4.566 Y13.773 E34.75484
G1 X-5.256 Y13.031 E34.80775
G1 X-5.741 Y12.595 E34.84186
G1 X-5.961 Y12.320 E34.86027
G1 X-6.340 Y11.928 E34.88874
G1 X-6.624 Y11.544 E34.91367
G1 X-6.917 Y11.231 E34.93607
G1 X-7.329 Y10.668 E34.97254
G1 X-8.060 Y9.873 E35.02896
G1 X-8.636 Y9.097 E35.07943
G1 X-9.404 Y8.276 E35.13820
G1 X-9.925 Y7.668 E35.18001
G1 X-10.134 Y7.363 E35.19933
G1 X-10.228 Y7.258 E35.20668
G1 X-11.055 Y5.896 E35.28993
G1 X-11.703 Y4.279 E35.38096
G1 X-12.087 Y2.621 E35.46987
G1 X-12.351 Y0.934 E35.55909
G1 X-12.510 Y-2.455 E35.73633
G1 X-12.449 Y-4.089 E35.82174
G1 X-12.267 Y-5.673 E35.90507
G1 X-11.903 Y-7.216 E35.98787
G1 X-11.290 Y-8.765 E36.07490
G1 X-10.533 Y-9.846 E36.14388
G1 X-10.174 Y-10.279 E36.17326
G1 X-9.897 Y-10.700 E36.19955
G1 X-9.477 Y-11.181 E36.23294
G1 X-9.286 Y-11.445 E36.24997
G1 X-8.832 Y-11.950 E36.28547
G1 X-8.203 Y-12.812 E36.34116
G1 X-7.425 Y-13.550 E36.39721
G1 X-7.019 Y-14.012 E36.42934
G1 X-6.639 Y-14.313 E36.45469
G1 X-5.960 Y-14.955 E36.50348
G1 X-5.780 Y-15.090 E36.51524
G1 X-4.777 Y-15.585 E36.57371
G1 X-4.386 Y-15.804 E36.59709
G1 X-3.630 Y-16.042 E36.63848
G1 X-2.882 Y-16.308 E36.67997
G1 X-2.676 Y-16.345 E36.69090
G1 X-2.692 Y-16.768 F7800.000
G1 X-1.366 Y-17.010 E36.76135 F3305.793
G1 X-0.001 Y-17.085 E36.83278 F3600.000
G1 X1.366 Y-17.010 E36.90427
G1 X2.990 Y-16.714 E36.99055 F3305.793
