;FLAVOR:Marlin
;TIME:1587
;Filament used: 1.7127m
;Layer height: 0.2
;MINX:-16.238
;MINY:-16.235
;MINZ:0.3
;MAXX:16.238
;MAXY:16.234
;MAXZ:18.3
;Generated with Cura_SteamEngine 5.2.1
M140 S60
M105
M190 S60
M104 S210
M105
M109 S210
M82 ;absolute extrusion mode
G28 ;Home
G1 Z15.0 F6000 ;Move the platform down 15mm
;Prime the extruder
G92 E0
G1 F200 E3
G92 E0
M141 S28
G92 E0
G92 E0
G1 F1500 E-6.5
;LAYER_COUNT:91
;LAYER:0
M107
G0 F3600 X8.021 Y-14.072 Z0.3
;TYPE:SKIRT
G1 F1500 E0
G1 X8.735 Y-13.679 E0.04066
G1 X9.287 Y-13.313 E0.0737
G1 X9.812 Y-12.897 E0.10712
G1 X10.676 Y-12.192 E0.16276
G1 X11.229 Y-11.727 E0.1988
G1 X11.711 Y-11.246 E0.23278
G1 X12.281 Y-10.57 E0.27689
G1 X12.896 Y-9.818 E0.32536
G1 X13.311 Y-9.295 E0.35867
G1 X13.676 Y-8.748 E0.39147
G1 X14.006 Y-8.153 E0.42542
G1 X14.542 Y-7.15 E0.48215
G1 X14.876 Y-6.5 E0.51861
G1 X15.127 Y-5.894 E0.55134
G1 X15.33 Y-5.261 E0.5845
G1 X15.665 Y-4.158 E0.64201
G1 X15.864 Y-3.469 E0.67779
G1 X16 Y-2.773 E0.71317
G1 X16.173 Y-1.11 E0.79659
G1 X16.238 Y-.343 E0.83499
G1 X16.238 Y0.332 E0.86867
G1 X16.17 Y1.121 E0.90818
G1 X16.074 Y2.078 E0.95616
G1 X15.99 Y2.822 E0.99352
G1 X15.863 Y3.466 E1.02626
G1 X15.685 Y4.09 E1.05864
G1 X15.345 Y5.221 E1.11756
G1 X15.143 Y5.862 E1.15109
G1 X14.883 Y6.494 E1.18518
G1 X14.484 Y7.266 E1.22854
G1 X14.036 Y8.103 E1.2759
G1 X13.685 Y8.738 E1.3121
G1 X13.316 Y9.291 E1.34527
G1 X12.873 Y9.847 E1.38073
G1 X12.181 Y10.692 E1.43522
G1 X11.737 Y11.22 E1.46964
G1 X11.254 Y11.704 E1.50375
G1 X10.653 Y12.21 E1.54295
G1 X9.886 Y12.837 E1.59237
G1 X9.291 Y13.311 E1.63033
G1 X8.736 Y13.682 E1.66363
G1 X8.138 Y14.012 E1.69771
G1 X7.09 Y14.571 E1.75697
G1 X6.472 Y14.889 E1.79164
G1 X5.842 Y15.148 E1.82562
G1 X5.137 Y15.369 E1.86248
G1 X4.116 Y15.675 E1.91566
G1 X3.475 Y15.858 E1.94892
G1 X2.836 Y15.986 E1.98143
G1 X2.239 Y16.055 E2.01141
G1 X1.02 Y16.176 E2.07253
G1 X0.333 Y16.234 E2.10693
G1 X-.34 Y16.234 E2.1405
G1 X-1.065 Y16.172 E2.1768
G1 X-2.102 Y16.068 E2.2288
G1 X-2.833 Y15.985 E2.2655
G1 X-3.469 Y15.86 E2.29784
G1 X-4.05 Y15.696 E2.32796
G1 X-5.19 Y15.353 E2.38735
G1 X-5.843 Y15.147 E2.42151
G1 X-6.465 Y14.891 E2.45507
G1 X-7.145 Y14.542 E2.4932
G1 X-8.101 Y14.031 E2.54729
G1 X-8.738 Y13.679 E2.58359
G1 X-9.286 Y13.314 E2.61644
G1 X-9.854 Y12.864 E2.6526
G1 X-10.643 Y12.219 E2.70344
G1 X-11.253 Y11.704 E2.74327
G1 X-11.731 Y11.226 E2.77699
G1 X-12.222 Y10.644 E2.81498
G1 X-12.869 Y9.853 E2.86597
G1 X-13.317 Y9.289 E2.9019
G1 X-13.684 Y8.739 E2.93489
G1 X-14.017 Y8.138 E2.96917
G1 X-14.542 Y7.159 E3.02459
G1 X-14.879 Y6.504 E3.06134
G1 X-15.136 Y5.878 E3.0951
G1 X-15.372 Y5.13 E3.13423
G1 X-15.68 Y4.107 E3.18753
G1 X-15.866 Y3.45 E3.2216
G1 X-15.99 Y2.82 E3.25363
G1 X-16.067 Y2.152 E3.28718
G1 X-16.18 Y1.017 E3.34408
G1 X-16.238 Y0.326 E3.37868
G1 X-16.235 Y-.377 E3.41375
G1 X-16.078 Y-2.072 E3.49868
G1 X-15.993 Y-2.823 E3.53639
G1 X-15.862 Y-3.481 E3.56986
G1 X-15.666 Y-4.159 E3.60507
G1 X-15.365 Y-5.148 E3.65664
G1 X-15.126 Y-5.895 E3.69577
G1 X-14.872 Y-6.51 E3.72897
G1 X-14.542 Y-7.148 E3.76481
G1 X-14.031 Y-8.105 E3.81893
G1 X-13.682 Y-8.738 E3.85499
G1 X-13.314 Y-9.291 E3.88813
G1 X-12.862 Y-9.861 E3.92443
G1 X-12.168 Y-10.708 E3.97906
G1 X-11.737 Y-11.22 E4.01245
G1 X-11.255 Y-11.703 E4.04649
G1 X-10.632 Y-12.228 E4.08713
G1 X-9.319 Y-13.288 E4.17132
G1 X-8.747 Y-13.673 E4.20572
G1 X-8.138 Y-14.01 E4.24045
G1 X-7.07 Y-14.579 E4.30082
G1 X-6.485 Y-14.88 E4.33364
G1 X-5.881 Y-15.13 E4.36626
G1 X-5.157 Y-15.363 E4.4042
G1 X-4.133 Y-15.672 E4.45756
G1 X-3.475 Y-15.86 E4.4917
G1 X-2.83 Y-15.988 E4.52451
G1 X-2.129 Y-16.068 E4.55971
G1 X-1.011 Y-16.178 E4.61576
G1 X-.343 Y-16.235 E4.64921
G1 X0.334 Y-16.235 E4.68298
G1 X1.02 Y-16.177 E4.71733
G1 X2.161 Y-16.063 E4.77454
G1 X2.86 Y-15.982 E4.80964
G1 X3.507 Y-15.853 E4.84256
G1 X4.148 Y-15.668 E4.87584
G1 X5.851 Y-15.143 E4.96475
G1 X6.51 Y-14.868 E5.00038
G1 X8.021 Y-14.072 E5.08558
G0 F3600 X7.894 Y-13.686
G1 F1500 X8.542 Y-13.329 E5.12249
G1 X9.039 Y-12.999 E5.15225
G1 X9.559 Y-12.587 E5.18535
G1 X10.419 Y-11.885 E5.24074
G1 X10.972 Y-11.42 E5.27679
G1 X11.406 Y-10.988 E5.30734
G1 X11.972 Y-10.317 E5.35113
G1 X12.583 Y-9.57 E5.39928
G1 X12.998 Y-9.047 E5.43259
G1 X13.327 Y-8.554 E5.46216
G1 X13.653 Y-7.964 E5.49579
G1 X14.186 Y-6.967 E5.55219
G1 X14.52 Y-6.317 E5.58865
G1 X14.746 Y-5.771 E5.61813
G1 X14.966 Y-5.085 E5.65407
G1 X15.281 Y-4.047 E5.70819
G1 X15.48 Y-3.358 E5.74397
G1 X15.602 Y-2.731 E5.77584
G1 X15.775 Y-1.068 E5.85925
G1 X15.839 Y-.309 E5.89725
G1 X15.839 Y0.298 E5.92754
G1 X15.772 Y1.081 E5.96674
G1 X15.676 Y2.033 E6.01448
G1 X15.592 Y2.777 E6.05183
G1 X15.478 Y3.356 E6.08127
G1 X15.302 Y3.975 E6.11338
G1 X14.964 Y5.101 E6.17203
G1 X14.762 Y5.742 E6.20556
G1 X14.527 Y6.311 E6.23628
G1 X14.131 Y7.077 E6.2793
G1 X13.686 Y7.91 E6.32641
G1 X13.335 Y8.545 E6.36261
G1 X13.003 Y9.042 E6.39243
G1 X12.564 Y9.594 E6.42762
G1 X11.875 Y10.435 E6.48186
G1 X11.431 Y10.963 E6.51628
G1 X10.996 Y11.399 E6.547
G1 X10.4 Y11.9 E6.58585
G1 X9.637 Y12.524 E6.63502
G1 X9.042 Y12.998 E6.67298
G1 X8.542 Y13.332 E6.70297
G1 X7.95 Y13.659 E6.73672
G1 X6.907 Y14.215 E6.79568
G1 X6.289 Y14.533 E6.83036
G1 X5.722 Y14.766 E6.86094
G1 X5.022 Y14.986 E6.89755
G1 X4.006 Y15.291 E6.95047
G1 X3.365 Y15.474 E6.98373
G1 X2.79 Y15.588 E7.01297
G1 X2.136 Y15.663 E7.04581
G1 X0.986 Y15.777 E7.10347
G1 X0.299 Y15.835 E7.13787
G1 X-.307 Y15.835 E7.1681
G1 X-1.025 Y15.774 E7.20405
G1 X-2.057 Y15.671 E7.25579
G1 X-2.788 Y15.588 E7.2925
G1 X-3.36 Y15.476 E7.32158
G1 X-3.935 Y15.313 E7.35139
G1 X-5.07 Y14.971 E7.41053
G1 X-5.723 Y14.765 E7.44469
G1 X-6.283 Y14.535 E7.4749
G1 X-6.956 Y14.189 E7.51265
G1 X-7.907 Y13.681 E7.56644
G1 X-8.544 Y13.329 E7.60275
G1 X-9.038 Y13 E7.63236
G1 X-9.601 Y12.554 E7.6682
G1 X-10.432 Y11.874 E7.72177
G1 X-10.995 Y11.399 E7.75852
G1 X-11.426 Y10.968 E7.78892
G1 X-11.912 Y10.391 E7.82656
G1 X-12.556 Y9.604 E7.8773
G1 X-13.004 Y9.04 E7.91323
G1 X-13.334 Y8.545 E7.94291
G1 X-13.664 Y7.948 E7.97694
G1 X-14.186 Y6.976 E8.03199
G1 X-14.523 Y6.321 E8.06874
G1 X-14.755 Y5.758 E8.09912
G1 X-14.989 Y5.015 E8.13798
G1 X-15.295 Y3.998 E8.19096
G1 X-15.481 Y3.341 E8.22503
G1 X-15.593 Y2.774 E8.25387
G1 X-15.669 Y2.112 E8.28711
G1 X-15.781 Y0.983 E8.34371
G1 X-15.839 Y0.292 E8.37831
G1 X-15.837 Y-.34 E8.40984
G1 X-15.688 Y-1.953 E8.49065
G1 X-15.595 Y-2.778 E8.53207
G1 X-15.477 Y-3.37 E8.56219
G1 X-15.283 Y-4.042 E8.59708
G1 X-14.967 Y-5.078 E8.65112
G1 X-14.745 Y-5.773 E8.68752
G1 X-14.516 Y-6.327 E8.71743
G1 X-14.19 Y-6.96 E8.75295
G1 X-13.681 Y-7.912 E8.80681
G1 X-13.332 Y-8.545 E8.84287
G1 X-13.001 Y-9.043 E8.8727
G1 X-12.553 Y-9.607 E8.90864
G1 X-11.862 Y-10.45 E8.96302
G1 X-11.431 Y-10.962 E8.99641
G1 X-10.997 Y-11.397 E9.02707
G1 X-10.374 Y-11.922 E9.06771
G1 X-9.067 Y-12.977 E9.15151
G1 X-8.553 Y-13.323 E9.18242
G1 X-7.95 Y-13.657 E9.21681
G1 X-6.887 Y-14.223 E9.2769
G1 X-6.302 Y-14.524 E9.30972
G1 X-5.759 Y-14.75 E9.33906
G1 X-5.042 Y-14.98 E9.37663
G1 X-4.023 Y-15.287 E9.42972
G1 X-3.365 Y-15.475 E9.46387
G1 X-2.785 Y-15.591 E9.49337
G1 X-2.09 Y-15.67 E9.52827
G1 X-.977 Y-15.779 E9.58407
G1 X-.309 Y-15.836 E9.61751
G1 X0.3 Y-15.836 E9.6479
G1 X1.038 Y-15.773 E9.68485
G1 X2.115 Y-15.666 E9.73885
G1 X2.814 Y-15.585 E9.77395
G1 X3.397 Y-15.468 E9.80362
G1 X4.032 Y-15.285 E9.83659
G1 X5.046 Y-14.978 E9.88944
G1 X5.73 Y-14.762 E9.92523
G1 X6.324 Y-14.514 E9.95734
G1 X7.894 Y-13.686 E10.0459
G0 F3600 X7.701 Y-13.336
G1 F1500 X8.349 Y-12.979 E10.08281
G1 X8.791 Y-12.685 E10.10929
G1 X9.306 Y-12.277 E10.14207
G1 X10.161 Y-11.579 E10.19714
G1 X10.714 Y-11.114 E10.23318
G1 X11.1 Y-10.73 E10.26035
G1 X11.662 Y-10.063 E10.30386
G1 X12.27 Y-9.321 E10.35172
G1 X12.685 Y-8.798 E10.38503
G1 X12.977 Y-8.36 E10.41129
G1 X13.301 Y-7.775 E10.44465
G1 X13.83 Y-6.785 E10.50066
G1 X14.164 Y-6.135 E10.53711
G1 X14.365 Y-5.649 E10.56335
G1 X14.583 Y-4.969 E10.59898
G1 X14.896 Y-3.936 E10.65283
G1 X15.095 Y-3.247 E10.68861
G1 X15.204 Y-2.69 E10.71692
G1 X15.383 Y-.964 E10.8035
G1 X15.441 Y-.275 E10.83799
G1 X15.44 Y0.264 E10.86488
G1 X15.374 Y1.041 E10.90379
G1 X15.279 Y1.988 E10.95127
G1 X15.195 Y2.732 E10.98863
G1 X15.093 Y3.247 E11.01482
G1 X14.919 Y3.86 E11.04661
G1 X14.582 Y4.981 E11.10501
G1 X14.38 Y5.622 E11.13854
G1 X14.172 Y6.127 E11.16579
G1 X13.779 Y6.888 E11.20852
G1 X13.336 Y7.716 E11.25537
G1 X12.985 Y8.351 E11.29156
G1 X12.689 Y8.794 E11.31815
G1 X12.254 Y9.341 E11.35301
G1 X11.569 Y10.178 E11.40697
G1 X11.125 Y10.706 E11.44139
G1 X10.738 Y11.093 E11.4687
G1 X10.147 Y11.591 E11.50725
G1 X9.388 Y12.211 E11.55615
G1 X8.793 Y12.685 E11.5941
G1 X8.348 Y12.982 E11.62079
G1 X7.762 Y13.306 E11.6542
G1 X6.724 Y13.859 E11.71287
G1 X6.106 Y14.177 E11.74755
G1 X5.602 Y14.385 E11.77475
G1 X4.907 Y14.603 E11.81109
G1 X3.896 Y14.906 E11.86375
G1 X3.255 Y15.089 E11.897
G1 X2.744 Y15.191 E11.923
G1 X2.096 Y15.265 E11.95554
G1 X0.952 Y15.379 E12.0129
G1 X0.265 Y15.437 E12.04729
G1 X-.273 Y15.437 E12.07413
G1 X-.985 Y15.376 E12.10979
G1 X-2.012 Y15.274 E12.16127
G1 X-2.743 Y15.191 E12.19798
G1 X-3.252 Y15.091 E12.22386
G1 X-3.82 Y14.93 E12.25331
G1 X-4.95 Y14.59 E12.31219
G1 X-5.603 Y14.384 E12.34635
G1 X-6.1 Y14.179 E12.37317
G1 X-6.768 Y13.836 E12.41063
G1 X-7.714 Y13.331 E12.46413
G1 X-8.351 Y12.979 E12.50044
G1 X-8.79 Y12.687 E12.52674
G1 X-9.347 Y12.245 E12.56222
G1 X-10.175 Y11.568 E12.61558
G1 X-10.738 Y11.093 E12.65233
G1 X-11.12 Y10.71 E12.67932
G1 X-11.603 Y10.137 E12.7167
G1 X-12.243 Y9.355 E12.76712
G1 X-12.691 Y8.791 E12.80305
G1 X-12.984 Y8.352 E12.82939
G1 X-13.312 Y7.759 E12.8632
G1 X-13.83 Y6.793 E12.91788
G1 X-14.167 Y6.138 E12.95463
G1 X-14.374 Y5.637 E12.98167
G1 X-14.606 Y4.899 E13.02027
G1 X-14.91 Y3.889 E13.07289
G1 X-15.096 Y3.232 E13.10696
G1 X-15.196 Y2.728 E13.13259
G1 X-15.271 Y2.073 E13.16548
G1 X-15.383 Y0.95 E13.22179
G1 X-15.441 Y0.259 E13.25638
G1 X-15.438 Y-.303 E13.28442
G1 X-15.283 Y-1.982 E13.36855
G1 X-15.198 Y-2.733 E13.40625
G1 X-15.093 Y-3.259 E13.43301
G1 X-14.914 Y-3.88 E13.46526
G1 X-14.586 Y-4.957 E13.52142
G1 X-14.364 Y-5.652 E13.55782
G1 X-14.16 Y-6.144 E13.5844
G1 X-13.837 Y-6.771 E13.61958
G1 X-13.33 Y-7.719 E13.67322
G1 X-12.981 Y-8.352 E13.70928
G1 X-12.687 Y-8.794 E13.73576
G1 X-12.243 Y-9.354 E13.77142
G1 X-11.556 Y-10.193 E13.82552
G1 X-11.125 Y-10.705 E13.85891
G1 X-10.739 Y-11.091 E13.88614
G1 X-10.063 Y-11.66 E13.93023
G1 X-8.816 Y-12.666 E14.01016
G1 X-8.359 Y-12.974 E14.03765
G1 X-7.762 Y-13.304 E14.07169
G1 X-6.704 Y-13.867 E14.13148
G1 X-6.119 Y-14.168 E14.1643
G1 X-5.636 Y-14.369 E14.1904
G1 X-4.926 Y-14.597 E14.2276
G1 X-3.913 Y-14.903 E14.2804
G1 X-3.255 Y-15.091 E14.31454
G1 X-2.739 Y-15.193 E14.34078
G1 X-2.051 Y-15.272 E14.37533
G1 X-.985 Y-15.377 E14.42877
G1 X-.275 Y-15.437 E14.46432
G1 X0.267 Y-15.438 E14.49136
G1 X0.953 Y-15.38 E14.52571
G1 X2.069 Y-15.269 E14.58166
G1 X2.768 Y-15.188 E14.61677
G1 X3.286 Y-15.084 E14.64313
G1 X4.888 Y-14.608 E14.7265
G1 X5.61 Y-14.38 E14.76428
G1 X6.137 Y-14.16 E14.79277
G1 X7.701 Y-13.336 E14.88096
G1 F1500 E8.38096
G0 F3600 X6.072 Y-10.668
;TYPE:SUPPORT
G1 F1500 E14.88096
G1 X-6.071 Y-10.668 E15.48678
G0 F3600 X-5.334 Y-11.062
G1 F1500 X-5.334 Y-6.339 E15.72241
G0 F3600 X-6.34 Y-5.334
G1 F1500 X-11.066 Y-5.334 E15.95819
G0 F3600 X-10.668 Y-6.081
G1 F1500 X-10.668 Y6.086 E16.56521
G0 F3600 X-11.071 Y5.333
G1 F1500 X-6.339 Y5.334 E16.80129
G0 F3600 X-5.334 Y6.34
G1 F1500 X-5.334 Y11.063 E17.03692
G0 F3600 X-6.075 Y10.668
G1 F1500 X6.074 Y10.668 E17.64303
G0 F3600 X5.334 Y11.064
G1 F1500 X5.334 Y6.339 E17.87877
G0 F3600 X6.34 Y5.334
G1 F1500 X11.07 Y5.334 E18.11475
G0 F3600 X10.668 Y6.087
G1 F1500 X10.668 Y-6.08 E18.72176
G0 F3600 X11.067 Y-5.333
G1 F1500 X6.339 Y-5.334 E18.95764
G0 F3600 X5.334 Y-6.34
G1 F1500 X5.334 Y-11.061 E19.19317
G0 F3600 X2.667 Y-12.019
G1 F1500 X2.667 Y-7.849 E19.40122
G0 F3600 X2.161 Y-8.001
G1 F1500 X9.317 Y-8 E19.75823
G0 F3600 X8.001 Y-9.313
G1 F1500 X8.001 Y-2.165 E20.11485
G0 F3600 X7.848 Y-2.666
G1 F1500 X12.021 Y-2.666 E20.32304
G0 F3600 X12.341 Y0.00
G1 F1500 X8.324 Y0.00 E20.52345
G0 F3600 X8.001 Y2.162
G1 F1500 X8.001 Y9.314 E20.88026
G0 F3600 X9.317 Y8.001
G1 F1500 X2.162 Y8.001 E21.23722
G0 F3600 X2.667 Y7.848
G1 F1500 X2.667 Y12.018 E21.44527
G0 F3600 X0.00 Y12.338
G1 F1500 X0.00 Y8.324 E21.64553
G0 F3600 X-2.161 Y8.001
G1 F1500 X-9.319 Y8 E22.00264
G0 F3600 X-8.001 Y9.313
G1 F1500 X-8.001 Y2.163 E22.35936
G0 F3600 X-7.848 Y2.666
G1 F1500 X-12.019 Y2.666 E22.56745
G0 F3600 X-12.342 Y0.00
G1 F1500 X-8.324 Y0.00 E22.76791
G0 F3600 X-8.001 Y-2.164
G1 F1500 X-8.001 Y-9.314 E23.12462
G0 F3600 X-9.316 Y-8.001
G1 F1500 X-2.162 Y-8.001 E23.48154
G0 F3600 X-2.667 Y-7.848
G1 F1500 X-2.667 Y-12.02 E23.68968
G0 F3600 X0.00 Y-12.339
G1 F1500 X0.00 Y-8.324 E23.88999
G1 F1500 E17.38999
G0 F3600 X-0.004 Y-8.367
G0 X-1.631 Y-8.208
G0 X-3.202 Y-7.731
G0 X-4.649 Y-6.958
G0 X-5.917 Y-5.917
G0 X-6.958 Y-4.649
G0 X-7.653 Y-3.347
G0 X-7.849 Y-2.667
G1 F1500 E23.88999
G1 X-12.02 Y-2.667 E24.09808
G1 F1500 E17.59808
G0 F3600 X-6.958 Y4.649
G0 X-5.917 Y5.917
G0 X-4.649 Y6.958
G0 X-3.347 Y7.653
G0 X-2.667 Y7.849
G1 F1500 E24.09808
G1 X-2.667 Y12.017 E24.30602
G1 F1500 E17.80602
G0 F3600 X4.649 Y6.958
G0 X5.917 Y5.917
G0 X6.958 Y4.649
G0 X7.653 Y3.347
G0 X7.848 Y2.667
G1 F1500 E24.30602
G1 X12.018 Y2.667 E24.51406
G1 F1500 E18.01406
;MESH:v1.stl
G0 F3600 X8.178 Y1.733
G0 X7.14 Y1.419
G0 X-6.797 Y0.00
G1 F1500 E24.51406
G0 F3600 X-7.098 Y0.001
;TYPE:WALL-INNER
G1 F1500 X-6.961 Y1.382 E24.5833
G1 X-6.558 Y2.714 E24.65273
G1 X-5.901 Y3.941 E24.72217
G1 X-5.02 Y5.016 E24.79151
G1 X-3.941 Y5.901 E24.86113
G1 X-2.718 Y6.556 E24.93035
G1 X-1.382 Y6.961 E25
G1 X0.00 Y7.098 E25.06928
G1 X1.382 Y6.961 E25.13857
G1 X2.718 Y6.556 E25.20822
G1 X3.941 Y5.901 E25.27743
G1 X5.02 Y5.016 E25.34705
G1 X5.901 Y3.941 E25.4164
G1 X6.557 Y2.714 E25.48581
G1 X6.961 Y1.382 E25.55525
G1 X7.029 Y0.689 E25.58999
G1 X7.098 Y-0.001 E25.62459
G1 X6.961 Y-1.382 E25.69383
G1 X6.556 Y-2.718 E25.76348
G1 X5.901 Y-3.941 E25.83269
G1 X5.015 Y-5.02 E25.90234
G1 X3.94 Y-5.901 E25.97169
G1 X2.717 Y-6.555 E26.04088
G1 X1.382 Y-6.961 E26.11049
G1 X0.00 Y-7.098 E26.17978
G1 X-1.382 Y-6.961 E26.24907
G1 X-2.718 Y-6.556 E26.31871
G1 X-3.941 Y-5.901 E26.38793
G1 X-5.02 Y-5.016 E26.45755
G1 X-5.901 Y-3.941 E26.52689
G1 X-6.558 Y-2.714 E26.59633
G1 X-6.961 Y-1.382 E26.66576
G1 X-7.098 Y0.001 E26.7351
G0 F3600 X-7.5 Y0.001
;TYPE:WALL-OUTER
G1 F1500 X-7.355 Y1.46 E26.80825
G1 X-6.929 Y2.868 E26.88164
G1 X-6.235 Y4.164 E26.95498
G1 X-5.304 Y5.3 E27.02826
G1 X-4.164 Y6.235 E27.10182
G1 X-2.872 Y6.927 E27.17494
G1 X-1.46 Y7.355 E27.24855
G1 X0.00 Y7.5 E27.32174
G1 X1.46 Y7.355 E27.39494
G1 X2.872 Y6.927 E27.46855
G1 X4.164 Y6.235 E27.54167
G1 X5.304 Y5.3 E27.61523
G1 X6.235 Y4.164 E27.68851
G1 X6.929 Y2.868 E27.76185
G1 X7.355 Y1.46 E27.83524
G1 X7.427 Y0.728 E27.87194
G1 X7.5 Y-0.001 E27.90849
G1 X7.355 Y-1.46 E27.98164
G1 X6.927 Y-2.872 E28.05525
G1 X6.235 Y-4.164 E28.12837
G1 X5.3 Y-5.304 E28.20193
G1 X4.164 Y-6.235 E28.27521
G1 X2.871 Y-6.927 E28.34837
G1 X1.46 Y-7.355 E28.42193
G1 X0.00 Y-7.5 E28.49513
G1 X-1.46 Y-7.355 E28.56833
G1 X-2.872 Y-6.927 E28.64194
G1 X-4.164 Y-6.235 E28.71506
G1 X-5.304 Y-5.3 E28.78862
G1 X-6.235 Y-4.164 E28.8619
G1 X-6.929 Y-2.868 E28.93524
G1 X-7.355 Y-1.46 E29.00863
G1 X-7.5 Y0.001 E29.08188
G0 F3600 X-7.481 Y0.2
G0 X-6.716 Y0.002
;TYPE:SKIN
G1 F1500 X-6.651 Y0.656 E29.11467
G1 X-6.586 Y1.305 E29.14721
G1 X-6.205 Y2.566 E29.21293
G1 X-5.581 Y3.73 E29.27882
G1 X-4.751 Y4.743 E29.34416
G1 X-3.726 Y5.583 E29.41027
G1 X-2.573 Y6.201 E29.47554
G1 X-1.304 Y6.586 E29.5417
G1 X0.00 Y6.716 E29.60708
G1 X1.304 Y6.586 E29.67246
G1 X2.573 Y6.201 E29.73862
G1 X3.726 Y5.583 E29.80388
G1 X4.749 Y4.745 E29.86986
G1 X5.583 Y3.726 E29.93555
G1 X6.205 Y2.566 E30.00122
G1 X6.586 Y1.305 E30.06694
G1 X6.716 Y-0.002 E30.13247
G1 X6.586 Y-1.304 E30.19775
G1 X6.201 Y-2.573 E30.26391
G1 X5.583 Y-3.726 E30.32917
G1 X4.742 Y-4.75 E30.39528
G1 X3.725 Y-5.582 E30.46084
G1 X2.571 Y-6.2 E30.52614
G1 X1.304 Y-6.586 E30.59222
G1 X0.00 Y-6.716 E30.6576
G1 X-1.304 Y-6.586 E30.72298
G1 X-2.573 Y-6.201 E30.78914
