;FLAVOR:Marlin
;TIME:1075
;Filament used: 0.742635m
;Layer height: 0.2
;MINX:-12.143
;MINY:-10.891
;MINZ:0.3
;MAXX:12.183
;MAXY:11.329
;MAXZ:21.3
;Generated with Cura_SteamEngine 5.2.1
M140 S60
M105
M190 S60
M104 S210
M105
M109 S210
M82 ;absolute extrusion mode
G28 ;Home
G1 Z15.0 F6000 ;Move the platform down 15mm
;Prime the extruder
G92 E0
G1 F200 E3
G92 E0
M141 S28
G92 E0
G92 E0
G1 F1500 E-6.5
;LAYER_COUNT:106
;LAYER:0
M107
G0 F3600 X7.533 Y-10.891 Z0.3
;TYPE:SKIRT
G1 F1500 E0
G1 X8.231 Y-10.881 E0.03483
G1 X8.795 Y-10.833 E0.06307
G1 X9.345 Y-10.706 E0.09123
G1 X9.873 Y-10.502 E0.11947
G1 X10.367 Y-10.227 E0.14768
G1 X10.816 Y-9.884 E0.17586
G1 X11.213 Y-9.482 E0.20405
G1 X11.55 Y-9.027 E0.2323
G1 X11.818 Y-8.53 E0.26047
G1 X12.014 Y-8 E0.28866
G1 X12.134 Y-7.447 E0.31689
G1 X12.183 Y-6.862 E0.34618
G1 X12.183 Y6.643 E1.01995
G1 X12.174 Y7.37 E1.05622
G1 X12.127 Y7.933 E1.08441
G1 X12.001 Y8.484 E1.11261
G1 X11.799 Y9.012 E1.14081
G1 X11.524 Y9.506 E1.16902
G1 X11.182 Y9.956 E1.19722
G1 X10.78 Y10.354 E1.22544
G1 X10.327 Y10.691 E1.25361
G1 X9.83 Y10.961 E1.28183
G1 X9.3 Y11.158 E1.31004
G1 X8.748 Y11.279 E1.33823
G1 X8.156 Y11.329 E1.36787
G1 X-7.493 Y11.329 E2.1486
G1 X-8.191 Y11.319 E2.18343
G1 X-8.755 Y11.271 E2.21167
G1 X-9.305 Y11.144 E2.23983
G1 X-9.833 Y10.94 E2.26807
G1 X-10.327 Y10.665 E2.29628
G1 X-10.776 Y10.322 E2.32446
G1 X-11.173 Y9.92 E2.35265
G1 X-11.51 Y9.465 E2.3809
G1 X-11.778 Y8.968 E2.40907
G1 X-11.974 Y8.438 E2.43726
G1 X-12.094 Y7.885 E2.46549
G1 X-12.142 Y7.322 E2.49368
G1 X-12.143 Y-6.271 E3.17184
G1 X-12.134 Y-6.936 E3.20502
G1 X-12.086 Y-7.499 E3.23321
G1 X-11.96 Y-8.05 E3.26141
G1 X-11.757 Y-8.578 E3.28963
G1 X-11.481 Y-9.072 E3.31786
G1 X-11.139 Y-9.522 E3.34606
G1 X-10.737 Y-9.919 E3.37425
G1 X-10.283 Y-10.256 E3.40246
G1 X-9.786 Y-10.525 E3.43065
G1 X-9.256 Y-10.722 E3.45886
G1 X-8.703 Y-10.841 E3.48708
G1 X-8.117 Y-10.891 E3.51643
G1 X7.533 Y-10.891 E4.29721
G0 F3600 X7.528 Y-10.491
G1 F1500 X8.226 Y-10.481 E4.33203
G1 X8.76 Y-10.433 E4.35878
G1 X9.281 Y-10.307 E4.38552
G1 X9.778 Y-10.104 E4.41231
G1 X10.239 Y-9.83 E4.43906
G1 X10.654 Y-9.491 E4.4658
G1 X11.014 Y-9.093 E4.49257
G1 X11.311 Y-8.647 E4.51931
G1 X11.539 Y-8.161 E4.54609
G1 X11.691 Y-7.647 E4.57283
G1 X11.782 Y-6.909 E4.60993
G1 X11.783 Y6.638 E5.28579
G1 X11.774 Y7.365 E5.32206
G1 X11.727 Y7.899 E5.34881
G1 X11.602 Y8.42 E5.37554
G1 X11.4 Y8.917 E5.4023
G1 X11.127 Y9.379 E5.42908
G1 X10.789 Y9.795 E5.45582
G1 X10.392 Y10.156 E5.48259
G1 X9.946 Y10.454 E5.50935
G1 X9.461 Y10.682 E5.53609
G1 X8.947 Y10.836 E5.56285
G1 X8.202 Y10.928 E5.60031
G1 X-7.488 Y10.929 E6.38308
G1 X-8.186 Y10.919 E6.41791
G1 X-8.72 Y10.871 E6.44466
G1 X-9.241 Y10.745 E6.4714
G1 X-9.738 Y10.542 E6.49818
G1 X-10.199 Y10.268 E6.52494
G1 X-10.614 Y9.929 E6.55167
G1 X-10.974 Y9.531 E6.57845
G1 X-11.271 Y9.085 E6.60518
G1 X-11.499 Y8.599 E6.63196
G1 X-11.651 Y8.085 E6.6587
G1 X-11.742 Y7.344 E6.69595
G1 X-11.743 Y-6.266 E7.37496
G1 X-11.734 Y-6.931 E7.40814
G1 X-11.686 Y-7.465 E7.43489
G1 X-11.56 Y-7.986 E7.46163
G1 X-11.358 Y-8.483 E7.48839
G1 X-11.085 Y-8.944 E7.51512
G1 X-10.746 Y-9.36 E7.5419
G1 X-10.349 Y-9.72 E7.56863
G1 X-9.902 Y-10.018 E7.59543
G1 X-9.417 Y-10.246 E7.62217
G1 X-8.903 Y-10.399 E7.64893
G1 X-8.162 Y-10.49 E7.68617
G1 X7.528 Y-10.491 E8.46895
G0 F3600 X7.522 Y-10.091
G1 F1500 X8.22 Y-10.081 E8.50378
G1 X8.723 Y-10.034 E8.52898
G1 X9.213 Y-9.908 E8.55422
G1 X9.677 Y-9.706 E8.57947
G1 X10.103 Y-9.434 E8.60469
G1 X10.481 Y-9.099 E8.62989
G1 X10.801 Y-8.708 E8.65509
G1 X11.056 Y-8.271 E8.68034
G1 X11.239 Y-7.8 E8.70555
G1 X11.346 Y-7.306 E8.73076
G1 X11.382 Y-6.651 E8.76349
G1 X11.383 Y6.633 E9.42623
G1 X11.374 Y7.36 E9.4625
G1 X11.328 Y7.863 E9.4877
G1 X11.203 Y8.353 E9.51293
G1 X11.002 Y8.817 E9.53816
G1 X10.731 Y9.244 E9.56339
G1 X10.396 Y9.623 E9.58863
G1 X10.006 Y9.944 E9.61383
G1 X9.57 Y10.2 E9.63905
G1 X9.099 Y10.383 E9.66426
G1 X8.605 Y10.491 E9.68949
G1 X8.155 Y10.528 E9.71202
G1 X-7.482 Y10.529 E10.49215
G1 X-8.18 Y10.519 E10.52698
G1 X-8.683 Y10.472 E10.55218
G1 X-9.173 Y10.346 E10.57742
G1 X-9.637 Y10.144 E10.60267
G1 X-10.063 Y9.872 E10.62789
G1 X-10.441 Y9.537 E10.65308
G1 X-10.761 Y9.146 E10.67829
G1 X-11.016 Y8.709 E10.70353
G1 X-11.199 Y8.238 E10.72874
G1 X-11.306 Y7.744 E10.75396
G1 X-11.342 Y7.294 E10.77648
G1 X-11.343 Y-6.26 E11.4527
G1 X-11.334 Y-6.925 E11.48588
G1 X-11.287 Y-7.429 E11.51113
G1 X-11.161 Y-7.918 E11.53632
G1 X-10.96 Y-8.382 E11.56155
G1 X-10.689 Y-8.809 E11.58678
G1 X-10.354 Y-9.187 E11.61198
G1 X-9.963 Y-9.508 E11.63722
G1 X-9.526 Y-9.763 E11.66246
G1 X-9.055 Y-9.947 E11.68769
G1 X-8.561 Y-10.053 E11.7129
G1 X-8.116 Y-10.09 E11.73517
G1 X7.522 Y-10.091 E12.51536
G1 F1500 E6.01536
G0 F3600 X4.37 Y-7.544
G0 X4.358 Y-5.334
G0 X4.403 Y-5.334
;TYPE:SUPPORT
G1 F1500 E12.51536
G1 X-4.363 Y-5.334 E12.95269
G1 F1500 E6.45269
G0 F3600 X-2.667 Y-6.971
G1 F1500 E12.95269
G1 X-2.667 Y7.409 E13.67011
G0 F3600 X0.00 Y7.409
G1 F1500 X0.00 Y-6.971 E14.38754
G0 F3600 X2.667 Y-6.971
G1 F1500 X2.667 Y7.409 E15.10496
G1 F1500 E8.60496
G0 F3600 X4.403 Y5.334
G1 F1500 E15.10496
G1 X-4.363 Y5.334 E15.54229
G0 F3600 X-4.363 Y2.666
G1 F1500 X4.403 Y2.667 E15.97963
G0 F3600 X4.403 Y0.00
G1 F1500 X-4.363 Y0.00 E16.41697
G0 F3600 X-4.363 Y-2.667
G1 F1500 X4.403 Y-2.666 E16.85431
G1 F1500 E10.35431
;MESH:Cable golder mic.stl
G0 F3600 X5.443 Y-2.666
G0 X5.223 Y-6.691
;TYPE:WALL-OUTER
G1 F1500 E16.85431
G1 X5.223 Y7.129 E17.54379
G1 X7.983 Y7.129 E17.68149
G1 X7.983 Y-5.311 E18.30212
G1 X7.983 Y-6.691 E18.37097
G1 X5.223 Y-6.691 E18.50867
G0 F3600 X5.223 Y-6.491
G0 X5.603 Y-6.311
;TYPE:SKIN
G1 F1500 X5.603 Y6.749 E19.16023
G1 X7.603 Y6.749 E19.26001
G1 X7.603 Y-6.311 E19.91158
G1 X5.603 Y-6.311 E20.01136
G0 F3600 X5.893 Y-6.021
G0 X6.9 Y-5.991
G0 X6.9 Y-6.11
G1 F1500 X7.401 Y-5.608 E20.04674
G0 F3600 X7.401 Y-5.043
G1 F1500 X6.334 Y-6.11 E20.12203
G0 F3600 X5.803 Y-6.076
G1 F1500 X7.401 Y-4.477 E20.23481
G0 F3600 X7.401 Y-3.911
G1 F1500 X5.803 Y-5.51 E20.34759
G0 F3600 X5.803 Y-4.944
G1 F1500 X7.401 Y-3.346 E20.46034
G0 F3600 X7.401 Y-2.78
G1 F1500 X5.803 Y-4.379 E20.57312
G0 F3600 X5.803 Y-3.813
G1 F1500 X7.401 Y-2.214 E20.6859
G0 F3600 X7.401 Y-1.648
G1 F1500 X5.803 Y-3.247 E20.79869
G0 F3600 X5.803 Y-2.682
G1 F1500 X7.401 Y-1.083 E20.91147
G0 F3600 X7.401 Y-.517
G1 F1500 X5.803 Y-2.116 E21.02425
G0 F3600 X5.803 Y-1.55
G1 F1500 X7.401 Y0.048 E21.137
G0 F3600 X7.401 Y0.613
G1 F1500 X5.803 Y-.984 E21.24971
G0 F3600 X5.803 Y-.419
G1 F1500 X7.401 Y1.179 E21.36246
G0 F3600 X7.401 Y1.745
G1 F1500 X5.803 Y0.146 E21.47524
G0 F3600 X5.803 Y0.712
G1 F1500 X7.401 Y2.31 E21.58799
G0 F3600 X7.401 Y2.876
G1 F1500 X5.803 Y1.277 E21.70077
G0 F3600 X5.803 Y1.843
G1 F1500 X7.401 Y3.442 E21.81356
G0 F3600 X7.401 Y4.007
G1 F1500 X5.803 Y2.409 E21.9263
G0 F3600 X5.803 Y2.974
G1 F1500 X7.401 Y4.573 E22.03909
G0 F3600 X7.401 Y5.139
G1 F1500 X5.803 Y3.54 E22.15187
G0 F3600 X5.803 Y4.106
G1 F1500 X7.401 Y5.704 E22.26462
G0 F3600 X7.401 Y6.27
G1 F1500 X5.803 Y4.671 E22.3774
G0 F3600 X5.803 Y5.237
G1 F1500 X7.114 Y6.548 E22.4699
G0 F3600 X6.548 Y6.548
G1 F1500 X5.803 Y5.803 E22.52246
G0 F3600 X5.803 Y6.368
G1 F1500 X5.982 Y6.548 E22.53513
G0 F3600 X6.223 Y6.129
G1 F1500 E16.03513
G0 F3600 X5.443 Y-6.421
G0 X4.358 Y-6.421
G0 X-4.318 Y-6.421
G0 X-7.943 Y-6.691
;TYPE:WALL-OUTER
G1 F1500 E22.53513
G1 X-7.943 Y7.129 E23.22461
G1 X-5.183 Y7.129 E23.36231
G1 X-5.183 Y-5.311 E23.98294
G1 X-5.183 Y-6.691 E24.05179
G1 X-7.943 Y-6.691 E24.18949
G0 F3600 X-7.943 Y-6.491
G0 X-7.563 Y-6.311
;TYPE:SKIN
G1 F1500 X-7.563 Y6.749 E24.84105
G1 X-5.563 Y6.749 E24.94083
G1 X-5.563 Y-5.311 E25.54251
G1 X-5.563 Y-6.311 E25.5924
G1 X-7.563 Y-6.311 E25.69218
G0 F3600 X-7.273 Y-6.021
G0 X-6.11 Y-5.991
G0 X-6.11 Y-6.11
G1 F1500 X-5.762 Y-5.762 E25.71673
G0 F3600 X-5.762 Y-5.197
G1 F1500 X-6.676 Y-6.11 E25.78118
G0 F3600 X-7.242 Y-6.11
G1 F1500 X-5.762 Y-4.631 E25.88557
G0 F3600 X-5.762 Y-4.065
G1 F1500 X-7.362 Y-5.665 E25.99846
G0 F3600 X-7.362 Y-5.099
G1 F1500 X-5.762 Y-3.5 E26.11131
G0 F3600 X-5.762 Y-2.934
G1 F1500 X-7.362 Y-4.533 E26.22417
G0 F3600 X-7.362 Y-3.968
G1 F1500 X-5.762 Y-2.368 E26.33705
G0 F3600 X-5.762 Y-1.803
G1 F1500 X-7.362 Y-3.402 E26.44991
G0 F3600 X-7.362 Y-2.836
G1 F1500 X-5.762 Y-1.237 E26.56276
G0 F3600 X-5.762 Y-.671
G1 F1500 X-7.362 Y-2.271 E26.67565
G0 F3600 X-7.362 Y-1.705
G1 F1500 X-5.762 Y-.106 E26.7885
G0 F3600 X-5.762 Y0.459
G1 F1500 X-7.362 Y-1.139 E26.90132
G0 F3600 X-7.362 Y-.574
G1 F1500 X-5.762 Y1.025 E27.01417
G0 F3600 X-5.762 Y1.59
G1 F1500 X-7.362 Y-0.008 E27.12699
G0 F3600 X-7.362 Y0.557
G1 F1500 X-5.762 Y2.156 E27.23985
G0 F3600 X-5.762 Y2.722
G1 F1500 X-7.362 Y1.122 E27.35273
G0 F3600 X-7.362 Y1.688
G1 F1500 X-5.762 Y3.288 E27.46562
G0 F3600 X-5.762 Y3.853
G1 F1500 X-7.362 Y2.254 E27.57848
G0 F3600 X-7.362 Y2.819
G1 F1500 X-5.762 Y4.419 E27.69137
G0 F3600 X-5.762 Y4.985
G1 F1500 X-7.362 Y3.385 E27.80425
G0 F3600 X-7.362 Y3.951
G1 F1500 X-5.762 Y5.55 E27.91711
G0 F3600 X-5.762 Y6.116
G1 F1500 X-7.362 Y4.516 E28.03
G0 F3600 X-7.362 Y5.082
G1 F1500 X-5.897 Y6.547 E28.13336
G0 F3600 X-6.462 Y6.547
G1 F1500 X-7.362 Y5.648 E28.19682
G0 F3600 X-7.362 Y6.214
G1 F1500 X-7.027 Y6.548 E28.22043
G0 F3600 X-6.943 Y6.129
G1 F1500 E21.72043
;MESH:NONMESH
G0 F600 X-6.943 Y6.129 Z0.5
G0 F3600 X-5.397 Y-6.477
G0 X-4.318 Y-6.477
G0 X2.667 Y-6.731
;TIME_ELAPSED:30.484395
;LAYER:1
M106 S255
;TYPE:SUPPORT
G1 F1500 E28.22043
G1 F2250 X2.667 Y7.169 E28.68274
G1 X4.163 Y7.169 E28.7325
G1 X4.163 Y-6.731 E29.19481
G1 X0.00 Y-6.731 E29.33328
G1 X0.00 Y7.169 E29.79559
G1 X-4.123 Y7.169 E29.93272
G1 X-4.123 Y-6.731 E30.39504
G1 X-2.667 Y-6.731 E30.44347
G1 X-2.667 Y7.169 E30.90578
G1 F1500 E24.40578
;MESH:Cable golder mic.stl
G0 F5400 X-5.397 Y6.915
G0 X-7.943 Y-6.691
;TYPE:WALL-OUTER
G1 F1500 E30.90578
G1 X-7.943 Y7.129 E31.36544
G1 X-5.183 Y7.129 E31.45723
G1 X-5.183 Y-5.311 E31.87099
G1 X-5.183 Y-6.691 E31.91689
G1 X-7.943 Y-6.691 E32.00869
G0 F5400 X-7.943 Y-6.491
G0 X-7.563 Y-6.311
;TYPE:SKIN
G1 F1500 X-7.563 Y6.749 E32.44307
G1 X-5.563 Y6.749 E32.50959
G1 X-5.563 Y-6.311 E32.94396
G1 X-7.563 Y-6.311 E33.01048
G0 F5400 X-7.362 Y-5.648
G1 F1500 X-6.899 Y-6.11 E33.03224
G0 F5400 X-6.334 Y-6.11
G1 F1500 X-7.362 Y-5.082 E33.08059
G0 F5400 X-7.362 Y-4.516
G1 F1500 X-5.768 Y-6.11 E33.15557
G0 F5400 X-5.762 Y-5.55
G1 F1500 X-7.362 Y-3.951 E33.2308
G0 F5400 X-7.362 Y-3.385
G1 F1500 X-5.762 Y-4.985 E33.30606
G0 F5400 X-5.762 Y-4.419
G1 F1500 X-7.362 Y-2.819 E33.38132
G0 F5400 X-7.362 Y-2.254
G1 F1500 X-5.762 Y-3.853 E33.45656
G0 F5400 X-5.762 Y-3.288
G1 F1500 X-7.362 Y-1.688 E33.53182
G0 F5400 X-7.362 Y-1.122
G1 F1500 X-5.762 Y-2.722 E33.60708
G0 F5400 X-5.762 Y-2.156
G1 F1500 X-7.362 Y-.557 E33.68231
G0 F5400 X-7.362 Y0.008
G1 F1500 X-5.762 Y-1.59 E33.75752
G0 F5400 X-5.762 Y-1.025
G1 F1500 X-7.362 Y0.574 E33.83276
G0 F5400 X-7.362 Y1.139
G1 F1500 X-5.762 Y-.459 E33.90797
G0 F5400 X-5.762 Y0.106
G1 F1500 X-7.362 Y1.705 E33.98321
G0 F5400 X-7.362 Y2.271
G1 F1500 X-5.762 Y0.671 E34.05847
G0 F5400 X-5.762 Y1.237
G1 F1500 X-7.362 Y2.836 E34.1337
G0 F5400 X-7.362 Y3.402
G1 F1500 X-5.762 Y1.803 E34.20894
G0 F5400 X-5.762 Y2.368
G1 F1500 X-7.362 Y3.968 E34.2842
G0 F5400 X-7.362 Y4.533
G1 F1500 X-5.762 Y2.934 E34.35943
G0 F5400 X-5.762 Y3.5
G1 F1500 X-7.362 Y5.099 E34.43467
G0 F5400 X-7.362 Y5.665
G1 F1500 X-5.762 Y4.065 E34.50993
G0 F5400 X-5.762 Y4.631
G1 F1500 X-7.362 Y6.231 E34.58519
G0 F5400 X-7.114 Y6.549
G1 F1500 X-5.762 Y5.197 E34.64878
G0 F5400 X-5.762 Y5.762
G1 F1500 X-6.548 Y6.548 E34.68575
G0 F5400 X-5.982 Y6.548
G1 F1500 X-5.762 Y6.328 E34.6961
G0 F5400 X-6.183 Y6.129
G1 F1500 E28.1961
G0 F5400 X-5.403 Y-6.421
G0 X-4.318 Y-6.421
G0 X4.358 Y-6.421
G0 X5.223 Y-6.691
;TYPE:WALL-OUTER
G1 F1500 E34.6961
G1 X5.223 Y7.129 E35.15575
G1 X7.983 Y7.129 E35.24755
G1 X7.983 Y5.749 E35.29345
G1 X7.983 Y-6.691 E35.70721
G1 X5.223 Y-6.691 E35.799
G0 F5400 X5.223 Y-6.491
G0 X5.603 Y-6.311
;TYPE:SKIN
G1 F1500 X5.603 Y6.749 E36.23338
G1 X7.603 Y6.749 E36.2999
G1 X7.603 Y-5.311 E36.70102
G1 X7.603 Y-6.311 E36.73428
G1 X5.603 Y-6.311 E36.8008
G0 F5400 X6.11 Y-6.11
G1 F1500 X5.803 Y-5.803 E36.81524
G0 F5400 X5.803 Y-5.237
G1 F1500 X6.676 Y-6.11 E36.8563
G0 F5400 X7.242 Y-6.11
G1 F1500 X5.803 Y-4.671 E36.92399
G0 F5400 X5.803 Y-4.106
G1 F1500 X7.401 Y-5.704 E36.99916
G0 F5400 X7.401 Y-5.139
G1 F1500 X5.803 Y-3.54 E37.07434
G0 F5400 X5.803 Y-2.974
G1 F1500 X7.401 Y-4.573 E37.14953
G0 F5400 X7.401 Y-4.007
G1 F1500 X5.803 Y-2.409 E37.2247
G0 F5400 X5.803 Y-1.843
G1 F1500 X7.401 Y-3.442 E37.29989
G0 F5400 X7.401 Y-2.876
G1 F1500 X5.803 Y-1.277 E37.37507
G0 F5400 X5.803 Y-.712
G1 F1500 X7.401 Y-2.31 E37.45024
G0 F5400 X7.401 Y-1.745
G1 F1500 X5.803 Y-.146 E37.52543
G0 F5400 X5.803 Y0.419
G1 F1500 X7.401 Y-1.179 E37.60059
G0 F5400 X7.401 Y-.613
G1 F1500 X5.803 Y0.984 E37.67573
G0 F5400 X5.803 Y1.55
G1 F1500 X7.401 Y-0.048 E37.7509
G0 F5400 X7.401 Y0.517
G1 F1500 X5.803 Y2.116 E37.82609
G0 F5400 X5.803 Y2.682
G1 F1500 X7.401 Y1.083 E37.90128
G0 F5400 X7.401 Y1.648
G1 F1500 X5.803 Y3.247 E37.97646
G0 F5400 X5.803 Y3.813
G1 F1500 X7.401 Y2.214 E38.05165
G0 F5400 X7.401 Y2.78
G1 F1500 X5.803 Y4.379 E38.12684
G0 F5400 X5.803 Y4.944
G1 F1500 X7.401 Y3.346 E38.20201
G0 F5400 X7.401 Y3.911
G1 F1500 X5.803 Y5.51 E38.2772
G0 F5400 X5.803 Y6.076
G1 F1500 X7.401 Y4.477 E38.35238
G0 F5400 X7.401 Y5.043
G1 F1500 X5.895 Y6.549 E38.42322
G0 F5400 X6.461 Y6.549
G1 F1500 X7.401 Y5.608 E38.46746
G0 F5400 X7.401 Y6.174
G1 F1500 X7.027 Y6.549 E38.48508
G0 F5400 X6.983 Y6.129
G1 F1500 E31.98508
;MESH:NONMESH
G0 F600 X6.983 Y6.129 Z0.7
G0 F5400 X5.437 Y-6.477
G0 X2.667 Y-6.731
;TIME_ELAPSED:45.279026
;LAYER:2
;TYPE:SUPPORT
G1 F1500 E38.48508
G1 F3000 X2.667 Y7.169 E38.94739
G1 X4.163 Y7.169 E38.99715
G1 X4.163 Y-6.731 E39.45946
G1 X0.00 Y-6.731 E39.59793
G1 X0.00 Y7.169 E40.06024
G1 X-4.123 Y7.169 E40.19737
G1 X-4.123 Y-6.731 E40.65969
G1 X-2.667 Y-6.731 E40.70812
G1 X-2.667 Y7.169 E41.17043
G1 F1500 E34.67043
;MESH:Cable golder mic.stl
G0 F7200 X-5.397 Y6.915
G0 X-7.943 Y-6.691
;TYPE:WALL-OUTER
G1 F1500 E41.17043
G1 X-7.943 Y-5.311 E41.21633
G1 X-7.943 Y7.129 E41.63009
G1 X-5.183 Y7.129 E41.72189
G1 X-5.183 Y-6.691 E42.18154
G1 X-7.943 Y-6.691 E42.27334
G0 F7200 X-7.943 Y-6.491
G0 X-7.563 Y-6.311
;TYPE:SKIN
G1 F1500 X-7.563 Y6.749 E42.70772
G1 X-5.563 Y6.749 E42.77424
G1 X-5.563 Y-5.311 E43.17535
G1 X-5.563 Y-6.311 E43.20861
G1 X-7.563 Y-6.311 E43.27513
G0 F7200 X-7.273 Y-6.021
G0 X-6.11 Y-5.991
G0 X-6.11 Y-6.11
G1 F1500 X-5.762 Y-5.762 E43.2915
G0 F7200 X-5.762 Y-5.197
G1 F1500 X-6.676 Y-6.11 E43.33447
G0 F7200 X-7.242 Y-6.11
G1 F1500 X-5.762 Y-4.631 E43.40406
G0 F7200 X-5.762 Y-4.065
G1 F1500 X-7.362 Y-5.665 E43.47932
G0 F7200 X-7.362 Y-5.099
G1 F1500 X-5.762 Y-3.5 E43.55456
G0 F7200 X-5.762 Y-2.934
G1 F1500 X-7.362 Y-4.533 E43.62979
G0 F7200 X-7.362 Y-3.968
G1 F1500 X-5.762 Y-2.368 E43.70505
G0 F7200 X-5.762 Y-1.803
G1 F1500 X-7.362 Y-3.402 E43.78029
G0 F7200 X-7.362 Y-2.836
G1 F1500 X-5.762 Y-1.237 E43.85552
G0 F7200 X-5.762 Y-.671
G1 F1500 X-7.362 Y-2.271 E43.93078
G0 F7200 X-7.362 Y-1.705
G1 F1500 X-5.762 Y-.106 E44.00602
G0 F7200 X-5.762 Y0.459
G1 F1500 X-7.362 Y-1.139 E44.08123
G0 F7200 X-7.362 Y-.574
G1 F1500 X-5.762 Y1.025 E44.15646
G0 F7200 X-5.762 Y1.59
G1 F1500 X-7.362 Y-0.008 E44.23168
G0 F7200 X-7.362 Y0.557
G1 F1500 X-5.762 Y2.156 E44.30691
G0 F7200 X-5.762 Y2.722
G1 F1500 X-7.362 Y1.122 E44.38217
G0 F7200 X-7.362 Y1.688
G1 F1500 X-5.762 Y3.288 E44.45743
G0 F7200 X-5.762 Y3.853
G1 F1500 X-7.362 Y2.254 E44.53267
G0 F7200 X-7.362 Y2.819
G1 F1500 X-5.762 Y4.419 E44.60793
G0 F7200 X-5.762 Y4.985
G1 F1500 X-7.362 Y3.385 E44.68318
G0 F7200 X-7.362 Y3.951
G1 F1500 X-5.762 Y5.55 E44.75842
G0 F7200 X-5.762 Y6.116
G1 F1500 X-7.362 Y4.516 E44.83368
G0 F7200 X-7.362 Y5.082
G1 F1500 X-5.897 Y6.547 E44.90259
G0 F7200 X-6.462 Y6.547
G1 F1500 X-7.362 Y5.648 E44.9449
G0 F7200 X-7.362 Y6.214
G1 F1500 X-7.027 Y6.548 E44.96063
G0 F7200 X-6.943 Y6.129
G1 F1500 E38.46063
G0 F7200 X-5.403 Y-6.421
G0 X-4.318 Y-6.421
G0 X4.358 Y-6.421
G0 X5.223 Y-6.691
;TYPE:WALL-OUTER
G1 F1500 E44.96063
