;FLAVOR:Marlin
;TIME:1668
;Filament used: 1.91483m
;Layer height: 0.2
;MINX:-28.142
;MINY:-28.142
;MINZ:0.3
;MAXX:28.142
;MAXY:28.142
;MAXZ:15.1
;Generated with Cura_SteamEngine 5.2.1
M140 S60
M105
M190 S60
M104 S200
M105
M109 S200
M82 ;absolute extrusion mode
G28 ;Home
G1 Z15.0 F6000 ;Move the platform down 15mm
;Prime the extruder
G92 E0
G1 F200 E3
G92 E0
M141 S28
G92 E0
G92 E0
G1 F1500 E-6.5
;LAYER_COUNT:75
;LAYER:0
M107
G0 F3600 X16.25 Y-22.942 Z0.3
;TYPE:SKIRT
G1 F1500 E0
G1 F1800 X19.33 Y-20.415 E0.19876
G1 X19.915 Y-19.884 E0.23818
G1 X20.413 Y-19.333 E0.27523
G1 X22.942 Y-16.251 E0.47413
G1 X23.411 Y-15.616 E0.51352
G1 X23.791 Y-14.981 E0.55044
G1 X25.673 Y-11.461 E0.74958
G1 X26.009 Y-10.746 E0.78899
G1 X26.258 Y-10.048 E0.82596
G1 X27.415 Y-6.235 E1.02476
G1 X27.606 Y-5.469 E1.06414
G1 X27.713 Y-4.735 E1.10115
G1 X28.104 Y-.767 E1.30007
G1 X28.142 Y0.022 E1.33948
G1 X28.104 Y0.762 E1.37645
G1 X27.713 Y4.733 E1.57552
G1 X27.596 Y5.514 E1.61492
G1 X27.415 Y6.233 E1.65191
G1 X26.258 Y10.047 E1.85076
G1 X25.991 Y10.79 E1.89014
G1 X25.673 Y11.46 E1.92715
G1 X23.792 Y14.979 E2.12622
G1 X23.385 Y15.656 E2.16563
G1 X22.943 Y16.25 E2.20256
G1 X20.415 Y19.331 E2.4014
G1 X19.884 Y19.915 E2.44078
G1 X19.333 Y20.413 E2.47783
G1 X16.251 Y22.942 E2.67673
G1 X15.616 Y23.411 E2.71612
G1 X14.981 Y23.791 E2.75304
G1 X11.461 Y25.673 E2.95217
G1 X10.746 Y26.009 E2.99159
G1 X10.047 Y26.258 E3.02861
G1 X6.233 Y27.415 E3.22745
G1 X5.467 Y27.606 E3.26684
G1 X4.734 Y27.713 E3.30379
G1 X0.765 Y28.104 E3.50277
G1 X-0.024 Y28.142 E3.54218
G1 X-.765 Y28.104 E3.57919
G1 X-4.734 Y27.713 E3.77817
G1 X-5.515 Y27.596 E3.81757
G1 X-6.233 Y27.415 E3.85451
G1 X-10.047 Y26.258 E4.05335
G1 X-10.79 Y25.991 E4.09274
G1 X-11.461 Y25.673 E4.12979
G1 X-14.981 Y23.791 E4.32892
G1 X-15.657 Y23.383 E4.36832
G1 X-16.251 Y22.942 E4.40523
G1 X-19.333 Y20.413 E4.60413
G1 X-19.917 Y19.882 E4.64351
G1 X-20.415 Y19.331 E4.68056
G1 X-22.943 Y16.25 E4.87939
G1 X-23.412 Y15.615 E4.91878
G1 X-23.792 Y14.979 E4.95574
G1 X-25.673 Y11.46 E5.15481
G1 X-26.009 Y10.746 E5.19418
G1 X-26.258 Y10.047 E5.2312
G1 X-27.415 Y6.233 E5.43004
G1 X-27.606 Y5.467 E5.46943
G1 X-27.713 Y4.734 E5.50639
G1 X-28.104 Y0.767 E5.70526
G1 X-28.142 Y-0.022 E5.74467
G1 X-28.104 Y-.762 E5.78164
G1 X-27.713 Y-4.734 E5.98076
G1 X-27.596 Y-5.515 E6.02016
G1 X-27.415 Y-6.235 E6.05719
G1 X-26.258 Y-10.048 E6.25599
G1 X-25.991 Y-10.791 E6.29538
G1 X-25.673 Y-11.461 E6.33238
G1 X-23.791 Y-14.981 E6.53152
G1 X-23.383 Y-15.657 E6.57091
G1 X-22.942 Y-16.25 E6.60778
G1 X-20.415 Y-19.33 E6.80654
G1 X-19.884 Y-19.915 E6.84596
G1 X-19.333 Y-20.413 E6.88301
G1 X-16.251 Y-22.942 E7.08191
G1 X-15.616 Y-23.411 E7.1213
G1 X-14.981 Y-23.791 E7.15822
G1 X-11.461 Y-25.673 E7.35736
G1 X-10.746 Y-26.009 E7.39677
G1 X-10.047 Y-26.258 E7.43379
G1 X-6.233 Y-27.415 E7.63263
G1 X-5.467 Y-27.606 E7.67202
G1 X-4.734 Y-27.713 E7.70898
G1 X-.765 Y-28.104 E7.90795
G1 X0.024 Y-28.142 E7.94736
G1 X0.765 Y-28.104 E7.98438
G1 X4.734 Y-27.713 E8.18335
G1 X5.515 Y-27.596 E8.22275
G1 X6.233 Y-27.415 E8.25969
G1 X10.047 Y-26.258 E8.45853
G1 X10.79 Y-25.991 E8.49792
G1 X11.461 Y-25.673 E8.53497
G1 X14.981 Y-23.791 E8.73411
G1 X15.657 Y-23.383 E8.7735
G1 X16.25 Y-22.942 E8.81037
G0 F3600 X15.997 Y-22.633
G1 F1800 X19.077 Y-20.106 E9.00913
G1 X19.645 Y-19.588 E9.04748
G1 X20.104 Y-19.079 E9.08168
G1 X22.633 Y-15.997 E9.28058
G1 X23.089 Y-15.378 E9.31893
G1 X23.438 Y-14.792 E9.35296
G1 X25.32 Y-11.272 E9.5521
G1 X25.647 Y-10.576 E9.59047
G1 X25.875 Y-9.932 E9.62455
G1 X27.032 Y-6.119 E9.82335
G1 X27.217 Y-5.372 E9.86174
G1 X27.315 Y-4.696 E9.89582
G1 X27.706 Y-.728 E10.09474
G1 X27.742 Y0.041 E10.13315
G1 X27.706 Y0.723 E10.16722
G1 X27.315 Y4.694 E10.36629
G1 X27.2 Y5.455 E10.40469
G1 X27.032 Y6.117 E10.43876
G1 X25.875 Y9.931 E10.63761
G1 X25.614 Y10.655 E10.676
G1 X25.32 Y11.271 E10.71006
G1 X23.439 Y14.79 E10.90913
G1 X23.042 Y15.449 E10.94751
G1 X22.634 Y15.996 E10.98156
G1 X20.106 Y19.077 E11.18039
G1 X19.588 Y19.645 E11.21874
G1 X19.079 Y20.104 E11.25294
G1 X15.997 Y22.633 E11.45184
G1 X15.378 Y23.089 E11.49019
G1 X14.792 Y23.438 E11.52422
G1 X11.272 Y25.32 E11.72336
G1 X10.576 Y25.647 E11.76173
G1 X9.931 Y25.875 E11.79586
G1 X6.117 Y27.032 E11.9947
G1 X5.371 Y27.217 E12.03305
G1 X4.694 Y27.315 E12.06717
G1 X0.725 Y27.706 E12.26615
G1 X-0.043 Y27.742 E12.3045
G1 X-.725 Y27.706 E12.33858
G1 X-4.694 Y27.315 E12.53755
G1 X-5.455 Y27.2 E12.57595
G1 X-6.117 Y27.032 E12.61002
G1 X-9.931 Y25.875 E12.80886
G1 X-10.655 Y25.614 E12.84726
G1 X-11.272 Y25.32 E12.88136
G1 X-14.792 Y23.438 E13.0805
G1 X-15.451 Y23.04 E13.11891
G1 X-15.997 Y22.633 E13.15288
G1 X-19.079 Y20.104 E13.35178
G1 X-19.648 Y19.585 E13.39021
G1 X-20.106 Y19.077 E13.42433
G1 X-22.634 Y15.996 E13.62316
G1 X-23.09 Y15.377 E13.66152
G1 X-23.439 Y14.79 E13.69559
G1 X-25.32 Y11.271 E13.89466
G1 X-25.647 Y10.575 E13.93302
G1 X-25.875 Y9.931 E13.96711
G1 X-27.032 Y6.117 E14.16595
G1 X-27.217 Y5.371 E14.2043
G1 X-27.315 Y4.695 E14.23838
G1 X-27.706 Y0.728 E14.43725
G1 X-27.742 Y-0.04 E14.47561
G1 X-27.706 Y-.723 E14.50973
G1 X-27.315 Y-4.695 E14.70885
G1 X-27.2 Y-5.455 E14.7472
G1 X-27.032 Y-6.119 E14.78137
G1 X-25.875 Y-9.932 E14.98017
G1 X-25.614 Y-10.655 E15.01852
G1 X-25.32 Y-11.272 E15.05261
G1 X-23.438 Y-14.792 E15.25175
G1 X-23.04 Y-15.451 E15.29016
G1 X-22.633 Y-15.997 E15.32414
G1 X-20.106 Y-19.077 E15.5229
G1 X-19.588 Y-19.645 E15.56125
G1 X-19.079 Y-20.104 E15.59544
G1 X-15.997 Y-22.633 E15.79435
G1 X-15.378 Y-23.089 E15.8327
G1 X-14.792 Y-23.438 E15.86673
G1 X-11.272 Y-25.32 E16.06587
G1 X-10.576 Y-25.647 E16.10423
G1 X-9.931 Y-25.875 E16.13836
G1 X-6.117 Y-27.032 E16.33721
G1 X-5.371 Y-27.217 E16.37555
G1 X-4.694 Y-27.315 E16.40968
G1 X-.725 Y-27.706 E16.60865
G1 X0.043 Y-27.742 E16.64701
G1 X0.725 Y-27.706 E16.68108
G1 X4.694 Y-27.315 E16.88006
G1 X5.455 Y-27.2 E16.91846
G1 X6.117 Y-27.032 E16.95253
G1 X9.931 Y-25.875 E17.15137
G1 X10.655 Y-25.614 E17.18977
G1 X11.272 Y-25.32 E17.22387
G1 X14.792 Y-23.438 E17.42301
G1 X15.451 Y-23.04 E17.46141
G1 X15.997 Y-22.633 E17.49539
G0 F3600 X15.743 Y-22.324
G1 F1800 X18.823 Y-19.797 E17.69415
G1 X19.375 Y-19.292 E17.73148
G1 X19.794 Y-18.825 E17.76278
G1 X22.323 Y-15.743 E17.96168
G1 X22.766 Y-15.141 E17.99897
G1 X23.085 Y-14.603 E18.03017
G1 X24.967 Y-11.083 E18.22931
G1 X25.284 Y-10.406 E18.26661
G1 X25.492 Y-9.816 E18.29782
G1 X26.649 Y-6.003 E18.49662
G1 X26.828 Y-5.276 E18.53397
G1 X26.917 Y-4.656 E18.56522
G1 X27.308 Y-.688 E18.76414
G1 X27.342 Y0.059 E18.80145
G1 X27.308 Y0.684 E18.83267
G1 X26.917 Y4.655 E19.03175
G1 X26.804 Y5.394 E19.06904
G1 X26.65 Y6.001 E19.10029
G1 X25.493 Y9.815 E19.29913
G1 X25.237 Y10.518 E19.33646
G1 X24.967 Y11.083 E19.3677
G1 X23.086 Y14.602 E19.56677
G1 X22.699 Y15.242 E19.60408
G1 X22.325 Y15.742 E19.63523
G1 X19.797 Y18.823 E19.83407
G1 X19.292 Y19.375 E19.87139
G1 X18.825 Y19.794 E19.90269
G1 X15.743 Y22.323 E20.10159
G1 X15.141 Y22.766 E20.13888
G1 X14.603 Y23.085 E20.17009
G1 X11.083 Y24.967 E20.36923
G1 X10.406 Y25.284 E20.40652
G1 X9.815 Y25.493 E20.4378
G1 X6.001 Y26.65 E20.63664
G1 X5.275 Y26.828 E20.67393
G1 X4.655 Y26.917 E20.70518
G1 X0.686 Y27.308 E20.90416
G1 X-0.061 Y27.342 E20.94146
G1 X-.686 Y27.308 E20.97269
G1 X-4.655 Y26.917 E21.17166
G1 X-5.395 Y26.804 E21.20901
G1 X-6.001 Y26.65 E21.2402
G1 X-9.815 Y25.493 E21.43905
G1 X-10.518 Y25.237 E21.47637
G1 X-11.083 Y24.967 E21.50761
G1 X-14.603 Y23.085 E21.70675
G1 X-15.243 Y22.698 E21.74407
G1 X-15.743 Y22.323 E21.77525
G1 X-18.825 Y19.794 E21.97415
G1 X-19.378 Y19.29 E22.01148
G1 X-19.797 Y18.823 E22.04278
G1 X-22.325 Y15.742 E22.24161
G1 X-22.767 Y15.139 E22.27891
G1 X-23.086 Y14.602 E22.31007
G1 X-24.967 Y11.083 E22.50914
G1 X-25.284 Y10.405 E22.54648
G1 X-25.493 Y9.815 E22.57771
G1 X-26.65 Y6.001 E22.77656
G1 X-26.828 Y5.275 E22.81385
G1 X-26.917 Y4.656 E22.84505
G1 X-27.308 Y0.689 E23.04392
G1 X-27.342 Y-0.059 E23.08128
G1 X-27.308 Y-.684 E23.11251
G1 X-26.917 Y-4.656 E23.31163
G1 X-26.804 Y-5.395 E23.34893
G1 X-26.649 Y-6.003 E23.38023
G1 X-25.492 Y-9.816 E23.57902
G1 X-25.237 Y-10.519 E23.61633
G1 X-24.967 Y-11.083 E23.64753
G1 X-23.085 Y-14.603 E23.84667
G1 X-22.698 Y-15.243 E23.88398
G1 X-22.324 Y-15.743 E23.91513
G1 X-19.797 Y-18.823 E24.11389
G1 X-19.292 Y-19.375 E24.15122
G1 X-18.825 Y-19.794 E24.18252
G1 X-15.743 Y-22.323 E24.38142
G1 X-15.141 Y-22.766 E24.41871
G1 X-14.603 Y-23.085 E24.44992
G1 X-11.083 Y-24.967 E24.64906
G1 X-10.406 Y-25.284 E24.68635
G1 X-9.815 Y-25.493 E24.71763
G1 X-6.001 Y-26.65 E24.91647
G1 X-5.275 Y-26.828 E24.95376
G1 X-4.655 Y-26.917 E24.98501
G1 X-.686 Y-27.308 E25.18398
G1 X0.061 Y-27.342 E25.22129
G1 X0.686 Y-27.308 E25.25252
G1 X4.655 Y-26.917 E25.45149
G1 X5.395 Y-26.804 E25.48884
G1 X6.001 Y-26.65 E25.52003
G1 X9.815 Y-25.493 E25.71888
G1 X10.518 Y-25.237 E25.7562
G1 X11.083 Y-24.967 E25.78744
G1 X14.603 Y-23.085 E25.98658
G1 X15.243 Y-22.698 E26.0239
G1 X15.743 Y-22.324 E26.05505
G0 F3600 X15.489 Y-22.014
G1 F1800 X18.569 Y-19.487 E26.25381
G1 X19.105 Y-18.997 E26.29004
G1 X19.485 Y-18.572 E26.31848
G1 X22.014 Y-15.49 E26.51738
G1 X22.443 Y-14.904 E26.55362
G1 X22.732 Y-14.415 E26.58196
G1 X24.614 Y-10.895 E26.78109
G1 X24.921 Y-10.236 E26.81736
G1 X25.11 Y-9.699 E26.84577
G1 X26.267 Y-5.886 E27.04456
G1 X26.439 Y-5.181 E27.08077
G1 X26.519 Y-4.617 E27.10919
G1 X26.91 Y-.649 E27.30811
G1 X26.942 Y0.076 E27.34432
G1 X26.91 Y0.645 E27.37275
G1 X26.519 Y4.616 E27.57182
G1 X26.408 Y5.334 E27.60807
G1 X26.267 Y5.885 E27.63644
G1 X25.11 Y9.699 E27.83529
G1 X24.861 Y10.381 E27.87151
G1 X24.615 Y10.894 E27.89989
G1 X22.734 Y14.413 E28.09896
G1 X22.356 Y15.034 E28.13523
G1 X22.015 Y15.488 E28.16356
G1 X19.487 Y18.569 E28.36239
G1 X18.996 Y19.105 E28.39866
G1 X18.572 Y19.485 E28.42706
G1 X15.49 Y22.014 E28.62597
G1 X14.904 Y22.443 E28.6622
G1 X14.415 Y22.732 E28.69054
G1 X10.895 Y24.614 E28.88967
G1 X10.236 Y24.921 E28.92594
G1 X9.699 Y25.11 E28.95435
G1 X5.885 Y26.267 E29.15319
G1 X5.179 Y26.439 E29.18944
G1 X4.616 Y26.519 E29.21781
G1 X0.647 Y26.91 E29.41679
G1 X-0.079 Y26.942 E29.45304
G1 X-.647 Y26.91 E29.48142
G1 X-4.616 Y26.519 E29.6804
G1 X-5.334 Y26.408 E29.71664
G1 X-5.885 Y26.267 E29.74502
G1 X-9.699 Y25.11 E29.94386
G1 X-10.381 Y24.861 E29.98009
G1 X-10.895 Y24.614 E30.00854
G1 X-14.415 Y22.732 E30.20767
G1 X-15.036 Y22.355 E30.24392
G1 X-15.49 Y22.014 E30.27225
G1 X-18.572 Y19.485 E30.47115
G1 X-19.107 Y18.994 E30.50738
G1 X-19.487 Y18.569 E30.53582
G1 X-22.015 Y15.488 E30.73465
G1 X-22.444 Y14.902 E30.77088
G1 X-22.734 Y14.413 E30.79925
G1 X-24.615 Y10.894 E30.99832
G1 X-24.921 Y10.236 E31.03452
G1 X-25.11 Y9.699 E31.06292
G1 X-26.267 Y5.885 E31.26177
G1 X-26.439 Y5.179 E31.29802
G1 X-26.519 Y4.616 E31.32639
G1 X-26.91 Y0.649 E31.52526
G1 X-26.942 Y-0.076 E31.56147
G1 X-26.91 Y-.645 E31.5899
G1 X-26.519 Y-4.617 E31.78902
G1 X-26.408 Y-5.334 E31.82522
G1 X-26.267 Y-5.886 E31.85365
G1 X-25.11 Y-9.699 E32.05244
G1 X-24.861 Y-10.382 E32.08871
G1 X-24.614 Y-10.895 E32.11712
G1 X-22.732 Y-14.415 E32.31625
G1 X-22.355 Y-15.036 E32.3525
G1 X-22.014 Y-15.489 E32.38079
G1 X-19.487 Y-18.569 E32.57955
G1 X-18.997 Y-19.105 E32.61578
G1 X-18.572 Y-19.485 E32.64422
G1 X-15.49 Y-22.014 E32.84312
G1 X-14.904 Y-22.443 E32.87936
G1 X-14.415 Y-22.732 E32.9077
G1 X-10.895 Y-24.614 E33.10683
G1 X-10.236 Y-24.921 E33.1431
G1 X-9.699 Y-25.11 E33.17151
G1 X-5.885 Y-26.267 E33.37035
G1 X-5.179 Y-26.439 E33.4066
G1 X-4.616 Y-26.519 E33.43497
G1 X-.647 Y-26.91 E33.63395
G1 X0.079 Y-26.942 E33.6702
G1 X0.647 Y-26.91 E33.69858
G1 X4.616 Y-26.519 E33.89756
G1 X5.334 Y-26.408 E33.9338
G1 X5.885 Y-26.267 E33.96218
G1 X9.699 Y-25.11 E34.16102
G1 X10.381 Y-24.861 E34.19724
G1 X10.895 Y-24.614 E34.2257
G1 X14.415 Y-22.732 E34.42483
G1 X15.036 Y-22.355 E34.46108
G1 X15.489 Y-22.014 E34.48937
G0 F3600 X15.236 Y-21.705
G1 F1800 X18.316 Y-19.178 E34.68813
G1 X18.834 Y-18.701 E34.72326
G1 X19.176 Y-18.318 E34.74888
G1 X21.705 Y-15.236 E34.94778
G1 X22.12 Y-14.667 E34.98291
G1 X22.38 Y-14.226 E35.00845
G1 X24.262 Y-10.706 E35.20759
G1 X24.558 Y-10.068 E35.24268
G1 X24.727 Y-9.583 E35.26831
G1 X25.884 Y-5.77 E35.4671
G1 X26.05 Y-5.086 E35.50222
G1 X26.121 Y-4.578 E35.52781
G1 X26.512 Y-.61 E35.72673
G1 X26.541 Y0.093 E35.76183
G1 X26.512 Y0.606 E35.78747
G1 X26.121 Y4.577 E35.98654
G1 X26.013 Y5.272 E36.02163
G1 X25.884 Y5.769 E36.04725
G1 X24.727 Y9.583 E36.24609
G1 X24.485 Y10.244 E36.28121
G1 X24.262 Y10.706 E36.3068
G1 X22.381 Y14.225 E36.50587
G1 X22.014 Y14.826 E36.54101
G1 X21.706 Y15.235 E36.56655
G1 X19.178 Y18.316 E36.76538
G1 X18.701 Y18.834 E36.80051
G1 X18.318 Y19.176 E36.82613
G1 X15.236 Y21.705 E37.02503
G1 X14.667 Y22.12 E37.06017
G1 X14.226 Y22.38 E37.08571
G1 X10.706 Y24.262 E37.28485
G1 X10.068 Y24.558 E37.31994
G1 X9.583 Y24.727 E37.34556
G1 X5.769 Y25.884 E37.5444
G1 X5.085 Y26.05 E37.57952
G1 X4.577 Y26.121 E37.60511
G1 X0.608 Y26.512 E37.80408
G1 X-0.096 Y26.541 E37.83923
G1 X-.608 Y26.512 E37.86482
G1 X-4.577 Y26.121 E38.06379
G1 X-5.272 Y26.012 E38.09889
G1 X-5.769 Y25.884 E38.12449
G1 X-9.583 Y24.727 E38.32334
G1 X-10.244 Y24.485 E38.35846
G1 X-10.706 Y24.262 E38.38405
G1 X-14.226 Y22.38 E38.58319
G1 X-14.827 Y22.013 E38.61832
G1 X-15.236 Y21.705 E38.64386
G1 X-18.318 Y19.176 E38.84277
G1 X-18.836 Y18.699 E38.8779
G1 X-19.178 Y18.316 E38.90351
G1 X-21.706 Y15.235 E39.10235
G1 X-22.121 Y14.666 E39.13748
G1 X-22.381 Y14.225 E39.16302
G1 X-24.262 Y10.706 E39.36209
G1 X-24.558 Y10.067 E39.39723
G1 X-24.727 Y9.583 E39.4228
G1 X-25.884 Y5.769 E39.62165
G1 X-26.05 Y5.085 E39.65676
G1 X-26.121 Y4.577 E39.68235
G1 X-26.512 Y0.61 E39.88123
G1 X-26.541 Y-0.093 E39.91633
G1 X-26.512 Y-.605 E39.94192
G1 X-26.121 Y-4.577 E40.14104
G1 X-26.013 Y-5.273 E40.17618
G1 X-25.884 Y-5.77 E40.20179
G1 X-24.727 Y-9.583 E40.40059
G1 X-24.485 Y-10.244 E40.43571
G1 X-24.262 Y-10.706 E40.4613
G1 X-22.38 Y-14.226 E40.66044
G1 X-22.013 Y-14.827 E40.69557
G1 X-21.705 Y-15.236 E40.72112
G1 X-19.178 Y-18.316 E40.91988
G1 X-18.701 Y-18.834 E40.95501
G1 X-18.318 Y-19.176 E40.98063
G1 X-15.236 Y-21.705 E41.17953
G1 X-14.667 Y-22.12 E41.21466
G1 X-14.226 Y-22.38 E41.2402
G1 X-10.706 Y-24.262 E41.43934
G1 X-10.068 Y-24.558 E41.47443
G1 X-9.583 Y-24.727 E41.50006
G1 X-5.769 Y-25.884 E41.6989
G1 X-5.085 Y-26.05 E41.73401
G1 X-4.577 Y-26.121 E41.75961
G1 X-.608 Y-26.512 E41.95858
G1 X0.096 Y-26.541 E41.99373
G1 X0.608 Y-26.512 E42.01932
G1 X4.577 Y-26.121 E42.21829
G1 X5.272 Y-26.012 E42.25339
G1 X5.769 Y-25.884 E42.27899
G1 X9.583 Y-24.727 E42.47783
G1 X10.244 Y-24.485 E42.51295
G1 X10.706 Y-24.262 E42.53855
G1 X14.226 Y-22.38 E42.73768
G1 X14.827 Y-22.013 E42.77282
G1 X15.236 Y-21.705 E42.79836
G0 F3600 X14.732 Y-21.601
G1 F1800 X18.062 Y-18.869 E43.01325
G1 X18.659 Y-18.317 E43.05382
G1 X21.396 Y-14.982 E43.26906
G1 X21.875 Y-14.322 E43.30975
G1 X23.909 Y-10.518 E43.52495
G1 X24.249 Y-9.779 E43.56554
G1 X25.501 Y-5.654 E43.78061
G1 X25.691 Y-4.862 E43.82124
G1 X26.114 Y-.571 E44.03636
G1 X26.146 Y0.24 E44.07685
G1 X25.723 Y4.537 E44.29226
G1 X25.597 Y5.336 E44.33262
G1 X24.344 Y9.467 E44.54799
G1 X24.066 Y10.224 E44.58822
G1 X22.028 Y14.036 E44.80387
G1 X21.602 Y14.731 E44.84454
G1 X18.869 Y18.062 E45.0595
G1 X18.317 Y18.659 E45.10007
G1 X14.982 Y21.396 E45.31531
G1 X14.322 Y21.875 E45.356
G1 X10.518 Y23.909 E45.57121
G1 X9.778 Y24.25 E45.61186
G1 X5.653 Y25.501 E45.82691
G1 X4.861 Y25.691 E45.86754
G1 X0.569 Y26.114 E46.08271
G1 X-.242 Y26.146 E46.1232
G1 X-4.538 Y25.723 E46.33857
G1 X-5.336 Y25.597 E46.37887
G1 X-9.467 Y24.344 E46.59424
G1 X-10.228 Y24.064 E46.6347
G1 X-14.038 Y22.027 E46.85024
G1 X-14.733 Y21.601 E46.89091
G1 X-18.064 Y18.867 E47.1059
G1 X-18.661 Y18.315 E47.14647
G1 X-21.397 Y14.981 E47.36164
G1 X-21.874 Y14.323 E47.40219
G1 X-23.909 Y10.517 E47.61751
G1 X-24.249 Y9.779 E47.65804
G1 X-25.501 Y5.653 E47.87316
G1 X-25.691 Y4.861 E47.91379
G1 X-26.114 Y0.571 E48.12886
G1 X-26.146 Y-.239 E48.1693
G1 X-25.723 Y-4.538 E48.38482
G1 X-25.597 Y-5.337 E48.42517
G1 X-24.344 Y-9.467 E48.64049
G1 X-24.064 Y-10.228 E48.68095
G1 X-22.027 Y-14.038 E48.89649
G1 X-21.601 Y-14.732 E48.93712
