;FLAVOR:Marlin
;TIME:1849
;Filament used: 2.61469m
;Layer height: 0.3
;MINX:-30.957
;MINY:-30.949
;MINZ:0.3
;MAXX:30.957
;MAXY:30.949
;MAXZ:24.9
;Generated with Cura_SteamEngine 5.2.1
M140 S60
M105
M190 S60
M104 S200
M105
M109 S200
M82 ;absolute extrusion mode
G28 ;Home
G1 Z15.0 F6000 ;Move the platform down 15mm
;Prime the extruder
G92 E0
G1 F200 E3
G92 E0
M141 S28
G92 E0
G92 E0
G1 F1500 E-6.5
;LAYER_COUNT:83
;LAYER:0
M107
G0 F3600 X29.954 Y-7.783 Z0.3
;TYPE:SKIRT
G1 F1500 E0
G1 F1800 X30.239 Y-6.616 E0.05993
G1 X30.343 Y-6.123 E0.08507
G1 X30.562 Y-4.884 E0.14784
G1 X30.674 Y-4.131 E0.18582
G1 X30.869 Y-2.389 E0.27327
G1 X30.957 Y-.425 E0.37136
G1 X30.936 Y1.12 E0.44844
G1 X30.84 Y2.643 E0.52458
G1 X30.713 Y3.817 E0.58349
G1 X30.564 Y4.867 E0.6364
G1 X30.372 Y5.968 E0.69216
G1 X30.124 Y7.103 E0.75012
G1 X29.939 Y7.85 E0.78851
G1 X29.454 Y9.544 E0.87642
G1 X28.865 Y11.169 E0.96266
G1 X28.6 Y11.833 E0.99832
G1 X28.4 Y12.304 E1.02385
G1 X27.812 Y13.587 E1.09426
G1 X27.279 Y14.619 E1.15221
G1 X26.834 Y15.426 E1.19819
G1 X26.364 Y16.228 E1.24457
G1 X25.554 Y17.474 E1.31871
G1 X24.658 Y18.71 E1.39487
G1 X23.821 Y19.764 E1.46202
G1 X23.067 Y20.636 E1.51953
G1 X22.549 Y21.203 E1.55785
G1 X21.558 Y22.211 E1.62837
G1 X20.508 Y23.182 E1.69972
G1 X19.931 Y23.678 E1.73768
G1 X19.158 Y24.308 E1.78743
G1 X18.155 Y25.078 E1.85052
G1 X16.983 Y25.874 E1.9212
G1 X16.177 Y26.386 E1.96884
G1 X15.716 Y26.662 E1.99565
G1 X14.927 Y27.111 E2.04094
G1 X13.858 Y27.675 E2.10124
G1 X13.004 Y28.094 E2.14869
G1 X12.168 Y28.458 E2.19418
G1 X11.037 Y28.915 E2.25504
G1 X10.072 Y29.265 E2.30626
G1 X8.735 Y29.701 E2.37642
G1 X7.495 Y30.029 E2.44041
G1 X6.344 Y30.296 E2.49936
G1 X5.198 Y30.51 E2.55752
G1 X4.442 Y30.63 E2.59571
G1 X3.571 Y30.743 E2.63953
G1 X3.062 Y30.798 E2.66507
G1 X1.878 Y30.892 E2.72432
G1 X1.118 Y30.93 E2.76229
G1 X0.148 Y30.949 E2.81069
G1 X-1.21 Y30.935 E2.87845
G1 X-2.627 Y30.846 E2.94928
G1 X-4.068 Y30.69 E3.02159
G1 X-5.711 Y30.424 E3.10463
G1 X-6.225 Y30.323 E3.13076
G1 X-7.607 Y30.003 E3.20153
G1 X-9.188 Y29.566 E3.28337
G1 X-10.796 Y29.009 E3.36827
G1 X-12.057 Y28.508 E3.43596
G1 X-13.354 Y27.926 E3.50689
G1 X-13.805 Y27.705 E3.53194
G1 X-15.294 Y26.918 E3.61597
G1 X-16.355 Y26.276 E3.67784
G1 X-17.526 Y25.522 E3.74732
G1 X-18.715 Y24.66 E3.82059
G1 X-19.436 Y24.088 E3.86651
G1 X-20.709 Y23.012 E3.94966
G1 X-21.625 Y22.142 E4.01269
G1 X-22.638 Y21.119 E4.08452
G1 X-23.64 Y19.989 E4.15987
G1 X-24.517 Y18.889 E4.23005
G1 X-25.074 Y18.144 E4.27646
G1 X-25.656 Y17.327 E4.3265
G1 X-26.632 Y15.784 E4.41759
G1 X-27.217 Y14.737 E4.47743
G1 X-27.529 Y14.145 E4.51081
G1 X-27.942 Y13.325 E4.55662
G1 X-28.39 Y12.328 E4.61115
G1 X-28.746 Y11.487 E4.65671
G1 X-29.157 Y10.379 E4.71567
G1 X-29.548 Y9.209 E4.77722
G1 X-29.763 Y8.49 E4.81466
G1 X-29.954 Y7.783 E4.85119
G1 X-30.239 Y6.617 E4.91108
G1 X-30.343 Y6.123 E4.93626
G1 X-30.562 Y4.884 E4.99904
G1 X-30.707 Y3.869 E5.05019
G1 X-30.87 Y2.377 E5.12507
G1 X-30.957 Y0.425 E5.22255
G1 X-30.936 Y-1.12 E5.29964
G1 X-30.84 Y-2.643 E5.37577
G1 X-30.713 Y-3.817 E5.43468
G1 X-30.564 Y-4.867 E5.48759
G1 X-30.372 Y-5.968 E5.54335
G1 X-30.124 Y-7.103 E5.60131
G1 X-29.939 Y-7.85 E5.63971
G1 X-29.454 Y-9.544 E5.72762
G1 X-28.865 Y-11.169 E5.81385
G1 X-28.6 Y-11.833 E5.84952
G1 X-28.4 Y-12.304 E5.87505
G1 X-27.812 Y-13.587 E5.94546
G1 X-27.279 Y-14.619 E6.00341
G1 X-26.834 Y-15.426 E6.04938
G1 X-26.364 Y-16.228 E6.09576
G1 X-25.554 Y-17.474 E6.1699
G1 X-24.658 Y-18.71 E6.24607
G1 X-23.821 Y-19.764 E6.31321
G1 X-23.067 Y-20.636 E6.37073
G1 X-22.549 Y-21.203 E6.40904
G1 X-21.558 Y-22.211 E6.47956
G1 X-20.508 Y-23.182 E6.55091
G1 X-19.931 Y-23.678 E6.58888
G1 X-19.158 Y-24.308 E6.63863
G1 X-18.155 Y-25.078 E6.70171
G1 X-16.983 Y-25.874 E6.77239
G1 X-16.177 Y-26.386 E6.82003
G1 X-15.716 Y-26.662 E6.84684
G1 X-14.927 Y-27.111 E6.89213
G1 X-13.858 Y-27.675 E6.95243
G1 X-13.004 Y-28.094 E6.99989
G1 X-12.168 Y-28.458 E7.04538
G1 X-11.037 Y-28.915 E7.10624
G1 X-10.072 Y-29.265 E7.15745
G1 X-8.735 Y-29.701 E7.22761
G1 X-7.495 Y-30.029 E7.2916
G1 X-6.344 Y-30.296 E7.35055
G1 X-5.198 Y-30.51 E7.40871
G1 X-4.442 Y-30.63 E7.4469
G1 X-3.571 Y-30.743 E7.49072
G1 X-3.062 Y-30.798 E7.51626
G1 X-1.878 Y-30.892 E7.57552
G1 X-1.118 Y-30.93 E7.61348
G1 X-.148 Y-30.949 E7.66188
G1 X1.212 Y-30.935 E7.72974
G1 X2.627 Y-30.846 E7.80047
G1 X4.068 Y-30.69 E7.87278
G1 X5.711 Y-30.424 E7.95582
G1 X6.225 Y-30.323 E7.98196
G1 X7.607 Y-30.003 E8.05273
G1 X9.188 Y-29.566 E8.13456
G1 X10.796 Y-29.009 E8.21946
G1 X12.057 Y-28.508 E8.28716
G1 X13.354 Y-27.926 E8.35808
G1 X13.805 Y-27.705 E8.38314
G1 X15.294 Y-26.918 E8.46716
G1 X16.355 Y-26.276 E8.52903
G1 X17.526 Y-25.522 E8.59852
G1 X18.718 Y-24.658 E8.67196
G1 X19.64 Y-23.92 E8.73088
G1 X20.718 Y-23.003 E8.80149
G1 X21.625 Y-22.142 E8.86388
G1 X22.639 Y-21.119 E8.93575
G1 X23.636 Y-19.994 E9.01074
G1 X24.516 Y-18.89 E9.08118
G1 X25.076 Y-18.142 E9.12779
G1 X25.662 Y-17.319 E9.1782
G1 X26.622 Y-15.802 E9.26776
G1 X27.217 Y-14.737 E9.32863
G1 X27.529 Y-14.145 E9.36201
G1 X28.008 Y-13.179 E9.41581
G1 X28.39 Y-12.328 E9.46234
G1 X28.682 Y-11.639 E9.49968
G1 X29.069 Y-10.626 E9.55378
G1 X29.471 Y-9.449 E9.61583
G1 X29.762 Y-8.494 E9.66564
G1 X29.954 Y-7.783 E9.70238
G0 F3600 X29.566 Y-7.688
G1 F1800 X29.906 Y-6.295 E9.77392
G1 X30.168 Y-4.814 E9.84895
G1 X30.278 Y-4.075 E9.88623
G1 X30.472 Y-2.341 E9.97328
G1 X30.557 Y-.431 E10.06866
G1 X30.537 Y1.09 E10.14455
G1 X30.439 Y2.631 E10.22159
G1 X30.284 Y4.02 E10.29131
G1 X30.17 Y4.798 E10.33054
G1 X30.006 Y5.737 E10.3781
G1 X29.733 Y7.018 E10.44344
G1 X29.551 Y7.752 E10.48117
G1 X29.077 Y9.408 E10.56711
G1 X28.493 Y11.022 E10.65274
G1 X28.303 Y11.503 E10.67854
G1 X27.939 Y12.356 E10.72481
G1 X27.451 Y13.413 E10.78289
G1 X26.821 Y14.627 E10.85113
G1 X26.489 Y15.223 E10.88517
G1 X26.017 Y16.028 E10.93172
G1 X25.221 Y17.252 E11.00457
G1 X24.346 Y18.459 E11.07894
G1 X23.516 Y19.505 E11.14556
G1 X22.599 Y20.559 E11.21526
G1 X22.085 Y21.109 E11.25282
G1 X21.288 Y21.915 E11.30937
G1 X20.246 Y22.88 E11.38022
G1 X19.857 Y23.218 E11.40593
G1 X18.713 Y24.15 E11.47955
G1 X17.91 Y24.761 E11.52989
G1 X16.759 Y25.543 E11.59931
G1 X15.971 Y26.043 E11.64587
G1 X15.51 Y26.319 E11.67268
G1 X14.739 Y26.758 E11.71694
G1 X13.894 Y27.207 E11.76468
G1 X12.831 Y27.733 E11.82385
G1 X11.81 Y28.174 E11.87934
G1 X10.888 Y28.544 E11.9289
G1 X9.948 Y28.885 E11.97879
G1 X8.631 Y29.315 E12.04791
G1 X7.649 Y29.578 E12.09863
G1 X6.257 Y29.906 E12.16998
G1 X5.125 Y30.117 E12.22743
G1 X4.382 Y30.234 E12.26495
G1 X3.687 Y30.326 E12.29993
G1 X2.789 Y30.421 E12.34498
G1 X1.614 Y30.508 E12.40376
G1 X1.1 Y30.531 E12.42943
G1 X0.152 Y30.549 E12.47673
G1 X-1.18 Y30.535 E12.54319
G1 X-2.625 Y30.445 E12.61542
G1 X-4.003 Y30.295 E12.68458
G1 X-5.902 Y29.988 E12.78055
G1 X-7.501 Y29.618 E12.86243
G1 X-9.062 Y29.186 E12.94324
G1 X-10.648 Y28.637 E13.02697
G1 X-11.906 Y28.138 E13.09449
G1 X-13.409 Y27.463 E13.17669
G1 X-15.085 Y26.576 E13.27129
G1 X-15.94 Y26.063 E13.32104
G1 X-17.314 Y25.182 E13.40247
G1 X-18.461 Y24.351 E13.47313
G1 X-19.381 Y23.615 E13.53191
G1 X-20.444 Y22.711 E13.60153
G1 X-21.157 Y22.04 E13.65038
G1 X-22.34 Y20.853 E13.73398
G1 X-23.342 Y19.722 E13.80937
G1 X-24.356 Y18.444 E13.89076
G1 X-24.658 Y18.038 E13.916
G1 X-25.314 Y17.119 E13.97234
G1 X-26.29 Y15.577 E14.06338
G1 X-26.779 Y14.706 E14.11322
G1 X-27.172 Y13.965 E14.15506
G1 X-27.578 Y13.159 E14.20009
G1 X-28.021 Y12.172 E14.25406
G1 X-28.428 Y11.197 E14.30677
G1 X-28.695 Y10.486 E14.34466
G1 X-29.093 Y9.318 E14.40623
G1 X-29.377 Y8.384 E14.45493
G1 X-29.565 Y7.688 E14.4909
G1 X-29.908 Y6.284 E14.563
G1 X-30.168 Y4.814 E14.63748
G1 X-30.278 Y4.072 E14.6749
G1 X-30.472 Y2.341 E14.7618
G1 X-30.557 Y0.432 E14.85714
G1 X-30.537 Y-1.09 E14.93308
G1 X-30.439 Y-2.631 E15.01011
G1 X-30.284 Y-4.02 E15.07984
G1 X-30.17 Y-4.798 E15.11907
G1 X-30.006 Y-5.737 E15.16663
G1 X-29.733 Y-7.018 E15.23197
G1 X-29.551 Y-7.752 E15.2697
G1 X-29.077 Y-9.408 E15.35564
G1 X-28.493 Y-11.022 E15.44127
G1 X-28.303 Y-11.503 E15.46707
G1 X-27.939 Y-12.356 E15.51334
G1 X-27.451 Y-13.413 E15.57142
G1 X-26.821 Y-14.627 E15.63966
G1 X-26.489 Y-15.223 E15.67369
G1 X-26.017 Y-16.028 E15.72025
G1 X-25.221 Y-17.252 E15.79309
G1 X-24.346 Y-18.459 E15.86747
G1 X-23.516 Y-19.505 E15.93409
G1 X-22.599 Y-20.559 E16.00379
G1 X-22.085 Y-21.109 E16.04134
G1 X-21.288 Y-21.915 E16.0979
G1 X-20.246 Y-22.88 E16.16875
G1 X-19.857 Y-23.218 E16.19446
G1 X-18.713 Y-24.15 E16.26808
G1 X-17.91 Y-24.761 E16.31842
G1 X-16.759 Y-25.543 E16.38784
G1 X-15.971 Y-26.043 E16.4344
G1 X-15.51 Y-26.319 E16.46121
G1 X-14.739 Y-26.758 E16.50547
G1 X-13.894 Y-27.207 E16.55321
G1 X-12.831 Y-27.733 E16.61238
G1 X-11.81 Y-28.174 E16.66787
G1 X-10.888 Y-28.544 E16.71743
G1 X-9.948 Y-28.885 E16.76732
G1 X-8.631 Y-29.315 E16.83644
G1 X-7.649 Y-29.578 E16.88716
G1 X-6.257 Y-29.906 E16.95851
G1 X-5.125 Y-30.117 E17.01595
G1 X-4.382 Y-30.234 E17.05348
G1 X-3.687 Y-30.326 E17.08846
G1 X-2.789 Y-30.421 E17.13351
G1 X-1.614 Y-30.508 E17.19229
G1 X-1.1 Y-30.531 E17.21796
G1 X-.152 Y-30.549 E17.26526
G1 X1.184 Y-30.535 E17.33192
G1 X2.625 Y-30.444 E17.40395
G1 X4 Y-30.295 E17.47295
G1 X5.901 Y-29.988 E17.56902
G1 X7.501 Y-29.618 E17.65096
G1 X9.062 Y-29.186 E17.73176
G1 X10.648 Y-28.637 E17.81549
G1 X11.906 Y-28.138 E17.88301
G1 X13.409 Y-27.463 E17.96521
G1 X15.085 Y-26.576 E18.05982
G1 X15.94 Y-26.063 E18.10956
G1 X17.314 Y-25.182 E18.19099
G1 X18.464 Y-24.349 E18.26184
G1 X19.38 Y-23.616 E18.32037
G1 X20.444 Y-22.711 E18.39005
G1 X21.157 Y-22.04 E18.4389
G1 X22.341 Y-20.851 E18.52261
G1 X23.343 Y-19.72 E18.598
G1 X24.204 Y-18.641 E18.66687
G1 X24.658 Y-18.038 E18.70453
G1 X25.321 Y-17.108 E18.76151
G1 X26.28 Y-15.595 E18.85088
G1 X26.779 Y-14.706 E18.90174
G1 X27.172 Y-13.965 E18.94358
G1 X27.643 Y-13.015 E18.99649
G1 X27.953 Y-12.328 E19.03409
G1 X28.428 Y-11.197 E19.09529
G1 X28.695 Y-10.486 E19.13318
G1 X29.166 Y-9.091 E19.20664
G1 X29.376 Y-8.388 E19.24324
G1 X29.566 Y-7.688 E19.27943
G0 F3600 X29.126 Y-7.791
G1 F1800 X29.516 Y-6.206 E19.36086
G1 X29.81 Y-4.52 E19.44625
G1 X29.912 Y-3.783 E19.48337
G1 X30.072 Y-2.318 E19.55689
G1 X30.157 Y-.418 E19.65178
G1 X30.137 Y1.077 E19.72637
G1 X30.042 Y2.585 E19.80175
G1 X29.888 Y3.963 E19.87093
G1 X29.776 Y4.729 E19.90955
G1 X29.612 Y5.668 E19.95711
G1 X29.342 Y6.933 E20.02164
G1 X29.103 Y7.876 E20.07017
G1 X28.696 Y9.285 E20.14334
G1 X28.197 Y10.672 E20.21688
G1 X27.863 Y11.52 E20.26235
G1 X27.576 Y12.188 E20.29862
G1 X27.091 Y13.24 E20.35642
G1 X26.471 Y14.433 E20.42349
G1 X26.143 Y15.021 E20.45709
G1 X25.675 Y15.82 E20.50328
G1 X24.888 Y17.03 E20.5753
G1 X24.015 Y18.234 E20.64949
G1 X23.112 Y19.361 E20.72154
G1 X22.462 Y20.113 E20.77113
G1 X21.961 Y20.66 E20.80814
G1 X20.905 Y21.726 E20.883
G1 X20.163 Y22.417 E20.93358
G1 X19.594 Y22.916 E20.97134
G1 X18.47 Y23.832 E21.04368
G1 X17.671 Y24.441 E21.0938
G1 X16.347 Y25.335 E21.1735
G1 X15.916 Y25.608 E21.19896
G1 X15.305 Y25.976 E21.23454
G1 X14.552 Y26.405 E21.27778
G1 X13.707 Y26.854 E21.32552
G1 X12.67 Y27.366 E21.38322
G1 X11.848 Y27.724 E21.42795
G1 X10.514 Y28.258 E21.49963
G1 X9.824 Y28.504 E21.53618
G1 X8.489 Y28.939 E21.60623
G1 X7.314 Y29.25 E21.66687
G1 X6.19 Y29.511 E21.72444
G1 X4.825 Y29.762 E21.79368
G1 X4.166 Y29.861 E21.82693
G1 X3.635 Y29.93 E21.85364
G1 X2.758 Y30.023 E21.89764
G1 X1.817 Y30.095 E21.94472
G1 X0.912 Y30.137 E21.98992
G1 X0.156 Y30.149 E22.02764
G1 X-1.171 Y30.135 E22.09385
G1 X-2.577 Y30.047 E22.16414
G1 X-3.953 Y29.898 E22.23319
G1 X-5.824 Y29.595 E22.32775
G1 X-7.264 Y29.262 E22.40148
G1 X-8.939 Y28.805 E22.4881
G1 X-10.526 Y28.256 E22.57188
G1 X-11.879 Y27.711 E22.64466
G1 X-13.228 Y27.105 E22.71844
G1 X-14.893 Y26.225 E22.81239
G1 X-15.734 Y25.72 E22.86133
G1 X-17.098 Y24.846 E22.94216
G1 X-18.339 Y23.937 E23.0189
G1 X-18.939 Y23.461 E23.05711
G1 X-20.176 Y22.415 E23.13793
G1 X-21.057 Y21.579 E23.19852
G1 X-22.054 Y20.573 E23.26919
G1 X-23.031 Y19.471 E23.34266
G1 X-24.035 Y18.205 E23.42327
G1 X-24.337 Y17.799 E23.44852
G1 X-24.983 Y16.893 E23.50403
G1 X-25.944 Y15.375 E23.59367
G1 X-26.43 Y14.51 E23.64317
G1 X-26.815 Y13.785 E23.68412
G1 X-27.151 Y13.118 E23.72138
G1 X-27.589 Y12.162 E23.77384
G1 X-28.053 Y11.056 E23.83368
G1 X-28.399 Y10.123 E23.88333
G1 X-28.782 Y8.978 E23.94356
G1 X-28.992 Y8.278 E23.98002
G1 X-29.127 Y7.787 E24.00543
G1 X-29.516 Y6.21 E24.08646
G1 X-29.81 Y4.518 E24.17214
G1 X-29.912 Y3.782 E24.20921
G1 X-30.072 Y2.317 E24.28273
G1 X-30.157 Y0.418 E24.37757
G1 X-30.137 Y-1.077 E24.45216
G1 X-30.042 Y-2.585 E24.52755
G1 X-29.888 Y-3.963 E24.59672
G1 X-29.776 Y-4.729 E24.63535
G1 X-29.612 Y-5.668 E24.6829
G1 X-29.342 Y-6.933 E24.74743
G1 X-29.103 Y-7.876 E24.79597
G1 X-28.696 Y-9.285 E24.86914
G1 X-28.197 Y-10.672 E24.94268
G1 X-27.863 Y-11.52 E24.98815
G1 X-27.576 Y-12.188 E25.02442
G1 X-27.091 Y-13.24 E25.08221
G1 X-26.471 Y-14.433 E25.14929
G1 X-26.143 Y-15.021 E25.18288
G1 X-25.675 Y-15.82 E25.22908
G1 X-24.888 Y-17.03 E25.30109
G1 X-24.015 Y-18.234 E25.37529
G1 X-23.112 Y-19.361 E25.44734
G1 X-22.462 Y-20.113 E25.49693
G1 X-21.961 Y-20.66 E25.53393
G1 X-20.905 Y-21.726 E25.60879
G1 X-20.163 Y-22.417 E25.65938
G1 X-19.594 Y-22.916 E25.69714
G1 X-18.47 Y-23.832 E25.76948
G1 X-17.671 Y-24.441 E25.8196
G1 X-16.347 Y-25.335 E25.8993
G1 X-15.916 Y-25.608 E25.92475
G1 X-15.305 Y-25.976 E25.96034
G1 X-14.552 Y-26.405 E26.00357
G1 X-13.707 Y-26.854 E26.05131
G1 X-12.67 Y-27.366 E26.10901
G1 X-11.848 Y-27.724 E26.15374
G1 X-10.514 Y-28.258 E26.22543
G1 X-9.824 Y-28.504 E26.26198
G1 X-8.489 Y-28.939 E26.33203
G1 X-7.314 Y-29.25 E26.39267
G1 X-6.19 Y-29.511 E26.45023
G1 X-4.825 Y-29.762 E26.51948
G1 X-4.166 Y-29.861 E26.55272
G1 X-3.635 Y-29.93 E26.57944
G1 X-2.758 Y-30.023 E26.62344
G1 X-1.817 Y-30.095 E26.67052
G1 X-.912 Y-30.137 E26.71572
G1 X-.156 Y-30.149 E26.75344
G1 X1.172 Y-30.135 E26.8197
G1 X2.577 Y-30.047 E26.88993
G1 X3.953 Y-29.898 E26.95898
G1 X5.824 Y-29.595 E27.05354
G1 X7.264 Y-29.262 E27.12728
G1 X8.939 Y-28.805 E27.2139
G1 X10.526 Y-28.256 E27.29768
G1 X11.879 Y-27.711 E27.37045
G1 X13.228 Y-27.105 E27.44423
G1 X14.893 Y-26.225 E27.53819
G1 X15.734 Y-25.72 E27.58713
G1 X17.085 Y-24.854 E27.66719
G1 X18.226 Y-24.027 E27.73749
G1 X19.121 Y-23.311 E27.79468
G1 X20.182 Y-22.409 E27.86415
G1 X21.057 Y-21.579 E27.92432
G1 X22.055 Y-20.571 E27.99509
G1 X23.029 Y-19.472 E28.06835
G1 X24.035 Y-18.205 E28.14907
G1 X24.424 Y-17.679 E28.18171
G1 X24.987 Y-16.888 E28.23015
G1 X25.939 Y-15.385 E28.31891
G1 X26.43 Y-14.51 E28.36896
G1 X26.815 Y-13.785 E28.40992
G1 X27.15 Y-13.12 E28.44707
G1 X27.653 Y-12.015 E28.50764
G1 X28.053 Y-11.056 E28.55948
G1 X28.32 Y-10.345 E28.59737
G1 X28.713 Y-9.193 E28.65809
G1 X28.991 Y-8.281 E28.70566
G1 X29.126 Y-7.791 E28.73102
G0 F3600 X28.789 Y-7.498
G1 F1800 X29.122 Y-6.134 E28.80107
G1 X29.38 Y-4.675 E28.87499
G1 X29.486 Y-3.961 E28.911
G1 X29.672 Y-2.297 E28.99453
G1 X29.757 Y-.406 E29.08897
G1 X29.737 Y1.068 E29.16252
G1 X29.643 Y2.551 E29.23665
G1 X29.52 Y3.688 E29.29371
G1 X29.382 Y4.661 E29.34274
G1 X29.218 Y5.6 E29.39029
G1 X28.901 Y7.062 E29.46493
G1 X28.719 Y7.765 E29.50116
G1 X28.316 Y9.158 E29.5735
G1 X27.748 Y10.728 E29.6568
G1 X27.495 Y11.364 E29.69095
G1 X27.213 Y12.02 E29.72657
G1 X26.734 Y13.058 E29.7836
G1 X26.121 Y14.239 E29.84999
G1 X25.798 Y14.819 E29.88311
G1 X25.252 Y15.737 E29.9364
G1 X24.565 Y16.793 E29.99925
G1 X23.695 Y17.994 E30.07324
G1 X22.809 Y19.099 E30.1439
G1 X22.012 Y20.016 E30.20451
G1 X21.516 Y20.547 E30.24076
G1 X20.632 Y21.433 E30.30321
G1 X19.721 Y22.276 E30.36513
G1 X19.173 Y22.748 E30.40121
G1 X18.4 Y23.378 E30.45096
G1 X17.444 Y24.111 E30.51106
G1 X16.133 Y24.997 E30.59001
G1 X15.702 Y25.27 E30.61546
G1 X14.988 Y25.698 E30.65699
G1 X14.546 Y25.951 E30.6824
G1 X13.519 Y26.5 E30.7405
G1 X12.498 Y27.005 E30.79733
G1 X11.512 Y27.431 E30.85091
G1 X10.378 Y27.882 E30.9118
G1 X9.7 Y28.124 E30.94771
G1 X8.394 Y28.55 E31.01625
G1 X7.223 Y28.86 E31.07668
G1 X6.237 Y29.089 E31.12718
G1 X4.978 Y29.33 E31.19114
G1 X4.114 Y29.464 E31.23476
G1 X3.442 Y29.55 E31.26856
G1 X2.728 Y29.624 E31.30437
G1 X1.787 Y29.696 E31.35145
G1 X0.903 Y29.737 E31.3956
