;FLAVOR:Marlin
;TIME:1778
;Filament used: 2.34745m
;Layer height: 0.3
;MINX:-30.943
;MINY:-30.943
;MINZ:0.3
;MAXX:30.941
;MAXY:30.944
;MAXZ:17.1
;Generated with Cura_SteamEngine 5.2.1
M140 S60
M105
M190 S60
M104 S200
M105
M109 S200
M82 ;absolute extrusion mode
G28 ;Home
G1 Z15.0 F6000 ;Move the platform down 15mm
;Prime the extruder
G92 E0
G1 F200 E3
G92 E0
M141 S28
G92 E0
G92 E0
G1 F1500 E-6.5
;LAYER_COUNT:57
;LAYER:0
M107
G0 F3600 X30.073 Y-7.283 Z0.3
;TYPE:SKIRT
G1 F1500 E0
G1 F1800 X30.343 Y-6.08 E0.06151
G1 X30.576 Y-4.751 E0.12883
G1 X30.724 Y-3.68 E0.18277
G1 X30.828 Y-2.678 E0.23303
G1 X30.906 Y-1.551 E0.28939
G1 X30.941 Y-.458 E0.34394
G1 X30.938 Y0.634 E0.39842
G1 X30.91 Y1.458 E0.43956
G1 X30.838 Y2.555 E0.4944
G1 X30.712 Y3.803 E0.55698
G1 X30.534 Y5.018 E0.61825
G1 X30.386 Y5.848 E0.66031
G1 X30.161 Y6.918 E0.71486
G1 X29.893 Y7.996 E0.77028
G1 X29.592 Y9.045 E0.82473
G1 X29.263 Y10.059 E0.87791
G1 X28.882 Y11.105 E0.93345
G1 X28.483 Y12.092 E0.98656
G1 X27.923 Y13.334 E1.05453
G1 X27.563 Y14.063 E1.0951
G1 X27.047 Y15.032 E1.14987
G1 X26.33 Y16.255 E1.2206
G1 X25.746 Y17.165 E1.27454
G1 X25.111 Y18.082 E1.33019
G1 X24.625 Y18.739 E1.37096
G1 X23.771 Y19.812 E1.43938
G1 X23.233 Y20.44 E1.48063
G1 X22.398 Y21.356 E1.54247
G1 X21.521 Y22.235 E1.60442
G1 X20.93 Y22.793 E1.64497
G1 X20.084 Y23.541 E1.70131
G1 X19.231 Y24.243 E1.75642
G1 X18.253 Y24.992 E1.81788
G1 X17.24 Y25.697 E1.87945
G1 X16.348 Y26.273 E1.93243
G1 X15.383 Y26.849 E1.9885
G1 X14.457 Y27.359 E2.04124
G1 X13.734 Y27.729 E2.08176
G1 X12.661 Y28.234 E2.14092
G1 X11.491 Y28.73 E2.20432
G1 X10.688 Y29.04 E2.24727
G1 X9.587 Y29.421 E2.30539
G1 X8.58 Y29.73 E2.35794
G1 X7.527 Y30.014 E2.41235
G1 X6.481 Y30.258 E2.46594
G1 X5.107 Y30.52 E2.53572
G1 X4.256 Y30.65 E2.57867
G1 X3.196 Y30.779 E2.63195
G1 X1.827 Y30.89 E2.70047
G1 X0.709 Y30.936 E2.75629
G1 X-.108 Y30.944 E2.79706
G1 X-1.48 Y30.909 E2.86553
G1 X-2.595 Y30.835 E2.92128
G1 X-3.677 Y30.724 E2.97554
G1 X-4.764 Y30.575 E3.03028
G1 X-5.607 Y30.431 E3.07295
G1 X-6.675 Y30.215 E3.12731
G1 X-7.748 Y29.958 E3.18236
G1 X-8.848 Y29.651 E3.23933
G1 X-9.812 Y29.347 E3.28976
G1 X-10.816 Y28.992 E3.34289
G1 X-12.112 Y28.475 E3.4125
G1 X-13.107 Y28.031 E3.46686
G1 X-13.841 Y27.676 E3.50754
G1 X-14.821 Y27.163 E3.56272
G1 X-16.043 Y26.459 E3.63308
G1 X-16.957 Y25.884 E3.68696
G1 X-17.873 Y25.26 E3.74225
G1 X-18.758 Y24.61 E3.79703
G1 X-19.616 Y23.932 E3.85159
G1 X-20.459 Y23.217 E3.90674
G1 X-21.069 Y22.665 E3.94778
G1 X-21.841 Y21.92 E4.00131
G1 X-22.717 Y21.015 E4.06415
G1 X-23.562 Y20.057 E4.12788
G1 X-24.241 Y19.231 E4.18122
G1 X-24.86 Y18.425 E4.23192
G1 X-25.344 Y17.753 E4.27324
G1 X-26.06 Y16.69 E4.33718
G1 X-26.687 Y15.663 E4.39721
G1 X-27.103 Y14.933 E4.43913
G1 X-27.743 Y13.706 E4.50817
G1 X-28.209 Y12.718 E4.56267
G1 X-28.639 Y11.717 E4.61703
G1 X-28.946 Y10.939 E4.65875
G1 X-29.317 Y9.904 E4.71361
G1 X-29.733 Y8.572 E4.78323
G1 X-30.017 Y7.518 E4.83769
G1 X-30.206 Y6.723 E4.87845
G1 X-30.428 Y5.632 E4.934
G1 X-30.608 Y4.55 E4.98872
G1 X-30.752 Y3.444 E5.04437
G1 X-30.873 Y2.094 E5.11199
G1 X-30.929 Y0.954 E5.16893
G1 X-30.943 Y-.133 E5.22317
G1 X-30.929 Y-.952 E5.26403
G1 X-30.871 Y-2.102 E5.32148
G1 X-30.781 Y-3.162 E5.37455
G1 X-30.653 Y-4.23 E5.42822
G1 X-30.427 Y-5.625 E5.49872
G1 X-30.21 Y-6.7 E5.55344
G1 X-30.041 Y-7.42 E5.59033
G1 X-29.654 Y-8.838 E5.66366
G1 X-29.326 Y-9.875 E5.71793
G1 X-29.079 Y-10.582 E5.75529
G1 X-28.683 Y-11.611 E5.8103
G1 X-28.251 Y-12.625 E5.86529
G1 X-27.786 Y-13.619 E5.92003
G1 X-27.221 Y-14.723 E5.98191
G1 X-26.608 Y-15.798 E6.04365
G1 X-26.173 Y-16.509 E6.08523
G1 X-25.553 Y-17.451 E6.14149
G1 X-24.847 Y-18.448 E6.20244
G1 X-24.088 Y-19.425 E6.26416
G1 X-23.381 Y-20.271 E6.31917
G1 X-22.837 Y-20.882 E6.35998
G1 X-22.101 Y-21.658 E6.41334
G1 X-21.349 Y-22.399 E6.46601
G1 X-20.426 Y-23.248 E6.52858
G1 X-19.486 Y-24.037 E6.58981
G1 X-18.846 Y-24.542 E6.63048
G1 X-17.964 Y-25.195 E6.68523
G1 X-16.805 Y-25.983 E6.75515
G1 X-15.873 Y-26.562 E6.80989
G1 X-14.918 Y-27.111 E6.86485
G1 X-13.931 Y-27.631 E6.92051
G1 X-12.95 Y-28.104 E6.97484
G1 X-12.199 Y-28.438 E7.01585
G1 X-10.915 Y-28.956 E7.08492
G1 X-9.855 Y-29.333 E7.14105
G1 X-8.816 Y-29.661 E7.19541
G1 X-8.028 Y-29.885 E7.23628
G1 X-6.955 Y-30.153 E7.29146
G1 X-5.878 Y-30.381 E7.34638
G1 X-4.524 Y-30.612 E7.41491
G1 X-3.742 Y-30.717 E7.45427
G1 X-2.692 Y-30.826 E7.50694
G1 X-1.294 Y-30.917 E7.57683
G1 X-.212 Y-30.943 E7.63083
G1 X0.602 Y-30.938 E7.67144
G1 X1.71 Y-30.896 E7.72676
G1 X3.122 Y-30.786 E7.79742
G1 X3.911 Y-30.696 E7.83703
G1 X5.004 Y-30.536 E7.89215
G1 X6.09 Y-30.339 E7.94721
G1 X7.444 Y-30.035 E8.01644
G1 X8.486 Y-29.757 E8.07025
G1 X9.274 Y-29.522 E8.11127
G1 X10.611 Y-29.069 E8.1817
G1 X11.372 Y-28.779 E8.22233
G1 X12.397 Y-28.352 E8.27773
G1 X13.399 Y-27.893 E8.33271
G1 X14.375 Y-27.402 E8.38722
G1 X15.384 Y-26.848 E8.44465
G1 X16.252 Y-26.332 E8.49503
G1 X17.231 Y-25.702 E8.55311
G1 X18.072 Y-25.118 E8.60419
G1 X18.944 Y-24.466 E8.65851
G1 X19.779 Y-23.797 E8.71189
G1 X20.63 Y-23.063 E8.76796
G1 X21.451 Y-22.301 E8.82384
G1 X22.218 Y-21.539 E8.87778
G1 X22.98 Y-20.725 E8.93341
G1 X23.712 Y-19.883 E8.98907
G1 X24.396 Y-19.036 E9.04339
G1 X25.224 Y-17.925 E9.11251
G1 X25.691 Y-17.247 E9.15359
G1 X26.281 Y-16.335 E9.20778
G1 X26.851 Y-15.38 E9.26327
G1 X27.369 Y-14.439 E9.31686
G1 X27.969 Y-13.239 E9.38379
G1 X28.333 Y-12.443 E9.42746
G1 X28.766 Y-11.402 E9.48371
G1 X29.135 Y-10.423 E9.5359
G1 X29.495 Y-9.358 E9.59199
G1 X29.8 Y-8.335 E9.64525
G1 X30.073 Y-7.283 E9.69947
G0 F3600 X29.686 Y-7.184
G1 F1800 X29.974 Y-5.867 E9.76673
G1 X30.18 Y-4.695 E9.8261
G1 X30.326 Y-3.637 E9.87938
G1 X30.429 Y-2.648 E9.92899
G1 X30.506 Y-1.536 E9.9846
G1 X30.541 Y-.457 E10.03846
G1 X30.538 Y0.62 E10.09219
G1 X30.51 Y1.444 E10.13332
G1 X30.439 Y2.527 E10.18747
G1 X30.329 Y3.616 E10.24208
G1 X30.181 Y4.693 E10.29632
G1 X29.992 Y5.778 E10.35126
G1 X29.77 Y6.834 E10.4051
G1 X29.438 Y8.144 E10.47252
G1 X29.13 Y9.185 E10.52668
G1 X28.883 Y9.933 E10.56598
G1 X28.412 Y11.21 E10.63389
G1 X28.007 Y12.187 E10.68665
G1 X27.564 Y13.157 E10.73985
G1 X27.204 Y13.886 E10.78042
G1 X26.561 Y15.08 E10.84807
G1 X25.993 Y16.041 E10.90377
G1 X25.56 Y16.722 E10.94403
G1 X24.941 Y17.631 E10.99889
G1 X24.303 Y18.501 E11.05272
G1 X23.637 Y19.345 E11.10636
G1 X22.929 Y20.179 E11.16094
G1 X22.007 Y21.182 E11.22891
G1 X21.246 Y21.944 E11.28263
G1 X20.454 Y22.685 E11.33674
G1 X19.612 Y23.416 E11.39237
G1 X18.786 Y24.084 E11.44537
G1 X17.905 Y24.747 E11.50038
G1 X17.022 Y25.362 E11.55407
G1 X16.361 Y25.793 E11.59344
G1 X15.416 Y26.368 E11.64862
G1 X14.499 Y26.883 E11.70109
G1 X13.304 Y27.494 E11.76805
G1 X12.492 Y27.872 E11.81274
G1 X11.347 Y28.356 E11.87476
G1 X10.261 Y28.769 E11.93272
G1 X9.218 Y29.119 E11.98761
G1 X8.215 Y29.418 E12.03983
G1 X7.425 Y29.627 E12.0806
G1 X6.391 Y29.868 E12.13356
G1 X5.046 Y30.124 E12.20187
G1 X3.941 Y30.289 E12.25761
G1 X3.149 Y30.382 E12.2974
G1 X2.075 Y30.474 E12.35117
G1 X0.705 Y30.536 E12.41959
G1 X-.373 Y30.542 E12.47338
G1 X-1.195 Y30.521 E12.5144
G1 X-2.277 Y30.459 E12.56847
G1 X-3.384 Y30.355 E12.62394
G1 X-4.558 Y30.204 E12.68299
G1 X-5.79 Y29.989 E12.74539
G1 X-6.594 Y29.823 E12.78635
G1 X-7.919 Y29.499 E12.8544
G1 X-8.971 Y29.196 E12.90902
G1 X-9.69 Y28.966 E12.94668
G1 X-10.681 Y28.615 E12.99913
G1 X-11.951 Y28.109 E13.06733
G1 X-12.933 Y27.671 E13.12098
G1 X-13.667 Y27.316 E13.16166
G1 X-14.634 Y26.81 E13.2161
G1 X-15.619 Y26.247 E13.27271
G1 X-16.734 Y25.552 E13.33826
G1 X-17.638 Y24.937 E13.3928
G1 X-18.512 Y24.295 E13.44691
G1 X-19.156 Y23.791 E13.48771
G1 X-19.989 Y23.096 E13.54183
G1 X-20.8 Y22.368 E13.5962
G1 X-21.562 Y21.634 E13.64899
G1 X-22.425 Y20.742 E13.71091
G1 X-23.254 Y19.802 E13.77344
G1 X-23.925 Y18.986 E13.82614
G1 X-24.536 Y18.191 E13.87617
G1 X-25.17 Y17.303 E13.9306
G1 X-25.648 Y16.587 E13.97355
G1 X-26.211 Y15.682 E14.02673
G1 X-26.755 Y14.735 E14.08121
G1 X-27.265 Y13.769 E14.13571
G1 X-27.733 Y12.797 E14.18953
G1 X-28.171 Y11.8 E14.24386
G1 X-28.667 Y10.543 E14.31128
G1 X-29.028 Y9.507 E14.36601
G1 X-29.274 Y8.718 E14.40725
G1 X-29.566 Y7.666 E14.46171
G1 X-29.875 Y6.36 E14.52867
G1 X-30.081 Y5.299 E14.58259
G1 X-30.251 Y4.222 E14.63699
G1 X-30.384 Y3.128 E14.69197
G1 X-30.455 Y2.33 E14.73194
G1 X-30.529 Y0.947 E14.80104
G1 X-30.543 Y-.126 E14.85457
G1 X-30.519 Y-1.226 E14.90947
G1 X-30.472 Y-2.08 E14.95214
G1 X-30.383 Y-3.127 E15.00456
G1 X-30.256 Y-4.181 E15.05753
G1 X-30.081 Y-5.294 E15.11374
G1 X-29.875 Y-6.355 E15.16766
G1 X-29.586 Y-7.586 E15.23074
G1 X-29.272 Y-8.719 E15.2894
G1 X-29.026 Y-9.507 E15.33058
G1 X-28.701 Y-10.45 E15.38034
G1 X-28.31 Y-11.465 E15.43461
G1 X-27.884 Y-12.467 E15.48893
G1 X-27.425 Y-13.447 E15.54292
G1 X-26.932 Y-14.41 E15.59689
G1 X-26.395 Y-15.37 E15.65177
G1 X-25.682 Y-16.535 E15.71992
G1 X-25.22 Y-17.23 E15.76155
G1 X-24.439 Y-18.323 E15.82857
G1 X-23.78 Y-19.17 E15.88211
G1 X-23.255 Y-19.804 E15.92318
G1 X-22.538 Y-20.616 E15.97722
G1 X-21.635 Y-21.56 E16.0424
G1 X-20.884 Y-22.288 E16.09458
G1 X-20.058 Y-23.035 E16.15014
G1 X-19.437 Y-23.561 E16.19074
G1 X-18.598 Y-24.228 E16.24422
G1 X-17.509 Y-25.027 E16.3116
G1 X-16.593 Y-25.644 E16.3667
G1 X-15.899 Y-26.08 E16.40759
G1 X-14.957 Y-26.631 E16.46204
G1 X-13.998 Y-27.148 E16.51639
G1 X-13.02 Y-27.63 E16.57079
G1 X-12.036 Y-28.072 E16.62461
G1 X-10.779 Y-28.579 E16.69223
G1 X-9.733 Y-28.952 E16.74763
G1 X-8.935 Y-29.207 E16.78943
G1 X-7.918 Y-29.5 E16.84223
G1 X-6.599 Y-29.823 E16.90998
G1 X-5.538 Y-30.038 E16.96399
G1 X-4.471 Y-30.215 E17.01795
G1 X-3.689 Y-30.32 E17.05731
G1 X-2.652 Y-30.428 E17.10933
G1 X-1.283 Y-30.517 E17.17777
G1 X-.215 Y-30.543 E17.23107
G1 X0.868 Y-30.531 E17.28511
G1 X1.954 Y-30.481 E17.33934
G1 X2.813 Y-30.414 E17.38233
G1 X4.126 Y-30.264 E17.44826
G1 X5.201 Y-30.098 E17.50253
G1 X6.017 Y-29.946 E17.54394
G1 X7.081 Y-29.712 E17.59829
G1 X8.372 Y-29.373 E17.66488
G1 X9.42 Y-29.056 E17.71951
G1 X10.468 Y-28.695 E17.77481
G1 X11.464 Y-28.311 E17.82806
G1 X12.487 Y-27.875 E17.88354
G1 X13.463 Y-27.417 E17.93733
G1 X14.194 Y-27.046 E17.97823
G1 X15.19 Y-26.498 E18.03494
G1 X16.046 Y-25.989 E18.08463
G1 X17.013 Y-25.366 E18.14202
G1 X17.842 Y-24.79 E18.19238
G1 X18.703 Y-24.147 E18.24599
G1 X19.528 Y-23.486 E18.29873
G1 X20.367 Y-22.762 E18.35402
G1 X21.365 Y-21.828 E18.42222
G1 X22.116 Y-21.068 E18.47552
G1 X22.875 Y-20.242 E18.53149
G1 X23.574 Y-19.423 E18.58521
G1 X24.084 Y-18.786 E18.62592
G1 X24.732 Y-17.924 E18.67972
G1 X25.494 Y-16.82 E18.74664
G1 X26.09 Y-15.882 E18.80209
G1 X26.506 Y-15.177 E18.84293
G1 X27.018 Y-14.247 E18.89589
G1 X27.605 Y-13.072 E18.96142
G1 X28.085 Y-12.008 E19.01965
G1 X28.485 Y-11.024 E19.07265
G1 X28.761 Y-10.283 E19.1121
G1 X29.115 Y-9.232 E19.16743
G1 X29.416 Y-8.222 E19.22001
G1 X29.686 Y-7.184 E19.27352
G0 F3600 X29.353 Y-6.856
G1 F1800 X29.58 Y-5.796 E19.3276
G1 X29.784 Y-4.639 E19.38621
G1 X29.929 Y-3.594 E19.43885
G1 X30.009 Y-2.852 E19.47608
G1 X30.092 Y-1.78 E19.52972
G1 X30.141 Y-.457 E19.59577
G1 X30.138 Y0.607 E19.64885
G1 X30.097 Y1.677 E19.70228
G1 X30.019 Y2.747 E19.7558
G1 X29.932 Y3.574 E19.79729
G1 X29.785 Y4.637 E19.85083
G1 X29.598 Y5.708 E19.90507
G1 X29.379 Y6.75 E19.95819
G1 X29.054 Y8.032 E20.02417
G1 X28.824 Y8.822 E20.06522
G1 X28.503 Y9.808 E20.11695
G1 X28.131 Y10.829 E20.17117
G1 X27.743 Y11.789 E20.22282
G1 X27.307 Y12.764 E20.27611
G1 X26.845 Y13.708 E20.32854
G1 X26.342 Y14.653 E20.38195
G1 X25.655 Y15.826 E20.44977
G1 X25.086 Y16.712 E20.50231
G1 X24.468 Y17.606 E20.55653
G1 X23.982 Y18.263 E20.5973
G1 X23.163 Y19.291 E20.66287
G1 X22.467 Y20.098 E20.71604
G1 X21.723 Y20.901 E20.77065
G1 X20.972 Y21.653 E20.82368
G1 X20.381 Y22.211 E20.86423
G1 X19.556 Y22.94 E20.91915
G1 X18.726 Y23.622 E20.97275
G1 X17.889 Y24.263 E21.02534
G1 X16.803 Y25.027 E21.09159
G1 X15.935 Y25.588 E21.14315
G1 X15.209 Y26.026 E21.18545
G1 X14.305 Y26.533 E21.23716
G1 X13.135 Y27.131 E21.30272
G1 X12.091 Y27.612 E21.36006
G1 X11.404 Y27.902 E21.39727
G1 X10.27 Y28.344 E21.45799
G1 X9.102 Y28.736 E21.51945
G1 X8.112 Y29.031 E21.57099
G1 X7.096 Y29.296 E21.62338
G1 X6.047 Y29.532 E21.67702
G1 X5.238 Y29.686 E21.7181
G1 X4.135 Y29.859 E21.77381
G1 X2.854 Y30.009 E21.83815
G1 X1.791 Y30.091 E21.89134
G1 X0.702 Y30.136 E21.94572
G1 X-.363 Y30.142 E21.99885
G1 X-1.185 Y30.121 E22.03988
G1 X-2.253 Y30.06 E22.09325
G1 X-3.573 Y29.931 E22.15941
G1 X-4.368 Y29.826 E22.19942
G1 X-5.473 Y29.642 E22.25531
G1 X-6.76 Y29.376 E22.32088
G1 X-7.558 Y29.181 E22.36186
G1 X-8.849 Y28.815 E22.42881
G1 X-9.799 Y28.507 E22.47863
G1 X-10.773 Y28.153 E22.53033
G1 X-11.79 Y27.743 E22.58504
G1 X-12.759 Y27.311 E22.63797
G1 X-13.493 Y26.956 E22.67865
G1 X-14.674 Y26.331 E22.74531
G1 X-15.621 Y25.78 E22.79997
G1 X-16.297 Y25.359 E22.8397
G1 X-17.402 Y24.613 E22.90622
G1 X-18.265 Y23.98 E22.95961
G1 X-18.909 Y23.476 E23.00041
G1 X-19.731 Y22.79 E23.05383
G1 X-20.718 Y21.897 E23.12023
G1 X-21.444 Y21.185 E23.17096
G1 X-22.219 Y20.371 E23.22704
G1 X-22.946 Y19.547 E23.28186
G1 X-23.47 Y18.914 E23.32286
G1 X-24.211 Y17.957 E23.38324
G1 X-24.837 Y17.081 E23.43696
G1 X-25.453 Y16.149 E23.49269
G1 X-25.992 Y15.267 E23.54426
G1 X-26.408 Y14.537 E23.58618
G1 X-26.91 Y13.584 E23.63992
G1 X-27.475 Y12.399 E23.70542
G1 X-27.894 Y11.423 E23.75841
G1 X-28.29 Y10.41 E23.81267
G1 X-28.563 Y9.638 E23.85352
G1 X-28.892 Y8.599 E23.90789
G1 X-29.18 Y7.56 E23.96168
G1 X-29.483 Y6.282 E24.02721
G1 X-29.687 Y5.235 E24.08043
G1 X-29.819 Y4.422 E24.12152
G1 X-29.985 Y3.092 E24.18839
G1 X-30.074 Y2.051 E24.24051
G1 X-30.129 Y0.94 E24.29601
G1 X-30.143 Y-.12 E24.3489
G1 X-30.129 Y-.939 E24.38976
G1 X-30.072 Y-2.058 E24.44566
G1 X-29.958 Y-3.337 E24.50973
G1 X-29.823 Y-4.385 E24.56244
G1 X-29.643 Y-5.47 E24.61731
G1 X-29.483 Y-6.278 E24.65841
G1 X-29.262 Y-7.238 E24.70756
G1 X-28.961 Y-8.356 E24.76532
G1 X-28.644 Y-9.388 E24.81918
G1 X-28.323 Y-10.318 E24.86826
G1 X-27.845 Y-11.547 E24.93405
G1 X-27.517 Y-12.309 E24.97544
G1 X-27.063 Y-13.276 E25.02874
G1 X-26.577 Y-14.226 E25.08198
G1 X-26.047 Y-15.173 E25.13612
G1 X-25.349 Y-16.313 E25.20281
G1 X-24.757 Y-17.197 E25.25589
G1 X-24.122 Y-18.078 E25.31007
G1 X-23.471 Y-18.915 E25.36297
G1 X-22.783 Y-19.739 E25.41652
G1 X-22.07 Y-20.533 E25.46976
G1 X-21.356 Y-21.274 E25.5211
G1 X-20.614 Y-21.993 E25.57265
G1 X-19.991 Y-22.561 E25.61471
G1 X-19.178 Y-23.255 E25.66804
G1 X-18.35 Y-23.914 E25.72083
G1 X-17.284 Y-24.696 E25.78679
G1 X-16.38 Y-25.305 E25.84117
G1 X-15.472 Y-25.87 E25.89453
G1 X-14.541 Y-26.405 E25.9481
G1 X-13.58 Y-26.912 E26.00231
G1 X-12.625 Y-27.373 E26.05521
G1 X-11.651 Y-27.802 E26.10831
G1 X-10.886 Y-28.111 E26.14947
G1 X-9.86 Y-28.486 E26.20397
G1 X-8.814 Y-28.826 E26.25884
G1 X-7.561 Y-29.181 E26.32382
G1 X-6.518 Y-29.432 E26.37734
G1 X-5.716 Y-29.598 E26.4182
G1 X-4.66 Y-29.782 E26.47167
G1 X-3.636 Y-29.924 E26.52325
G1 X-2.612 Y-30.03 E26.57461
G1 X-1.531 Y-30.105 E26.62867
G1 X-.217 Y-30.143 E26.69426
G1 X0.851 Y-30.132 E26.74754
G1 X1.676 Y-30.097 E26.78874
G1 X2.782 Y-30.015 E26.84407
G1 X3.82 Y-29.901 E26.89617
G1 X5.128 Y-29.705 E26.96215
G1 X5.944 Y-29.553 E27.00356
G1 X6.993 Y-29.322 E27.05715
G1 X8.038 Y-29.052 E27.111
G1 X9.045 Y-28.755 E27.16338
G1 X10.079 Y-28.41 E27.21776
G1 X11.309 Y-27.942 E27.28342
G1 X12.319 Y-27.512 E27.33818
G1 X13.062 Y-27.167 E27.37905
G1 X14.013 Y-26.689 E27.43215
G1 X14.995 Y-26.149 E27.48806
G1 X16.057 Y-25.511 E27.54987
G1 X16.995 Y-24.896 E27.60583
G1 X17.811 Y-24.319 E27.65569
G1 X18.644 Y-23.686 E27.70789
G1 X19.48 Y-23.004 E27.76171
G1 X20.286 Y-22.296 E27.81524
G1 X21.081 Y-21.546 E27.86976
G1 X21.823 Y-20.796 E27.9224
G1 X22.572 Y-19.981 E27.97762
G1 X23.261 Y-19.173 E28.0306
G1 X23.918 Y-18.346 E28.08329
G1 X24.565 Y-17.471 E28.13758
G1 X25.032 Y-16.793 E28.17866
G1 X25.746 Y-15.678 E28.24471
G1 X26.278 Y-14.769 E28.29726
G1 X26.667 Y-14.056 E28.33778
G1 X27.14 Y-13.118 E28.39019
G1 X27.605 Y-12.11 E28.44557
G1 X28.11 Y-10.884 E28.51172
G1 X28.386 Y-10.143 E28.55117
G1 X28.735 Y-9.106 E28.60576
G1 X29.032 Y-8.11 E28.65761
G1 X29.353 Y-6.856 E28.72219
G0 F3600 X28.911 Y-6.986
G1 F1800 X29.187 Y-5.726 E28.78655
G1 X29.35 Y-4.82 E28.83247
