;FLAVOR:Marlin
;TIME:1396
;Filament used: 1.9063m
;Layer height: 0.3
;MINX:-34.8
;MINY:-31.8
;MINZ:0.3
;MAXX:34.8
;MAXY:31.8
;MAXZ:18
;Generated with Cura_SteamEngine 5.2.1
M140 S60
M105
M190 S60
M104 S200
M105
M109 S200
M82 ;absolute extrusion mode
G28 ;Home
G1 Z15.0 F6000 ;Move the platform down 15mm
;Prime the extruder
G92 E0
G1 F200 E3
G92 E0
M141 S28
G92 E0
G92 E0
G1 F1500 E-6.5
;LAYER_COUNT:60
;LAYER:0
M107
G0 F3600 X-27 Y31.8 Z0.3
;TYPE:SKIRT
G1 F1500 E0
G1 F1800 X-27.789 Y31.76 E0.03941
G1 X-28.569 Y31.641 E0.07878
G1 X-29.334 Y31.443 E0.1182
G1 X-30.074 Y31.169 E0.15757
G1 X-30.783 Y30.821 E0.19697
G1 X-31.454 Y30.403 E0.23641
G1 X-32.078 Y29.92 E0.27578
G1 X-32.651 Y29.377 E0.31517
G1 X-33.166 Y28.778 E0.35458
G1 X-33.617 Y28.13 E0.39397
G1 X-34.001 Y27.439 E0.43341
G1 X-34.313 Y26.714 E0.47278
G1 X-34.55 Y25.961 E0.51217
G1 X-34.709 Y25.187 E0.55159
G1 X-34.8 Y24.305 E0.59582
G1 X-34.8 Y-24 E3.00577
G1 X-34.76 Y-24.789 E3.04519
G1 X-34.641 Y-25.569 E3.08455
G1 X-34.443 Y-26.334 E3.12397
G1 X-34.169 Y-27.074 E3.16334
G1 X-33.821 Y-27.783 E3.20274
G1 X-33.403 Y-28.454 E3.24219
G1 X-32.92 Y-29.078 E3.28155
G1 X-32.377 Y-29.651 E3.32094
G1 X-31.778 Y-30.166 E3.36035
G1 X-31.13 Y-30.617 E3.39974
G1 X-30.439 Y-31.001 E3.43918
G1 X-29.714 Y-31.313 E3.47855
G1 X-28.961 Y-31.55 E3.51794
G1 X-28.187 Y-31.709 E3.55736
G1 X-27.305 Y-31.8 E3.6016
G1 X27 Y-31.8 E6.31088
G1 X27.789 Y-31.76 E6.3503
G1 X28.569 Y-31.641 E6.38966
G1 X29.334 Y-31.443 E6.42909
G1 X30.074 Y-31.169 E6.46845
G1 X30.783 Y-30.821 E6.50786
G1 X31.454 Y-30.403 E6.5473
G1 X32.078 Y-29.92 E6.58667
G1 X32.651 Y-29.377 E6.62605
G1 X33.166 Y-28.778 E6.66546
G1 X33.617 Y-28.13 E6.70485
G1 X34.001 Y-27.439 E6.74429
G1 X34.313 Y-26.714 E6.78367
G1 X34.55 Y-25.961 E6.82305
G1 X34.709 Y-25.187 E6.86247
G1 X34.8 Y-24.305 E6.90671
G1 X34.8 Y24 E9.31665
G1 X34.76 Y24.789 E9.35607
G1 X34.641 Y25.569 E9.39543
G1 X34.443 Y26.334 E9.43486
G1 X34.169 Y27.074 E9.47423
G1 X33.821 Y27.783 E9.51363
G1 X33.403 Y28.454 E9.55307
G1 X32.92 Y29.078 E9.59244
G1 X32.377 Y29.651 E9.63182
G1 X31.778 Y30.166 E9.67123
G1 X31.13 Y30.617 E9.71062
G1 X30.439 Y31.001 E9.75006
G1 X29.714 Y31.313 E9.78944
G1 X28.961 Y31.55 E9.82882
G1 X28.187 Y31.709 E9.86824
G1 X27.305 Y31.8 E9.91248
G1 X-27 Y31.8 E12.62177
G0 F3600 X-27 Y31.4
G1 F1800 X-27.768 Y31.36 E12.66013
G1 X-28.528 Y31.241 E12.69851
G1 X-29.271 Y31.043 E12.73688
G1 X-29.99 Y30.769 E12.77526
G1 X-30.676 Y30.422 E12.81362
G1 X-31.323 Y30.006 E12.85199
G1 X-31.923 Y29.525 E12.89036
G1 X-32.47 Y28.984 E12.92874
G1 X-32.958 Y28.389 E12.96713
G1 X-33.381 Y27.747 E13.00549
G1 X-33.736 Y27.064 E13.04389
G1 X-34.017 Y26.349 E13.08222
G1 X-34.223 Y25.607 E13.12064
G1 X-34.351 Y24.849 E13.15899
G1 X-34.4 Y24 E13.20142
G1 X-34.4 Y-24 E15.59615
G1 X-34.36 Y-24.768 E15.63452
G1 X-34.241 Y-25.528 E15.67289
G1 X-34.043 Y-26.271 E15.71126
G1 X-33.769 Y-26.99 E15.74964
G1 X-33.422 Y-27.676 E15.788
G1 X-33.006 Y-28.323 E15.82637
G1 X-32.525 Y-28.923 E15.86474
G1 X-31.984 Y-29.47 E15.90312
G1 X-31.389 Y-29.958 E15.94151
G1 X-30.747 Y-30.381 E15.97987
G1 X-30.064 Y-30.736 E16.01827
G1 X-29.349 Y-31.017 E16.0566
G1 X-28.607 Y-31.223 E16.09502
G1 X-27.849 Y-31.351 E16.13337
G1 X-27 Y-31.4 E16.1758
G1 X27 Y-31.4 E18.86987
G1 X27.768 Y-31.36 E18.90824
G1 X28.528 Y-31.241 E18.94662
G1 X29.271 Y-31.043 E18.98498
G1 X29.99 Y-30.769 E19.02336
G1 X30.676 Y-30.422 E19.06172
G1 X31.323 Y-30.006 E19.10009
G1 X31.923 Y-29.525 E19.13846
G1 X32.47 Y-28.984 E19.17684
G1 X32.958 Y-28.389 E19.21523
G1 X33.381 Y-27.747 E19.25359
G1 X33.736 Y-27.064 E19.29199
G1 X34.017 Y-26.349 E19.33032
G1 X34.223 Y-25.607 E19.36874
G1 X34.351 Y-24.849 E19.40709
G1 X34.4 Y-24 E19.44952
G1 X34.4 Y24 E21.84425
G1 X34.36 Y24.768 E21.88262
G1 X34.241 Y25.528 E21.921
G1 X34.043 Y26.271 E21.95936
G1 X33.769 Y26.99 E21.99774
G1 X33.422 Y27.676 E22.0361
G1 X33.006 Y28.323 E22.07447
G1 X32.525 Y28.923 E22.11284
G1 X31.984 Y29.47 E22.15122
G1 X31.389 Y29.958 E22.18961
G1 X30.747 Y30.381 E22.22797
G1 X30.064 Y30.736 E22.26637
G1 X29.349 Y31.017 E22.3047
G1 X28.607 Y31.223 E22.34312
G1 X27.849 Y31.351 E22.38147
G1 X27 Y31.4 E22.4239
G1 X-27 Y31.4 E25.11797
G0 F3600 X-27 Y31
G1 F1800 X-27.747 Y30.96 E25.15529
G1 X-28.485 Y30.841 E25.19259
G1 X-29.207 Y30.643 E25.22994
G1 X-29.903 Y30.37 E25.26724
G1 X-30.566 Y30.023 E25.30457
G1 X-31.189 Y29.608 E25.34192
G1 X-31.763 Y29.129 E25.37921
G1 X-32.284 Y28.592 E25.41654
G1 X-32.743 Y28.002 E25.45384
G1 X-33.138 Y27.366 E25.49119
G1 X-33.462 Y26.692 E25.5285
G1 X-33.712 Y25.987 E25.56582
G1 X-33.886 Y25.259 E25.60316
G1 X-33.981 Y24.517 E25.64048
G1 X-34 Y24 E25.66629
G1 X-34 Y-24 E28.06102
G1 X-33.96 Y-24.747 E28.09834
G1 X-33.841 Y-25.485 E28.13564
G1 X-33.643 Y-26.207 E28.17299
G1 X-33.37 Y-26.903 E28.21029
G1 X-33.023 Y-27.566 E28.24762
G1 X-32.608 Y-28.189 E28.28497
G1 X-32.129 Y-28.763 E28.32226
G1 X-31.592 Y-29.284 E28.35959
G1 X-31.002 Y-29.743 E28.39689
G1 X-30.366 Y-30.138 E28.43424
G1 X-29.692 Y-30.462 E28.47155
G1 X-28.987 Y-30.712 E28.50887
G1 X-28.259 Y-30.886 E28.54621
G1 X-27.517 Y-30.981 E28.58353
G1 X-27 Y-31 E28.60934
G1 X27 Y-31 E31.30341
G1 X27.747 Y-30.96 E31.34073
G1 X28.485 Y-30.841 E31.37803
G1 X29.207 Y-30.643 E31.41538
G1 X29.903 Y-30.37 E31.45268
G1 X30.566 Y-30.023 E31.49001
G1 X31.189 Y-29.608 E31.52736
G1 X31.763 Y-29.129 E31.56466
G1 X32.284 Y-28.592 E31.60198
G1 X32.743 Y-28.002 E31.63928
G1 X33.138 Y-27.366 E31.67663
G1 X33.462 Y-26.692 E31.71394
G1 X33.712 Y-25.987 E31.75126
G1 X33.886 Y-25.259 E31.7886
G1 X33.981 Y-24.517 E31.82592
G1 X34 Y-24 E31.85173
G1 X34 Y24 E34.24646
G1 X33.96 Y24.747 E34.28378
G1 X33.841 Y25.485 E34.32108
G1 X33.643 Y26.207 E34.35843
G1 X33.37 Y26.903 E34.39573
G1 X33.023 Y27.566 E34.43306
G1 X32.608 Y28.189 E34.47041
G1 X32.129 Y28.763 E34.50771
G1 X31.592 Y29.284 E34.54503
G1 X31.002 Y29.743 E34.58233
G1 X30.366 Y30.138 E34.61968
G1 X29.692 Y30.462 E34.65699
G1 X28.987 Y30.712 E34.69431
G1 X28.259 Y30.886 E34.73165
G1 X27.517 Y30.981 E34.76897
G1 X27 Y31 E34.79478
G1 X-27 Y31 E37.48885
G0 F3600 X-27 Y30.6
G1 F1800 X-27.725 Y30.56 E37.52508
G1 X-28.442 Y30.441 E37.56134
G1 X-29.141 Y30.243 E37.59758
G1 X-29.814 Y29.97 E37.63382
G1 X-30.453 Y29.625 E37.67005
G1 X-31.05 Y29.211 E37.70629
G1 X-31.598 Y28.735 E37.74251
G1 X-32.091 Y28.201 E37.77876
G1 X-32.521 Y27.616 E37.81499
G1 X-32.885 Y26.987 E37.85124
G1 X-33.178 Y26.322 E37.8875
G1 X-33.396 Y25.629 E37.92374
G1 X-33.536 Y24.917 E37.95994
G1 X-33.6 Y24 E38.0058
G1 X-33.6 Y-24 E40.40053
G1 X-33.56 Y-24.725 E40.43676
G1 X-33.441 Y-25.442 E40.47302
G1 X-33.243 Y-26.141 E40.50927
G1 X-32.97 Y-26.814 E40.5455
G1 X-32.625 Y-27.453 E40.58173
G1 X-32.211 Y-28.05 E40.61797
G1 X-31.735 Y-28.598 E40.65419
G1 X-31.201 Y-29.091 E40.69045
G1 X-30.616 Y-29.521 E40.72667
G1 X-29.987 Y-29.885 E40.76293
G1 X-29.322 Y-30.178 E40.79918
G1 X-28.629 Y-30.396 E40.83542
G1 X-27.917 Y-30.536 E40.87163
G1 X-27 Y-30.6 E40.91749
G1 X27 Y-30.6 E43.61156
G1 X27.725 Y-30.56 E43.64778
G1 X28.442 Y-30.441 E43.68404
G1 X29.141 Y-30.243 E43.72029
G1 X29.814 Y-29.97 E43.75652
G1 X30.453 Y-29.625 E43.79275
G1 X31.05 Y-29.211 E43.829
G1 X31.598 Y-28.735 E43.86521
G1 X32.091 Y-28.201 E43.90147
G1 X32.521 Y-27.616 E43.93769
G1 X32.885 Y-26.987 E43.97395
G1 X33.178 Y-26.322 E44.0102
G1 X33.396 Y-25.629 E44.04645
G1 X33.536 Y-24.917 E44.08265
G1 X33.6 Y-24 E44.12851
G1 X33.6 Y24 E46.52324
G1 X33.56 Y24.725 E46.55947
G1 X33.441 Y25.442 E46.59573
G1 X33.243 Y26.141 E46.63197
G1 X32.97 Y26.814 E46.6682
G1 X32.625 Y27.453 E46.70443
G1 X32.211 Y28.05 E46.74068
G1 X31.735 Y28.598 E46.77689
G1 X31.201 Y29.091 E46.81315
G1 X30.616 Y29.521 E46.84937
G1 X29.987 Y29.885 E46.88563
G1 X29.322 Y30.178 E46.92189
G1 X28.629 Y30.396 E46.95813
G1 X27.917 Y30.536 E46.99433
G1 X27 Y30.6 E47.04019
G1 X-27 Y30.6 E49.73426
G0 F3600 X-27 Y30.2
G1 F1800 X-27.703 Y30.16 E49.76939
G1 X-28.397 Y30.041 E49.80452
G1 X-29.072 Y29.843 E49.83962
G1 X-29.721 Y29.571 E49.87472
G1 X-30.335 Y29.226 E49.90986
G1 X-30.906 Y28.815 E49.94496
G1 X-31.427 Y28.341 E49.9801
G1 X-31.891 Y27.811 E50.01524
G1 X-32.291 Y27.232 E50.05035
G1 X-32.623 Y26.611 E50.08549
G1 X-32.883 Y25.957 E50.1206
G1 X-33.067 Y25.277 E50.15574
G1 X-33.173 Y24.581 E50.19087
G1 X-33.2 Y24 E50.21988
G1 X-33.2 Y-24 E52.61461
G1 X-33.16 Y-24.703 E52.64974
G1 X-33.041 Y-25.397 E52.68487
G1 X-32.843 Y-26.072 E52.71997
G1 X-32.571 Y-26.721 E52.75507
G1 X-32.226 Y-27.335 E52.79021
G1 X-31.815 Y-27.906 E52.82531
G1 X-31.341 Y-28.427 E52.86045
G1 X-30.811 Y-28.891 E52.89559
G1 X-30.232 Y-29.291 E52.9307
G1 X-29.611 Y-29.623 E52.96584
G1 X-28.957 Y-29.883 E53.00095
G1 X-28.277 Y-30.067 E53.03609
G1 X-27.581 Y-30.173 E53.07122
G1 X-27 Y-30.2 E53.10023
G1 X27 Y-30.2 E55.79431
G1 X27.703 Y-30.16 E55.82944
G1 X28.397 Y-30.041 E55.86456
G1 X29.072 Y-29.843 E55.89966
G1 X29.721 Y-29.571 E55.93477
G1 X30.335 Y-29.226 E55.9699
G1 X30.906 Y-28.815 E56.005
G1 X31.427 Y-28.341 E56.04014
G1 X31.891 Y-27.811 E56.07529
G1 X32.291 Y-27.232 E56.1104
G1 X32.623 Y-26.611 E56.14553
G1 X32.883 Y-25.957 E56.18064
G1 X33.067 Y-25.277 E56.21579
G1 X33.173 Y-24.581 E56.25091
G1 X33.2 Y-24 E56.27993
G1 X33.2 Y24 E58.67466
G1 X33.16 Y24.703 E58.70979
G1 X33.041 Y25.397 E58.74492
G1 X32.843 Y26.072 E58.78001
G1 X32.571 Y26.721 E58.81512
G1 X32.226 Y27.335 E58.85025
G1 X31.815 Y27.906 E58.88535
G1 X31.341 Y28.427 E58.92049
G1 X30.811 Y28.891 E58.95564
G1 X30.232 Y29.291 E58.99075
G1 X29.611 Y29.623 E59.02588
G1 X28.957 Y29.883 E59.06099
G1 X28.277 Y30.067 E59.09614
G1 X27.581 Y30.173 E59.13126
G1 X27 Y30.2 E59.16028
G1 X-27 Y30.2 E61.85435
G0 F3600 X-27 Y29.8
G1 F1800 X-27.68 Y29.76 E61.88833
G1 X-28.35 Y29.641 E61.92228
G1 X-29.002 Y29.444 E61.95626
G1 X-29.626 Y29.172 E61.99022
G1 X-30.214 Y28.828 E62.02421
G1 X-30.758 Y28.418 E62.0582
G1 X-31.249 Y27.947 E62.09214
G1 X-31.683 Y27.422 E62.12612
G1 X-32.052 Y26.85 E62.16008
G1 X-32.351 Y26.238 E62.19407
G1 X-32.576 Y25.596 E62.228
G1 X-32.725 Y24.931 E62.262
G1 X-32.8 Y24 E62.3086
G1 X-32.8 Y-24 E64.70333
G1 X-32.76 Y-24.68 E64.73732
G1 X-32.641 Y-25.35 E64.77127
G1 X-32.444 Y-26.002 E64.80525
G1 X-32.172 Y-26.626 E64.83921
G1 X-31.828 Y-27.214 E64.87319
G1 X-31.418 Y-27.758 E64.90718
G1 X-30.947 Y-28.249 E64.94112
G1 X-30.422 Y-28.683 E64.97511
G1 X-29.85 Y-29.052 E65.00907
G1 X-29.238 Y-29.351 E65.04305
G1 X-28.596 Y-29.576 E65.07699
G1 X-27.931 Y-29.725 E65.11099
G1 X-27 Y-29.8 E65.15759
G1 X27 Y-29.8 E67.85166
G1 X27.68 Y-29.76 E67.88564
G1 X28.35 Y-29.641 E67.91959
G1 X29.002 Y-29.444 E67.95357
G1 X29.626 Y-29.172 E67.98753
G1 X30.214 Y-28.828 E68.02152
G1 X30.758 Y-28.418 E68.0555
G1 X31.249 Y-27.947 E68.08945
G1 X31.683 Y-27.422 E68.12343
G1 X32.052 Y-26.85 E68.15739
G1 X32.351 Y-26.238 E68.19137
G1 X32.576 Y-25.596 E68.22531
G1 X32.725 Y-24.931 E68.25931
G1 X32.8 Y-24 E68.30591
G1 X32.8 Y24 E70.70064
G1 X32.76 Y24.68 E70.73463
G1 X32.641 Y25.35 E70.76858
G1 X32.444 Y26.002 E70.80256
G1 X32.172 Y26.626 E70.83652
G1 X31.828 Y27.214 E70.8705
G1 X31.418 Y27.758 E70.90449
G1 X30.947 Y28.249 E70.93843
G1 X30.422 Y28.683 E70.97242
G1 X29.85 Y29.052 E71.00638
G1 X29.238 Y29.351 E71.04036
G1 X28.596 Y29.576 E71.0743
G1 X27.931 Y29.725 E71.1083
G1 X27 Y29.8 E71.1549
G1 X-27 Y29.8 E73.84897
G0 F3600 X-27 Y29.4
G1 F1800 X-27.656 Y29.36 E73.88176
G1 X-28.302 Y29.241 E73.91453
G1 X-28.929 Y29.044 E73.94732
G1 X-29.527 Y28.772 E73.98009
G1 X-30.088 Y28.43 E74.01287
G1 X-30.603 Y28.022 E74.04565
G1 X-31.065 Y27.555 E74.07842
G1 X-31.466 Y27.035 E74.11118
G1 X-31.802 Y26.471 E74.14394
G1 X-32.066 Y25.869 E74.17673
G1 X-32.256 Y25.24 E74.20951
G1 X-32.367 Y24.593 E74.24226
G1 X-32.4 Y24 E74.27189
G1 X-32.4 Y-24 E76.66662
G1 X-32.36 Y-24.656 E76.69941
G1 X-32.241 Y-25.302 E76.73218
G1 X-32.044 Y-25.929 E76.76497
G1 X-31.772 Y-26.527 E76.79775
G1 X-31.43 Y-27.088 E76.83053
G1 X-31.022 Y-27.603 E76.86331
G1 X-30.555 Y-28.065 E76.89608
G1 X-30.035 Y-28.466 E76.92884
G1 X-29.471 Y-28.802 E76.96159
G1 X-28.869 Y-29.066 E76.99439
G1 X-28.24 Y-29.256 E77.02717
G1 X-27.593 Y-29.367 E77.05992
G1 X-27 Y-29.4 E77.08955
G1 X27 Y-29.4 E79.78362
G1 X27.656 Y-29.36 E79.81641
G1 X28.302 Y-29.241 E79.84918
G1 X28.929 Y-29.044 E79.88197
G1 X29.527 Y-28.772 E79.91475
G1 X30.088 Y-28.43 E79.94753
G1 X30.603 Y-28.022 E79.98031
G1 X31.065 Y-27.555 E80.01308
G1 X31.466 Y-27.035 E80.04584
G1 X31.802 Y-26.471 E80.07859
G1 X32.066 Y-25.869 E80.11139
G1 X32.256 Y-25.24 E80.14417
G1 X32.367 Y-24.593 E80.17692
G1 X32.4 Y-24 E80.20655
G1 X32.4 Y24 E82.60128
G1 X32.36 Y24.656 E82.63407
G1 X32.241 Y25.302 E82.66684
G1 X32.044 Y25.929 E82.69963
G1 X31.772 Y26.527 E82.73241
G1 X31.43 Y27.088 E82.76518
G1 X31.022 Y27.603 E82.79796
G1 X30.555 Y28.065 E82.83074
G1 X30.035 Y28.466 E82.8635
G1 X29.471 Y28.802 E82.89625
G1 X28.869 Y29.066 E82.92905
G1 X28.24 Y29.256 E82.96183
G1 X27.593 Y29.367 E82.99458
G1 X27 Y29.4 E83.02421
G1 X-27 Y29.4 E85.71828
G0 F3600 X-27 Y29
G1 F1800 X-27.631 Y28.96 E85.74982
G1 X-28.252 Y28.841 E85.78137
G1 X-28.852 Y28.644 E85.81288
G1 X-29.424 Y28.373 E85.84445
G1 X-29.956 Y28.033 E85.87595
G1 X-30.441 Y27.627 E85.90751
G1 X-30.871 Y27.164 E85.93903
G1 X-31.24 Y26.65 E85.9706
G1 X-31.54 Y26.094 E86.00212
G1 X-31.768 Y25.505 E86.03363
G1 X-31.92 Y24.891 E86.06519
G1 X-32 Y24 E86.10982
G1 X-32 Y-24 E88.50455
G1 X-31.96 Y-24.631 E88.53609
G1 X-31.841 Y-25.252 E88.56764
G1 X-31.644 Y-25.852 E88.59914
G1 X-31.373 Y-26.424 E88.63072
G1 X-31.033 Y-26.956 E88.66222
G1 X-30.627 Y-27.441 E88.69378
G1 X-30.164 Y-27.871 E88.7253
G1 X-29.65 Y-28.24 E88.75687
G1 X-29.094 Y-28.54 E88.78839
G1 X-28.505 Y-28.768 E88.8199
G1 X-27.891 Y-28.92 E88.85145
G1 X-27 Y-29 E88.89609
G1 X27 Y-29 E91.59016
G1 X27.631 Y-28.96 E91.6217
G1 X28.252 Y-28.841 E91.65325
G1 X28.852 Y-28.644 E91.68475
G1 X29.424 Y-28.373 E91.71633
G1 X29.956 Y-28.033 E91.74783
G1 X30.441 Y-27.627 E91.77938
G1 X30.871 Y-27.164 E91.81091
G1 X31.24 Y-26.65 E91.84248
G1 X31.54 Y-26.094 E91.874
G1 X31.768 Y-25.505 E91.90551
G1 X31.92 Y-24.891 E91.93706
G1 X32 Y-24 E91.98169
G1 X32 Y24 E94.37642
G1 X31.96 Y24.631 E94.40797
G1 X31.841 Y25.252 E94.43951
G1 X31.644 Y25.852 E94.47102
G1 X31.373 Y26.424 E94.5026
G1 X31.033 Y26.956 E94.5341
G1 X30.627 Y27.441 E94.56565
G1 X30.164 Y27.871 E94.59718
G1 X29.65 Y28.24 E94.62874
G1 X29.094 Y28.54 E94.66026
G1 X28.505 Y28.768 E94.69177
G1 X27.891 Y28.92 E94.72333
G1 X27 Y29 E94.76796
G1 X-27 Y29 E97.46203
G0 F3600 X-27 Y28.6
G1 F1800 X-27.605 Y28.56 E97.49228
G1 X-28.199 Y28.441 E97.52251
G1 X-28.773 Y28.245 E97.55277
G1 X-29.316 Y27.974 E97.58304
G1 X-29.819 Y27.635 E97.61331
G1 X-30.272 Y27.233 E97.64352
G1 X-30.669 Y26.775 E97.67376
G1 X-31.002 Y26.268 E97.70402
G1 X-31.266 Y25.722 E97.73428
G1 X-31.455 Y25.146 E97.76452
G1 X-31.567 Y24.55 E97.79478
G1 X-31.6 Y24 E97.82227
G1 X-31.6 Y-24 E100.217
G1 X-31.56 Y-24.605 E100.24725
G1 X-31.441 Y-25.199 E100.27747
G1 X-31.245 Y-25.773 E100.30773
G1 X-30.974 Y-26.316 E100.33801
G1 X-30.635 Y-26.819 E100.36827
G1 X-30.233 Y-27.272 E100.39849
G1 X-29.775 Y-27.669 E100.42873
G1 X-29.268 Y-28.002 E100.45899
G1 X-28.722 Y-28.266 E100.48924
G1 X-28.146 Y-28.455 E100.51949
G1 X-27.55 Y-28.567 E100.54974
G1 X-27 Y-28.6 E100.57723
G1 X27 Y-28.6 E103.2713
G1 X27.605 Y-28.56 E103.30155
G1 X28.199 Y-28.441 E103.33178
G1 X28.773 Y-28.245 E103.36204
G1 X29.316 Y-27.974 E103.39231
G1 X29.819 Y-27.635 E103.42258
G1 X30.272 Y-27.233 E103.45279
G1 X30.669 Y-26.775 E103.48303
G1 X31.002 Y-26.268 E103.51329
G1 X31.266 Y-25.722 E103.54355
G1 X31.455 Y-25.146 E103.5738
G1 X31.567 Y-24.55 E103.60405
G1 X31.6 Y-24 E103.63154
G1 X31.6 Y24 E106.02627
G1 X31.56 Y24.605 E106.05652
G1 X31.441 Y25.199 E106.08674
G1 X31.245 Y25.773 E106.117
G1 X30.974 Y26.316 E106.14728
G1 X30.635 Y26.819 E106.17754
G1 X30.233 Y27.272 E106.20776
G1 X29.775 Y27.669 E106.238
G1 X29.268 Y28.002 E106.26826
G1 X28.722 Y28.266 E106.29852
G1 X28.146 Y28.455 E106.32876
G1 X27.55 Y28.567 E106.35902
G1 X27 Y28.6 E106.3865
G1 X-27 Y28.6 E109.08058
G0 F3600 X-27 Y28.2
G1 F1800 X-27.578 Y28.16 E109.10948
G1 X-28.145 Y28.041 E109.13838
G1 X-28.69 Y27.845 E109.16728
