;FLAVOR:Marlin
;TIME:6207
;Filament used: 15.9302m
;Layer height: 0.4
;MINX:-34.451
;MINY:-34.451
;MINZ:0.3
;MAXX:34.451
;MAXY:47.295
;MAXZ:55.1
;Generated with Cura_SteamEngine 5.2.1
M140 S60
M105
M190 S60
M104 S200
M105
M109 S200
M82 ;absolute extrusion mode
G28 ;Home
G1 Z15.0 F6000 ;Move the platform down 15mm
;Prime the extruder
G92 E0
G1 F200 E3
G92 E0
M141 S28
G92 E0
G92 E0
G1 F1500 E-6.5
;LAYER_COUNT:138
;LAYER:0
M107
G0 F3600 X-12.253 Y34.451 Z0.3
;TYPE:SKIRT
G1 F1500 E0
G1 F1800 X-26.651 Y34.451 E0.71832
G1 X-27.44 Y34.411 E0.75773
G1 X-28.22 Y34.292 E0.7971
G1 X-28.985 Y34.094 E0.83652
G1 X-29.725 Y33.82 E0.87589
G1 X-30.434 Y33.472 E0.91529
G1 X-31.105 Y33.054 E0.95473
G1 X-31.729 Y32.571 E0.9941
G1 X-32.302 Y32.028 E1.03349
G1 X-32.817 Y31.429 E1.0729
G1 X-33.268 Y30.781 E1.11228
G1 X-33.652 Y30.09 E1.15172
G1 X-33.964 Y29.365 E1.1911
G1 X-34.201 Y28.612 E1.23049
G1 X-34.36 Y27.838 E1.26991
G1 X-34.451 Y26.956 E1.31414
G1 X-34.451 Y-26.651 E3.98861
G1 X-34.411 Y-27.44 E4.02802
G1 X-34.292 Y-28.22 E4.06739
G1 X-34.094 Y-28.985 E4.10681
G1 X-33.82 Y-29.725 E4.14618
G1 X-33.472 Y-30.434 E4.18558
G1 X-33.054 Y-31.105 E4.22502
G1 X-32.571 Y-31.729 E4.26439
G1 X-32.028 Y-32.302 E4.30377
G1 X-31.429 Y-32.817 E4.34319
G1 X-30.781 Y-33.268 E4.38257
G1 X-30.09 Y-33.652 E4.42201
G1 X-29.365 Y-33.964 E4.46139
G1 X-28.612 Y-34.201 E4.50078
G1 X-27.838 Y-34.36 E4.5402
G1 X-26.956 Y-34.451 E4.58443
G1 X26.651 Y-34.451 E7.2589
G1 X27.44 Y-34.411 E7.29831
G1 X28.22 Y-34.292 E7.33768
G1 X28.985 Y-34.094 E7.3771
G1 X29.725 Y-33.82 E7.41647
G1 X30.434 Y-33.472 E7.45587
G1 X31.105 Y-33.054 E7.49531
G1 X31.729 Y-32.571 E7.53468
G1 X32.302 Y-32.028 E7.57406
G1 X32.817 Y-31.429 E7.61347
G1 X33.268 Y-30.781 E7.65286
G1 X33.652 Y-30.09 E7.6923
G1 X33.964 Y-29.365 E7.73168
G1 X34.201 Y-28.612 E7.77106
G1 X34.36 Y-27.838 E7.81049
G1 X34.451 Y-26.956 E7.85472
G1 X34.451 Y26.651 E10.52919
G1 X34.411 Y27.44 E10.5686
G1 X34.292 Y28.22 E10.60796
G1 X34.094 Y28.985 E10.64739
G1 X33.82 Y29.725 E10.68676
G1 X33.472 Y30.434 E10.72616
G1 X33.054 Y31.105 E10.7656
G1 X32.571 Y31.729 E10.80497
G1 X32.028 Y32.302 E10.84435
G1 X31.429 Y32.817 E10.88376
G1 X30.781 Y33.268 E10.92315
G1 X30.09 Y33.652 E10.96259
G1 X29.365 Y33.964 E11.00197
G1 X28.612 Y34.201 E11.04135
G1 X27.838 Y34.36 E11.08077
G1 X26.956 Y34.451 E11.12501
G1 X13.877 Y34.451 E11.77753
G1 X13.877 Y35.039 E11.80686
G1 X13.798 Y35.825 E11.84627
G1 X13.613 Y36.73 E11.89236
G1 X12.562 Y39.959 E12.06177
G1 X12.28 Y40.697 E12.10119
G1 X11.925 Y41.402 E12.14057
G1 X11.5 Y42.068 E12.17998
G1 X11.01 Y42.687 E12.21937
G1 X10.46 Y43.254 E12.25878
G1 X9.735 Y43.851 E12.30563
G1 X7.056 Y45.801 E12.47095
G1 X6.395 Y46.233 E12.51034
G1 X5.694 Y46.596 E12.54973
G1 X4.959 Y46.886 E12.58915
G1 X4.199 Y47.1 E12.62854
G1 X3.421 Y47.236 E12.66794
G1 X2.466 Y47.295 E12.71568
G1 X-.844 Y47.295 E12.88081
G1 X-1.633 Y47.255 E12.92023
G1 X-2.413 Y47.136 E12.95959
G1 X-3.178 Y46.938 E12.99902
G1 X-3.918 Y46.664 E13.03838
G1 X-4.627 Y46.316 E13.07779
G1 X-5.434 Y45.801 E13.12555
G1 X-8.113 Y43.851 E13.29086
G1 X-8.727 Y43.355 E13.33024
G1 X-9.288 Y42.799 E13.36965
G1 X-9.79 Y42.189 E13.40906
G1 X-10.227 Y41.532 E13.44843
G1 X-10.596 Y40.833 E13.48786
G1 X-10.94 Y39.959 E13.53472
G1 X-11.882 Y37.065 E13.68656
G1 X-12.088 Y36.303 E13.72594
G1 X-12.216 Y35.524 E13.76532
G1 X-12.265 Y34.735 E13.80476
G1 X-12.253 Y34.451 E13.81895
G0 F3600 X-11.865 Y34.671
G1 F1800 X-11.834 Y34.051 E13.84992
G1 X-26.651 Y34.051 E14.58914
G1 X-27.419 Y34.011 E14.62751
G1 X-28.179 Y33.892 E14.66589
G1 X-28.922 Y33.694 E14.70425
G1 X-29.641 Y33.42 E14.74263
G1 X-30.327 Y33.073 E14.78099
G1 X-30.974 Y32.657 E14.81936
G1 X-31.574 Y32.176 E14.85773
G1 X-32.121 Y31.635 E14.89611
G1 X-32.609 Y31.04 E14.9345
G1 X-33.032 Y30.398 E14.97286
G1 X-33.387 Y29.715 E15.01126
G1 X-33.668 Y29 E15.04959
G1 X-33.874 Y28.258 E15.08801
G1 X-34.002 Y27.5 E15.12636
G1 X-34.051 Y26.651 E15.16879
G1 X-34.051 Y-26.651 E17.82804
G1 X-34.011 Y-27.419 E17.8664
G1 X-33.892 Y-28.179 E17.90478
G1 X-33.694 Y-28.922 E17.94315
G1 X-33.42 Y-29.641 E17.98153
G1 X-33.073 Y-30.327 E18.01989
G1 X-32.657 Y-30.974 E18.05826
G1 X-32.176 Y-31.574 E18.09663
G1 X-31.635 Y-32.121 E18.13501
G1 X-31.04 Y-32.609 E18.1734
G1 X-30.398 Y-33.032 E18.21176
G1 X-29.715 Y-33.387 E18.25016
G1 X-29 Y-33.668 E18.28849
G1 X-28.258 Y-33.874 E18.32691
G1 X-27.5 Y-34.002 E18.36526
G1 X-26.651 Y-34.051 E18.40769
G1 X26.651 Y-34.051 E21.06694
G1 X27.419 Y-34.011 E21.1053
G1 X28.179 Y-33.892 E21.14368
G1 X28.922 Y-33.694 E21.18204
G1 X29.641 Y-33.42 E21.22043
G1 X30.327 Y-33.073 E21.25879
G1 X30.974 Y-32.657 E21.29716
G1 X31.574 Y-32.176 E21.33553
G1 X32.121 Y-31.635 E21.37391
G1 X32.609 Y-31.04 E21.4123
G1 X33.032 Y-30.398 E21.45066
G1 X33.387 Y-29.715 E21.48906
G1 X33.668 Y-29 E21.52739
G1 X33.874 Y-28.258 E21.56581
G1 X34.002 Y-27.5 E21.60416
G1 X34.051 Y-26.651 E21.64659
G1 X34.051 Y26.651 E24.30583
G1 X34.011 Y27.419 E24.3442
G1 X33.892 Y28.179 E24.38258
G1 X33.694 Y28.922 E24.42094
G1 X33.42 Y29.641 E24.45933
G1 X33.073 Y30.327 E24.49768
G1 X32.657 Y30.974 E24.53606
G1 X32.176 Y31.574 E24.57442
G1 X31.635 Y32.121 E24.61281
G1 X31.04 Y32.609 E24.6512
G1 X30.398 Y33.032 E24.68956
G1 X29.715 Y33.387 E24.72796
G1 X29 Y33.668 E24.76629
G1 X28.258 Y33.874 E24.8047
G1 X27.5 Y34.002 E24.84306
G1 X26.651 Y34.051 E24.88548
G1 X13.454 Y34.051 E25.54389
G1 X13.487 Y34.57 E25.56983
G1 X13.455 Y35.338 E25.60818
G1 X13.344 Y36.099 E25.64655
G1 X13.124 Y36.941 E25.68997
G1 X12.182 Y39.835 E25.8418
G1 X11.906 Y40.553 E25.88018
G1 X11.557 Y41.239 E25.91858
G1 X11.139 Y41.885 E25.95697
G1 X10.656 Y42.483 E25.99532
G1 X10.114 Y43.029 E26.0337
G1 X9.5 Y43.528 E26.07317
G1 X6.821 Y45.478 E26.23849
G1 X6.176 Y45.898 E26.27689
G1 X5.492 Y46.248 E26.31522
G1 X4.774 Y46.526 E26.35363
G1 X4.032 Y46.727 E26.39198
G1 X3.273 Y46.851 E26.43035
G1 X2.466 Y46.895 E26.47067
G1 X-.844 Y46.895 E26.63581
G1 X-1.612 Y46.855 E26.67418
G1 X-2.372 Y46.736 E26.71256
G1 X-3.115 Y46.538 E26.75092
G1 X-3.834 Y46.264 E26.78931
G1 X-4.52 Y45.917 E26.82766
G1 X-5.199 Y45.478 E26.868
G1 X-7.878 Y43.528 E27.03331
G1 X-8.475 Y43.044 E27.07166
G1 X-9.019 Y42.5 E27.11004
G1 X-9.504 Y41.903 E27.14841
G1 X-9.924 Y41.258 E27.18681
G1 X-10.275 Y40.574 E27.22517
G1 X-10.56 Y39.835 E27.26468
G1 X-11.502 Y36.941 E27.41652
G1 X-11.701 Y36.199 E27.45485
G1 X-11.823 Y35.439 E27.49325
G1 X-11.865 Y34.671 E27.53162
G0 F3600 X-11.465 Y34.609
G1 F1800 X-11.407 Y33.651 E27.57951
G1 X-26.651 Y33.651 E28.34003
G1 X-27.398 Y33.611 E28.37735
G1 X-28.136 Y33.492 E28.41465
G1 X-28.858 Y33.294 E28.452
G1 X-29.554 Y33.021 E28.4893
G1 X-30.217 Y32.674 E28.52663
G1 X-30.84 Y32.259 E28.56398
G1 X-31.414 Y31.78 E28.60128
G1 X-31.935 Y31.243 E28.6386
G1 X-32.394 Y30.653 E28.6759
G1 X-32.789 Y30.017 E28.71325
G1 X-33.113 Y29.343 E28.75056
G1 X-33.363 Y28.638 E28.78788
G1 X-33.537 Y27.91 E28.82522
G1 X-33.632 Y27.168 E28.86254
G1 X-33.651 Y26.651 E28.88835
G1 X-33.651 Y-26.651 E31.5476
G1 X-33.611 Y-27.398 E31.58492
G1 X-33.492 Y-28.136 E31.62222
G1 X-33.294 Y-28.858 E31.65957
G1 X-33.021 Y-29.554 E31.69687
G1 X-32.674 Y-30.217 E31.7342
G1 X-32.259 Y-30.84 E31.77155
G1 X-31.78 Y-31.414 E31.80884
G1 X-31.243 Y-31.935 E31.84617
G1 X-30.653 Y-32.394 E31.88347
G1 X-30.017 Y-32.789 E31.92082
G1 X-29.343 Y-33.113 E31.95813
G1 X-28.638 Y-33.363 E31.99545
G1 X-27.91 Y-33.537 E32.03279
G1 X-27.168 Y-33.632 E32.07011
G1 X-26.651 Y-33.651 E32.09592
G1 X26.651 Y-33.651 E34.75517
G1 X27.398 Y-33.611 E34.79249
G1 X28.136 Y-33.492 E34.82978
G1 X28.858 Y-33.294 E34.86713
G1 X29.554 Y-33.021 E34.90443
G1 X30.217 Y-32.674 E34.94177
G1 X30.84 Y-32.259 E34.97911
G1 X31.414 Y-31.78 E35.01641
G1 X31.935 Y-31.243 E35.05374
G1 X32.394 Y-30.653 E35.09103
G1 X32.789 Y-30.017 E35.12839
G1 X33.113 Y-29.343 E35.16569
G1 X33.363 Y-28.638 E35.20301
G1 X33.537 Y-27.91 E35.24036
G1 X33.632 Y-27.168 E35.27768
G1 X33.651 Y-26.651 E35.30349
G1 X33.651 Y26.651 E37.96274
G1 X33.611 Y27.398 E38.00006
G1 X33.492 Y28.136 E38.03735
G1 X33.294 Y28.858 E38.0747
G1 X33.021 Y29.554 E38.112
G1 X32.674 Y30.217 E38.14933
G1 X32.259 Y30.84 E38.18668
G1 X31.78 Y31.414 E38.22398
G1 X31.243 Y31.935 E38.26131
G1 X30.653 Y32.394 E38.2986
G1 X30.017 Y32.789 E38.33595
G1 X29.343 Y33.113 E38.37326
G1 X28.638 Y33.363 E38.41058
G1 X27.91 Y33.537 E38.44792
G1 X27.168 Y33.632 E38.48524
G1 X26.651 Y33.651 E38.51106
G1 X13.006 Y33.651 E39.19181
G1 X13.068 Y34.134 E39.2161
G1 X13.083 Y34.882 E39.25343
G1 X13.019 Y35.627 E39.29073
G1 X12.85 Y36.491 E39.33465
G1 X11.801 Y39.712 E39.50366
G1 X11.532 Y40.41 E39.54098
G1 X11.19 Y41.075 E39.57829
G1 X10.779 Y41.7 E39.6156
G1 X10.303 Y42.277 E39.65292
G1 X9.769 Y42.801 E39.69025
G1 X9.264 Y43.205 E39.72251
G1 X6.585 Y45.155 E39.88783
G1 X5.958 Y45.562 E39.92512
G1 X5.291 Y45.9 E39.96242
G1 X4.591 Y46.165 E39.99977
G1 X3.867 Y46.353 E40.03709
G1 X3.127 Y46.464 E40.07442
G1 X2.466 Y46.495 E40.10743
G1 X-.844 Y46.495 E40.27257
G1 X-1.591 Y46.455 E40.30989
G1 X-2.329 Y46.336 E40.34718
G1 X-3.051 Y46.138 E40.38453
G1 X-3.747 Y45.865 E40.42183
G1 X-4.41 Y45.518 E40.45917
G1 X-4.963 Y45.155 E40.49217
G1 X-7.642 Y43.205 E40.65748
G1 X-8.223 Y42.733 E40.69483
G1 X-8.75 Y42.201 E40.73219
G1 X-9.217 Y41.617 E40.76949
G1 X-9.619 Y40.986 E40.80682
G1 X-9.951 Y40.316 E40.84413
G1 X-10.179 Y39.712 E40.87633
G1 X-11.121 Y36.818 E41.02817
G1 X-11.314 Y36.095 E41.06551
G1 X-11.429 Y35.356 E41.10282
G1 X-11.465 Y34.609 E41.14013
G0 F3600 X-11.064 Y34.548
G1 F1800 X-11.013 Y33.823 E41.17639
G1 X-10.908 Y33.251 E41.2054
G1 X-26.651 Y33.251 E41.99083
G1 X-27.376 Y33.211 E42.02705
G1 X-28.093 Y33.092 E42.06331
G1 X-28.792 Y32.894 E42.09956
G1 X-29.465 Y32.621 E42.13579
G1 X-30.104 Y32.276 E42.17202
G1 X-30.701 Y31.862 E42.20827
G1 X-31.249 Y31.386 E42.24448
G1 X-31.742 Y30.852 E42.28074
G1 X-32.172 Y30.267 E42.31696
G1 X-32.536 Y29.638 E42.35322
G1 X-32.829 Y28.973 E42.38947
G1 X-33.047 Y28.28 E42.42572
G1 X-33.187 Y27.568 E42.46192
G1 X-33.251 Y26.651 E42.50778
G1 X-33.251 Y-26.651 E45.16703
G1 X-33.211 Y-27.376 E45.20325
G1 X-33.092 Y-28.093 E45.23951
G1 X-32.894 Y-28.792 E45.27576
G1 X-32.621 Y-29.465 E45.31199
G1 X-32.276 Y-30.104 E45.34822
G1 X-31.862 Y-30.701 E45.38447
G1 X-31.386 Y-31.249 E45.42068
G1 X-30.852 Y-31.742 E45.45694
G1 X-30.267 Y-32.172 E45.49316
G1 X-29.638 Y-32.536 E45.52942
G1 X-28.973 Y-32.829 E45.56567
G1 X-28.28 Y-33.047 E45.60192
G1 X-27.568 Y-33.187 E45.63812
G1 X-26.651 Y-33.251 E45.68398
G1 X26.651 Y-33.251 E48.34323
G1 X27.376 Y-33.211 E48.37945
G1 X28.093 Y-33.092 E48.41571
G1 X28.792 Y-32.894 E48.45196
G1 X29.465 Y-32.621 E48.48819
G1 X30.104 Y-32.276 E48.52442
G1 X30.701 Y-31.862 E48.56066
G1 X31.249 Y-31.386 E48.59688
G1 X31.742 Y-30.852 E48.63314
G1 X32.172 Y-30.267 E48.66936
G1 X32.536 Y-29.638 E48.70562
G1 X32.829 Y-28.973 E48.74187
G1 X33.047 Y-28.28 E48.77812
G1 X33.187 Y-27.568 E48.81432
G1 X33.251 Y-26.651 E48.86018
G1 X33.251 Y26.651 E51.51943
G1 X33.211 Y27.376 E51.55565
G1 X33.092 Y28.093 E51.59191
G1 X32.894 Y28.792 E51.62816
G1 X32.621 Y29.465 E51.66439
G1 X32.276 Y30.104 E51.70062
G1 X31.862 Y30.701 E51.73686
G1 X31.386 Y31.249 E51.77308
G1 X30.852 Y31.742 E51.80934
G1 X30.267 Y32.172 E51.84556
G1 X29.638 Y32.536 E51.88182
G1 X28.973 Y32.829 E51.91807
G1 X28.28 Y33.047 E51.95431
G1 X27.568 Y33.187 E51.99052
G1 X26.651 Y33.251 E52.03638
G1 X12.528 Y33.251 E52.74098
G1 X12.623 Y33.734 E52.76554
G1 X12.684 Y34.458 E52.80178
G1 X12.665 Y35.184 E52.83802
G1 X12.567 Y35.904 E52.87427
G1 X12.363 Y36.694 E52.91498
G1 X11.421 Y39.588 E53.06681
G1 X11.158 Y40.265 E53.10305
G1 X10.823 Y40.909 E53.13926
G1 X10.419 Y41.513 E53.17552
G1 X9.951 Y42.069 E53.21178
G1 X9.425 Y42.569 E53.24798
G1 X9.029 Y42.881 E53.27313
G1 X6.35 Y44.831 E53.43845
G1 X5.74 Y45.226 E53.4747
G1 X5.091 Y45.551 E53.51091
G1 X4.409 Y45.802 E53.54717
G1 X3.704 Y45.978 E53.58342
G1 X2.985 Y46.075 E53.61962
G1 X2.466 Y46.095 E53.64553
G1 X-.844 Y46.095 E53.81067
G1 X-1.569 Y46.055 E53.84689
G1 X-2.286 Y45.936 E53.88315
G1 X-2.985 Y45.738 E53.9194
G1 X-3.658 Y45.465 E53.95563
G1 X-4.297 Y45.12 E53.99186
G1 X-4.728 Y44.831 E54.01775
G1 X-7.407 Y42.881 E54.18306
G1 X-7.97 Y42.422 E54.2193
G1 X-8.479 Y41.904 E54.25554
G1 X-8.928 Y41.333 E54.29178
G1 X-9.311 Y40.716 E54.32801
G1 X-9.625 Y40.061 E54.36425
G1 X-9.799 Y39.588 E54.38939
G1 X-10.741 Y36.694 E54.54123
G1 X-10.927 Y35.992 E54.57746
G1 X-11.036 Y35.274 E54.61369
G1 X-11.064 Y34.548 E54.64994
G0 F3600 X-10.663 Y34.489
G1 F1800 X-10.605 Y33.787 E54.68508
G1 X-10.467 Y33.097 E54.72019
G1 X-10.388 Y32.851 E54.73308
G1 X-26.651 Y32.851 E55.54444
G1 X-27.354 Y32.811 E55.57957
G1 X-28.048 Y32.692 E55.6147
G1 X-28.723 Y32.494 E55.64979
G1 X-29.372 Y32.222 E55.6849
G1 X-29.986 Y31.877 E55.72004
G1 X-30.557 Y31.466 E55.75514
G1 X-31.078 Y30.992 E55.79028
G1 X-31.542 Y30.462 E55.82542
G1 X-31.942 Y29.883 E55.86053
G1 X-32.274 Y29.262 E55.89566
G1 X-32.534 Y28.608 E55.93078
G1 X-32.718 Y27.928 E55.96592
G1 X-32.824 Y27.232 E56.00104
G1 X-32.851 Y26.651 E56.03006
G1 X-32.851 Y-26.651 E58.68931
G1 X-32.811 Y-27.354 E58.72444
G1 X-32.692 Y-28.048 E58.75957
G1 X-32.494 Y-28.723 E58.79466
G1 X-32.222 Y-29.372 E58.82977
G1 X-31.877 Y-29.986 E58.86491
G1 X-31.466 Y-30.557 E58.90001
G1 X-30.992 Y-31.078 E58.93515
G1 X-30.462 Y-31.542 E58.97029
G1 X-29.883 Y-31.942 E59.0054
G1 X-29.262 Y-32.274 E59.04053
G1 X-28.608 Y-32.534 E59.07564
G1 X-27.928 Y-32.718 E59.11079
G1 X-27.232 Y-32.824 E59.14591
G1 X-26.651 Y-32.851 E59.17493
G1 X26.651 Y-32.851 E61.83418
G1 X27.354 Y-32.811 E61.86931
G1 X28.048 Y-32.692 E61.90444
G1 X28.723 Y-32.494 E61.93953
G1 X29.372 Y-32.222 E61.97464
G1 X29.986 Y-31.877 E62.00978
G1 X30.557 Y-31.466 E62.04488
G1 X31.078 Y-30.992 E62.08002
G1 X31.542 Y-30.462 E62.11516
G1 X31.942 Y-29.883 E62.15027
G1 X32.274 Y-29.262 E62.1854
G1 X32.534 Y-28.608 E62.22051
G1 X32.718 Y-27.928 E62.25566
G1 X32.824 Y-27.232 E62.29078
G1 X32.851 Y-26.651 E62.3198
G1 X32.851 Y26.651 E64.97905
G1 X32.811 Y27.354 E65.01418
G1 X32.692 Y28.048 E65.04931
G1 X32.494 Y28.723 E65.0844
G1 X32.222 Y29.372 E65.11951
G1 X31.877 Y29.986 E65.15464
G1 X31.466 Y30.557 E65.18974
G1 X30.992 Y31.078 E65.22488
G1 X30.462 Y31.542 E65.26003
G1 X29.883 Y31.942 E65.29514
G1 X29.262 Y32.274 E65.33027
G1 X28.608 Y32.534 E65.36538
G1 X27.928 Y32.718 E65.40053
G1 X27.232 Y32.824 E65.43565
G1 X26.651 Y32.851 E65.46467
G1 X12.012 Y32.851 E66.19501
G1 X12.154 Y33.374 E66.22205
G1 X12.26 Y34.07 E66.25717
G1 X12.286 Y34.773 E66.29227
G1 X12.232 Y35.475 E66.3274
G1 X12.077 Y36.283 E66.36844
G1 X11.041 Y39.464 E66.53535
G1 X10.785 Y40.12 E66.57048
G1 X10.457 Y40.743 E66.6056
G1 X10.06 Y41.324 E66.64071
G1 X9.6 Y41.857 E66.67584
G1 X9.008 Y42.403 E66.71602
G1 X6.115 Y44.508 E66.89451
G1 X5.523 Y44.889 E66.92963
G1 X4.892 Y45.201 E66.96475
G1 X4.229 Y45.439 E66.9999
G1 X3.544 Y45.601 E67.03501
G1 X2.743 Y45.695 E67.07525
G1 X-.844 Y45.695 E67.25421
G1 X-1.547 Y45.655 E67.28934
G1 X-2.241 Y45.536 E67.32447
G1 X-2.916 Y45.338 E67.35956
G1 X-3.565 Y45.066 E67.39467
G1 X-4.273 Y44.668 E67.43519
G1 X-7.172 Y42.558 E67.61407
G1 X-7.716 Y42.112 E67.64917
G1 X-8.207 Y41.607 E67.68431
G1 X-8.637 Y41.05 E67.71942
G1 X-9.002 Y40.447 E67.75458
G1 X-9.336 Y39.718 E67.79459
G1 X-10.361 Y36.57 E67.95976
G1 X-10.54 Y35.889 E67.99489
G1 X-10.641 Y35.193 E68.02997
G1 X-10.663 Y34.489 E68.06511
G0 F3600 X-10.261 Y34.432
G1 F1800 X-10.195 Y33.755 E68.09905
G1 X-10.051 Y33.089 E68.13304
G1 X-9.831 Y32.451 E68.16671
G1 X-26.651 Y32.451 E69.00587
G1 X-27.331 Y32.411 E69.03985
G1 X-28.001 Y32.292 E69.0738
G1 X-28.653 Y32.095 E69.10778
G1 X-29.277 Y31.823 E69.14174
G1 X-29.865 Y31.479 E69.17573
G1 X-30.409 Y31.069 E69.20971
G1 X-30.9 Y30.598 E69.24366
G1 X-31.334 Y30.073 E69.27764
G1 X-31.703 Y29.501 E69.3116
G1 X-32.002 Y28.889 E69.34558
G1 X-32.227 Y28.247 E69.37952
G1 X-32.376 Y27.582 E69.41352
G1 X-32.451 Y26.651 E69.46012
G1 X-32.451 Y-26.651 E72.11937
G1 X-32.411 Y-27.331 E72.15335
G1 X-32.292 Y-28.001 E72.1873
G1 X-32.095 Y-28.653 E72.22128
G1 X-31.823 Y-29.277 E72.25524
G1 X-31.479 Y-29.865 E72.28923
