;FLAVOR:Marlin
;TIME:2358
;Filament used: 4.7669m
;Layer height: 0.4
;MINX:-15.29
;MINY:-15.29
;MINZ:0.3
;MAXX:15.29
;MAXY:15.29
;MAXZ:173.1
;Generated with Cura_SteamEngine 5.2.1
M140 S60
M105
M190 S60
M104 S200
M105
M109 S200
M82 ;absolute extrusion mode
G28 ;Home
G1 Z15.0 F6000 ;Move the platform down 15mm
;Prime the extruder
G92 E0
G1 F200 E3
G92 E0
M141 S28
G92 E0
G92 E0
G1 F1500 E-6.5
;LAYER_COUNT:433
;LAYER:0
M107
G0 F3600 X-13.449 Y7.281 Z0.3
;TYPE:SKIRT
G1 F1500 E0
G1 F1800 X-13.805 Y6.582 E0.03914
G1 X-14.141 Y5.825 E0.08046
G1 X-14.421 Y5.092 E0.1196
G1 X-14.668 Y4.331 E0.15952
G1 X-14.869 Y3.582 E0.19821
G1 X-15.04 Y2.78 E0.23912
G1 X-15.163 Y2.003 E0.27837
G1 X-15.249 Y1.187 E0.3193
G1 X-15.29 Y0.396 E0.35882
G1 X-15.289 Y-.426 E0.39983
G1 X-15.247 Y-1.209 E0.43895
G1 X-15.161 Y-2.02 E0.47964
G1 X-15.037 Y-2.797 E0.51889
G1 X-14.865 Y-3.598 E0.55977
G1 X-14.661 Y-4.355 E0.59888
G1 X-14.41 Y-5.126 E0.63933
G1 X-14.128 Y-5.859 E0.67851
G1 X-13.794 Y-6.606 E0.71934
G1 X-13.441 Y-7.297 E0.75805
G1 X-13.036 Y-7.998 E0.79844
G1 X-12.604 Y-8.663 E0.838
G1 X-12.125 Y-9.322 E0.87865
G1 X-11.636 Y-9.926 E0.91742
G1 X-11.084 Y-10.538 E0.95854
G1 X-10.528 Y-11.093 E0.99773
G1 X-9.924 Y-11.637 E1.03828
G1 X-9.306 Y-12.137 E1.07794
G1 X-8.637 Y-12.622 E1.11917
G1 X-7.98 Y-13.047 E1.15821
G1 X-7.283 Y-13.448 E1.19833
G1 X-6.584 Y-13.804 E1.23746
G1 X-5.829 Y-14.14 E1.27869
G1 X-5.094 Y-14.421 E1.31795
G1 X-4.331 Y-14.668 E1.35796
G1 X-3.582 Y-14.869 E1.39665
G1 X-2.78 Y-15.04 E1.43756
G1 X-2.003 Y-15.163 E1.47681
G1 X-1.186 Y-15.249 E1.51779
G1 X-.394 Y-15.29 E1.55736
G1 X0.427 Y-15.289 E1.59832
G1 X1.209 Y-15.247 E1.63739
G1 X2.02 Y-15.161 E1.67808
G1 X2.797 Y-15.037 E1.71733
G1 X3.598 Y-14.865 E1.7582
G1 X4.355 Y-14.661 E1.79732
G1 X5.128 Y-14.409 E1.83788
G1 X5.863 Y-14.126 E1.87718
G1 X6.609 Y-13.793 E1.91793
G1 X7.298 Y-13.441 E1.95653
G1 X7.998 Y-13.036 E1.99688
G1 X8.663 Y-12.604 E2.03644
G1 X9.322 Y-12.125 E2.07709
G1 X9.926 Y-11.636 E2.11586
G1 X10.538 Y-11.084 E2.15698
G1 X11.093 Y-10.528 E2.19617
G1 X11.637 Y-9.924 E2.23673
G1 X12.137 Y-9.306 E2.27638
G1 X12.622 Y-8.637 E2.31761
G1 X13.047 Y-7.98 E2.35665
G1 X13.448 Y-7.283 E2.39677
G1 X13.804 Y-6.584 E2.4359
G1 X14.14 Y-5.829 E2.47713
G1 X14.421 Y-5.094 E2.51639
G1 X14.668 Y-4.331 E2.5564
G1 X14.869 Y-3.582 E2.59509
G1 X15.04 Y-2.783 E2.63585
G1 X15.163 Y-2.008 E2.675
G1 X15.249 Y-1.188 E2.71614
G1 X15.29 Y-.395 E2.75575
G1 X15.289 Y0.426 E2.79671
G1 X15.247 Y1.209 E2.83583
G1 X15.161 Y2.02 E2.87652
G1 X15.037 Y2.797 E2.91578
G1 X14.865 Y3.598 E2.95665
G1 X14.661 Y4.355 E2.99576
G1 X14.41 Y5.126 E3.03622
G1 X14.128 Y5.859 E3.0754
G1 X13.794 Y6.606 E3.11622
G1 X13.441 Y7.297 E3.15493
G1 X13.036 Y7.998 E3.19532
G1 X12.604 Y8.663 E3.23489
G1 X12.125 Y9.322 E3.27553
G1 X11.636 Y9.926 E3.3143
G1 X11.084 Y10.538 E3.35542
G1 X10.528 Y11.093 E3.39461
G1 X9.924 Y11.637 E3.43517
G1 X9.306 Y12.137 E3.47483
G1 X8.637 Y12.622 E3.51605
G1 X7.98 Y13.047 E3.55509
G1 X7.283 Y13.448 E3.59521
G1 X6.584 Y13.804 E3.63434
G1 X5.829 Y14.14 E3.67557
G1 X5.094 Y14.421 E3.71483
G1 X4.331 Y14.668 E3.75484
G1 X3.582 Y14.869 E3.79353
G1 X2.78 Y15.04 E3.83444
G1 X2.003 Y15.163 E3.87369
G1 X1.186 Y15.249 E3.91468
G1 X0.394 Y15.29 E3.95424
G1 X-.427 Y15.289 E3.9952
G1 X-1.209 Y15.247 E4.03427
G1 X-2.02 Y15.161 E4.07496
G1 X-2.797 Y15.037 E4.11421
G1 X-3.598 Y14.865 E4.15509
G1 X-4.355 Y14.661 E4.1942
G1 X-5.128 Y14.409 E4.23476
G1 X-5.863 Y14.126 E4.27406
G1 X-6.608 Y13.793 E4.31477
G1 X-7.299 Y13.44 E4.35348
G1 X-8.002 Y13.034 E4.39398
G1 X-8.665 Y12.603 E4.43344
G1 X-9.322 Y12.125 E4.47397
G1 X-9.926 Y11.636 E4.51274
G1 X-10.538 Y11.084 E4.55386
G1 X-11.093 Y10.528 E4.59305
G1 X-11.637 Y9.924 E4.63361
G1 X-12.137 Y9.306 E4.67327
G1 X-12.624 Y8.634 E4.71467
G1 X-13.05 Y7.975 E4.75382
G1 X-13.449 Y7.281 E4.79376
G0 F3600 X-13.093 Y7.099
G1 F1800 X-13.449 Y6.4 E4.83289
G1 X-13.768 Y5.683 E4.87205
G1 X-14.048 Y4.95 E4.91119
G1 X-14.282 Y4.227 E4.94911
G1 X-14.483 Y3.478 E4.9878
G1 X-14.645 Y2.717 E5.02661
G1 X-14.768 Y1.94 E5.06586
G1 X-14.849 Y1.166 E5.10469
G1 X-14.89 Y0.375 E5.1442
G1 X-14.889 Y-.404 E5.18307
G1 X-14.847 Y-1.187 E5.22219
G1 X-14.766 Y-1.957 E5.26081
G1 X-14.642 Y-2.734 E5.30007
G1 X-14.479 Y-3.493 E5.3388
G1 X-14.275 Y-4.25 E5.37791
G1 X-14.037 Y-4.982 E5.41632
G1 X-13.755 Y-5.715 E5.4555
G1 X-13.438 Y-6.424 E5.49425
G1 X-13.085 Y-7.115 E5.53296
G1 X-12.701 Y-7.78 E5.57127
G1 X-12.269 Y-8.445 E5.61083
G1 X-11.814 Y-9.07 E5.6494
G1 X-11.325 Y-9.674 E5.68817
G1 X-10.802 Y-10.255 E5.72717
G1 X-10.246 Y-10.81 E5.76637
G1 X-9.672 Y-11.326 E5.80487
G1 X-9.054 Y-11.826 E5.84453
G1 X-8.419 Y-12.286 E5.88365
G1 X-7.762 Y-12.711 E5.92269
G1 X-7.101 Y-13.092 E5.96075
G1 X-6.402 Y-13.448 E5.99989
G1 X-5.687 Y-13.766 E6.03893
G1 X-4.952 Y-14.047 E6.07819
G1 X-4.227 Y-14.282 E6.11621
G1 X-3.478 Y-14.483 E6.1549
G1 X-2.717 Y-14.645 E6.19372
G1 X-1.94 Y-14.768 E6.23296
G1 X-1.166 Y-14.849 E6.27179
G1 X-.374 Y-14.89 E6.31136
G1 X0.406 Y-14.889 E6.35027
G1 X1.188 Y-14.847 E6.38934
G1 X1.957 Y-14.766 E6.42792
G1 X2.734 Y-14.642 E6.46717
G1 X3.493 Y-14.479 E6.5059
G1 X4.25 Y-14.275 E6.54502
G1 X4.984 Y-14.036 E6.58353
G1 X5.719 Y-13.753 E6.62282
G1 X6.427 Y-13.437 E6.6615
G1 X7.116 Y-13.085 E6.7001
G1 X7.78 Y-12.701 E6.73837
G1 X8.445 Y-12.269 E6.77794
G1 X9.07 Y-11.814 E6.8165
G1 X9.674 Y-11.325 E6.85528
G1 X10.255 Y-10.802 E6.89428
G1 X10.81 Y-10.246 E6.93347
G1 X11.326 Y-9.672 E6.97198
G1 X11.826 Y-9.054 E7.01164
G1 X12.286 Y-8.419 E7.05076
G1 X12.711 Y-7.762 E7.08979
G1 X13.092 Y-7.101 E7.12786
G1 X13.448 Y-6.402 E7.16699
G1 X13.766 Y-5.687 E7.20603
G1 X14.047 Y-4.952 E7.24529
G1 X14.282 Y-4.227 E7.28331
G1 X14.483 Y-3.478 E7.322
G1 X14.645 Y-2.72 E7.36067
G1 X14.768 Y-1.945 E7.39982
G1 X14.849 Y-1.167 E7.43885
G1 X14.89 Y-.374 E7.47846
G1 X14.889 Y0.404 E7.51728
G1 X14.847 Y1.187 E7.5564
G1 X14.766 Y1.957 E7.59503
G1 X14.642 Y2.734 E7.63428
G1 X14.479 Y3.493 E7.67301
G1 X14.275 Y4.25 E7.71213
G1 X14.037 Y4.982 E7.75053
G1 X13.755 Y5.715 E7.78971
G1 X13.438 Y6.424 E7.82846
G1 X13.085 Y7.115 E7.86717
G1 X12.701 Y7.78 E7.90548
G1 X12.269 Y8.445 E7.94504
G1 X11.814 Y9.07 E7.98361
G1 X11.325 Y9.674 E8.02238
G1 X10.802 Y10.255 E8.06138
G1 X10.246 Y10.81 E8.10058
G1 X9.672 Y11.326 E8.13908
G1 X9.054 Y11.826 E8.17874
G1 X8.419 Y12.286 E8.21786
G1 X7.762 Y12.711 E8.2569
G1 X7.101 Y13.092 E8.29496
G1 X6.402 Y13.448 E8.3341
G1 X5.687 Y13.766 E8.37314
G1 X4.952 Y14.047 E8.4124
G1 X4.227 Y14.282 E8.45042
G1 X3.478 Y14.483 E8.48911
G1 X2.717 Y14.645 E8.52793
G1 X1.94 Y14.768 E8.56717
G1 X1.166 Y14.849 E8.606
G1 X0.374 Y14.89 E8.64557
G1 X-.406 Y14.889 E8.68448
G1 X-1.188 Y14.847 E8.72355
G1 X-1.957 Y14.766 E8.76213
G1 X-2.734 Y14.642 E8.80138
G1 X-3.493 Y14.479 E8.84011
G1 X-4.25 Y14.275 E8.87923
G1 X-4.984 Y14.036 E8.91774
G1 X-5.719 Y13.753 E8.95703
G1 X-6.426 Y13.437 E8.99567
G1 X-7.117 Y13.084 E9.03438
G1 X-7.784 Y12.698 E9.07283
G1 X-8.447 Y12.267 E9.11228
G1 X-9.07 Y11.814 E9.15071
G1 X-9.674 Y11.325 E9.18948
G1 X-10.255 Y10.802 E9.22848
G1 X-10.81 Y10.246 E9.26768
G1 X-11.326 Y9.672 E9.30618
G1 X-11.826 Y9.054 E9.34584
G1 X-12.288 Y8.417 E9.3851
G1 X-12.714 Y7.758 E9.42425
G1 X-13.093 Y7.099 E9.46218
G0 F3600 X-12.737 Y6.918
G1 F1800 X-13.093 Y6.219 E9.50131
G1 X-13.394 Y5.54 E9.53837
G1 X-13.674 Y4.807 E9.57751
G1 X-13.896 Y4.123 E9.61339
G1 X-14.097 Y3.374 E9.65208
G1 X-14.25 Y2.654 E9.6888
G1 X-14.373 Y1.877 E9.72805
G1 X-14.45 Y1.145 E9.76477
G1 X-14.491 Y0.354 E9.80429
G1 X-14.49 Y-.383 E9.84106
G1 X-14.448 Y-1.166 E9.88018
G1 X-14.371 Y-1.894 E9.9167
G1 X-14.247 Y-2.671 E9.95596
G1 X-14.093 Y-3.389 E9.99259
G1 X-13.889 Y-4.146 E10.03171
G1 X-13.663 Y-4.838 E10.06802
G1 X-13.381 Y-5.571 E10.10721
G1 X-13.082 Y-6.243 E10.1439
G1 X-12.729 Y-6.934 E10.18261
G1 X-12.365 Y-7.562 E10.21883
G1 X-11.933 Y-8.227 E10.25839
G1 X-11.504 Y-8.819 E10.29487
G1 X-11.015 Y-9.423 E10.33364
G1 X-10.519 Y-9.972 E10.37055
G1 X-9.963 Y-10.527 E10.40974
G1 X-9.421 Y-11.015 E10.44613
G1 X-8.803 Y-11.515 E10.48579
G1 X-8.202 Y-11.95 E10.5228
G1 X-7.545 Y-12.375 E10.56184
G1 X-6.92 Y-12.736 E10.59785
G1 X-6.221 Y-13.092 E10.63698
G1 X-5.544 Y-13.392 E10.67393
G1 X-4.809 Y-13.673 E10.71319
G1 X-4.123 Y-13.896 E10.74917
G1 X-3.374 Y-14.097 E10.78786
G1 X-2.654 Y-14.25 E10.82459
G1 X-1.877 Y-14.373 E10.86383
G1 X-1.145 Y-14.45 E10.90056
G1 X-.353 Y-14.491 E10.94012
G1 X0.384 Y-14.49 E10.97689
G1 X1.166 Y-14.448 E11.01596
G1 X1.894 Y-14.371 E11.05248
G1 X2.671 Y-14.247 E11.09174
G1 X3.389 Y-14.093 E11.12837
G1 X4.146 Y-13.889 E11.16749
G1 X4.84 Y-13.663 E11.2039
G1 X5.575 Y-13.38 E11.2432
G1 X6.245 Y-13.081 E11.2798
G1 X6.934 Y-12.729 E11.3184
G1 X7.562 Y-12.365 E11.35461
G1 X8.227 Y-11.933 E11.39418
G1 X8.819 Y-11.504 E11.43065
G1 X9.423 Y-11.015 E11.46942
G1 X9.972 Y-10.519 E11.50633
G1 X10.527 Y-9.963 E11.54553
G1 X11.015 Y-9.421 E11.58191
G1 X11.515 Y-8.803 E11.62157
G1 X11.95 Y-8.202 E11.65859
G1 X12.375 Y-7.545 E11.69763
G1 X12.736 Y-6.92 E11.73363
G1 X13.092 Y-6.221 E11.77277
G1 X13.392 Y-5.544 E11.80971
G1 X13.673 Y-4.809 E11.84897
G1 X13.896 Y-4.123 E11.88496
G1 X14.097 Y-3.374 E11.92365
G1 X14.249 Y-2.657 E11.96022
G1 X14.372 Y-1.882 E11.99936
G1 X14.45 Y-1.146 E12.03629
G1 X14.491 Y-.353 E12.0759
G1 X14.49 Y0.383 E12.11262
G1 X14.448 Y1.166 E12.15174
G1 X14.371 Y1.894 E12.18827
G1 X14.247 Y2.671 E12.22752
G1 X14.093 Y3.389 E12.26416
G1 X13.889 Y4.146 E12.30327
G1 X13.663 Y4.838 E12.33959
G1 X13.381 Y5.571 E12.37877
G1 X13.082 Y6.243 E12.41547
G1 X12.729 Y6.934 E12.45418
G1 X12.365 Y7.562 E12.49039
G1 X11.933 Y8.227 E12.52996
G1 X11.504 Y8.819 E12.56643
G1 X11.015 Y9.423 E12.6052
G1 X10.519 Y9.972 E12.64212
G1 X9.963 Y10.527 E12.68131
G1 X9.421 Y11.015 E12.71769
G1 X8.803 Y11.515 E12.75735
G1 X8.202 Y11.95 E12.79437
G1 X7.545 Y12.375 E12.83341
G1 X6.92 Y12.736 E12.86942
G1 X6.221 Y13.092 E12.90855
G1 X5.544 Y13.392 E12.94549
G1 X4.809 Y13.673 E12.98475
G1 X4.123 Y13.896 E13.02074
G1 X3.374 Y14.097 E13.05943
G1 X2.654 Y14.25 E13.09615
G1 X1.877 Y14.373 E13.1354
G1 X1.145 Y14.45 E13.17212
G1 X0.353 Y14.491 E13.21169
G1 X-.384 Y14.49 E13.24846
G1 X-1.166 Y14.448 E13.28753
G1 X-1.894 Y14.371 E13.32405
G1 X-2.671 Y14.247 E13.3633
G1 X-3.389 Y14.093 E13.39994
G1 X-4.146 Y13.889 E13.43905
G1 X-4.84 Y13.663 E13.47547
G1 X-5.575 Y13.38 E13.51476
G1 X-6.245 Y13.081 E13.55137
G1 X-6.936 Y12.728 E13.59008
G1 X-7.566 Y12.363 E13.6264
G1 X-8.229 Y11.932 E13.66585
G1 X-8.819 Y11.504 E13.70222
G1 X-9.423 Y11.015 E13.74099
G1 X-9.972 Y10.519 E13.7779
G1 X-10.527 Y9.963 E13.8171
G1 X-11.015 Y9.421 E13.85348
G1 X-11.515 Y8.803 E13.89314
G1 X-11.952 Y8.2 E13.9303
G1 X-12.378 Y7.541 E13.96944
G1 X-12.737 Y6.918 E14.00532
G0 F3600 X-12.38 Y6.736
G1 F1800 X-12.736 Y6.037 E14.04445
G1 X-13.02 Y5.397 E14.07938
G1 X-13.3 Y4.664 E14.11853
G1 X-13.509 Y4.02 E14.15231
G1 X-13.71 Y3.271 E14.191
G1 X-13.855 Y2.592 E14.22564
G1 X-13.978 Y1.815 E14.26489
G1 X-14.05 Y1.125 E14.2995
G1 X-14.091 Y0.334 E14.33901
G1 X-14.091 Y-.362 E14.37374
G1 X-14.049 Y-1.145 E14.41286
G1 X-13.976 Y-1.831 E14.44728
G1 X-13.852 Y-2.608 E14.48653
G1 X-13.707 Y-3.285 E14.52107
G1 X-13.503 Y-4.042 E14.56019
G1 X-13.29 Y-4.695 E14.59445
G1 X-13.008 Y-5.428 E14.63364
G1 X-12.725 Y-6.061 E14.66823
G1 X-12.372 Y-6.752 E14.70694
G1 X-12.03 Y-7.344 E14.74105
G1 X-11.598 Y-8.009 E14.78061
G1 X-11.193 Y-8.567 E14.81501
G1 X-10.704 Y-9.171 E14.85378
G1 X-10.237 Y-9.689 E14.88858
G1 X-9.681 Y-10.244 E14.92777
G1 X-9.169 Y-10.704 E14.96211
G1 X-8.551 Y-11.204 E15.00177
G1 X-7.985 Y-11.615 E15.03667
G1 X-7.328 Y-12.04 E15.07571
G1 X-6.738 Y-12.379 E15.10965
G1 X-6.039 Y-12.735 E15.14879
G1 X-5.401 Y-13.019 E15.18363
G1 X-4.666 Y-13.3 E15.22289
G1 X-4.02 Y-13.509 E15.25676
G1 X-3.271 Y-13.71 E15.29545
G1 X-2.592 Y-13.855 E15.33009
G1 X-1.815 Y-13.978 E15.36934
G1 X-1.124 Y-14.05 E15.404
G1 X-.332 Y-14.091 E15.44357
G1 X0.363 Y-14.091 E15.47824
G1 X1.145 Y-14.049 E15.51731
G1 X1.831 Y-13.976 E15.55173
G1 X2.608 Y-13.852 E15.59098
G1 X3.285 Y-13.707 E15.62553
G1 X4.042 Y-13.503 E15.66464
G1 X4.697 Y-13.289 E15.69902
G1 X5.432 Y-13.006 E15.73831
G1 X6.063 Y-12.724 E15.77279
G1 X6.752 Y-12.372 E15.81139
G1 X7.344 Y-12.03 E15.8455
G1 X8.009 Y-11.598 E15.88507
G1 X8.567 Y-11.193 E15.91946
G1 X9.171 Y-10.704 E15.95823
G1 X9.689 Y-10.237 E15.99303
G1 X10.244 Y-9.681 E16.03222
G1 X10.704 Y-9.169 E16.06656
G1 X11.204 Y-8.551 E16.10622
G1 X11.615 Y-7.985 E16.14112
G1 X12.04 Y-7.328 E16.18016
G1 X12.379 Y-6.738 E16.21411
G1 X12.735 Y-6.039 E16.25324
G1 X13.019 Y-5.401 E16.28808
G1 X13.3 Y-4.666 E16.32734
G1 X13.509 Y-4.02 E16.36121
G1 X13.71 Y-3.271 E16.3999
G1 X13.854 Y-2.595 E16.43439
G1 X13.977 Y-1.82 E16.47354
G1 X14.05 Y-1.126 E16.50835
G1 X14.091 Y-.333 E16.54797
G1 X14.091 Y0.362 E16.58264
G1 X14.049 Y1.145 E16.62176
G1 X13.976 Y1.831 E16.65618
G1 X13.852 Y2.608 E16.69543
G1 X13.707 Y3.285 E16.72997
G1 X13.503 Y4.042 E16.76909
G1 X13.29 Y4.695 E16.80336
G1 X13.008 Y5.428 E16.84254
G1 X12.725 Y6.061 E16.87713
G1 X12.372 Y6.752 E16.91584
G1 X12.03 Y7.344 E16.94995
G1 X11.598 Y8.009 E16.98952
G1 X11.193 Y8.567 E17.02391
G1 X10.704 Y9.171 E17.06269
G1 X10.237 Y9.689 E17.09748
G1 X9.681 Y10.244 E17.13667
G1 X9.169 Y10.704 E17.17101
G1 X8.551 Y11.204 E17.21067
G1 X7.985 Y11.615 E17.24557
G1 X7.328 Y12.04 E17.28461
G1 X6.738 Y12.379 E17.31856
G1 X6.039 Y12.735 E17.35769
G1 X5.401 Y13.019 E17.39253
G1 X4.666 Y13.3 E17.43179
G1 X4.02 Y13.509 E17.46566
G1 X3.271 Y13.71 E17.50435
G1 X2.592 Y13.855 E17.53899
G1 X1.815 Y13.978 E17.57824
G1 X1.124 Y14.05 E17.6129
G1 X0.332 Y14.091 E17.65247
G1 X-.363 Y14.091 E17.68714
G1 X-1.145 Y14.049 E17.72621
G1 X-1.831 Y13.976 E17.76063
G1 X-2.608 Y13.852 E17.79989
G1 X-3.285 Y13.707 E17.83443
G1 X-4.042 Y13.503 E17.87354
G1 X-4.697 Y13.289 E17.90792
G1 X-5.432 Y13.006 E17.94721
G1 X-6.063 Y12.724 E17.98169
G1 X-6.754 Y12.371 E18.02041
G1 X-7.348 Y12.028 E18.05463
G1 X-8.011 Y11.597 E18.09408
G1 X-8.567 Y11.193 E18.12837
G1 X-9.171 Y10.704 E18.16714
G1 X-9.689 Y10.237 E18.20193
G1 X-10.244 Y9.681 E18.24113
G1 X-10.704 Y9.169 E18.27547
G1 X-11.204 Y8.551 E18.31513
G1 X-11.616 Y7.983 E18.35013
G1 X-12.042 Y7.324 E18.38928
G1 X-12.38 Y6.736 E18.42312
G0 F3600 X-12.024 Y6.555
G1 F1800 X-12.38 Y5.856 E18.46225
G1 X-12.647 Y5.254 E18.49511
G1 X-12.927 Y4.521 E18.53426
G1 X-13.123 Y3.916 E18.56598
G1 X-13.324 Y3.167 E18.60467
G1 X-13.46 Y2.529 E18.63722
G1 X-13.583 Y1.752 E18.67647
G1 X-13.651 Y1.104 E18.70897
G1 X-13.692 Y0.313 E18.74849
G1 X-13.691 Y-.34 E18.78107
G1 X-13.649 Y-1.123 E18.82019
G1 X-13.581 Y-1.768 E18.85255
G1 X-13.457 Y-2.545 E18.8918
G1 X-13.32 Y-3.181 E18.92426
G1 X-13.116 Y-3.938 E18.96337
G1 X-12.917 Y-4.551 E18.99553
G1 X-12.635 Y-5.284 E19.03471
G1 X-12.369 Y-5.879 E19.06723
G1 X-12.016 Y-6.57 E19.10594
G1 X-11.694 Y-7.127 E19.13804
G1 X-11.262 Y-7.792 E19.1776
G1 X-10.882 Y-8.315 E19.20985
G1 X-10.393 Y-8.919 E19.24862
G1 X-9.954 Y-9.406 E19.28133
G1 X-9.398 Y-9.961 E19.32053
G1 X-8.918 Y-10.393 E19.35274
G1 X-8.3 Y-10.893 E19.3924
G1 X-7.768 Y-11.279 E19.4252
G1 X-7.111 Y-11.704 E19.46423
G1 X-6.557 Y-12.023 E19.49613
G1 X-5.858 Y-12.379 E19.53526
G1 X-5.258 Y-12.645 E19.56801
G1 X-4.523 Y-12.926 E19.60727
G1 X-3.916 Y-13.123 E19.6391
G1 X-3.167 Y-13.324 E19.67779
G1 X-2.529 Y-13.46 E19.71034
G1 X-1.752 Y-13.583 E19.74959
G1 X-1.104 Y-13.651 E19.78209
G1 X-.312 Y-13.692 E19.82166
G1 X0.342 Y-13.691 E19.85429
G1 X1.124 Y-13.649 E19.89336
G1 X1.768 Y-13.581 E19.92567
G1 X2.545 Y-13.457 E19.96492
G1 X3.181 Y-13.32 E19.99738
G1 X3.938 Y-13.116 E20.03649
G1 X4.553 Y-12.916 E20.06876
G1 X5.288 Y-12.633 E20.10805
G1 X5.881 Y-12.368 E20.14045
G1 X6.57 Y-12.016 E20.17906
G1 X7.127 Y-11.694 E20.21115
G1 X7.792 Y-11.262 E20.25072
G1 X8.315 Y-10.882 E20.28297
G1 X8.919 Y-10.393 E20.32174
G1 X9.406 Y-9.954 E20.35445
G1 X9.961 Y-9.398 E20.39364
G1 X10.393 Y-8.918 E20.42586
G1 X10.893 Y-8.3 E20.46552
G1 X11.279 Y-7.768 E20.49831
G1 X11.704 Y-7.111 E20.53735
G1 X12.023 Y-6.557 E20.56925
G1 X12.379 Y-5.858 E20.60838
G1 X12.645 Y-5.258 E20.64113
G1 X12.926 Y-4.523 E20.68038
G1 X13.123 Y-3.916 E20.71222
