;FLAVOR:Marlin
;TIME:1269
;Filament used: 0.526703m
;Layer height: 0.1
;MINX:-17.16
;MINY:-14.934
;MINZ:0.3
;MAXX:15.893
;MAXY:11.773
;MAXZ:15.2
;Generated with Cura_SteamEngine 5.2.1
M140 S60
M105
M190 S60
M104 S200
M105
M109 S200
M82 ;absolute extrusion mode
G28 ;Home
G1 Z15.0 F6000 ;Move the platform down 15mm
;Prime the extruder
G92 E0
G1 F200 E3
G92 E0
M141 S28
G92 E0
G92 E0
G1 F1500 E-6.5
;LAYER_COUNT:150
;LAYER:0
M107
G0 F3600 X-.729 Y9.068 Z0.3
;TYPE:SKIRT
G1 F1500 E0
G1 F1800 X-1.518 Y9.028 E0.03941
G1 X-2.215 Y8.922 E0.07459
G1 X-2.484 Y9.246 E0.0956
G1 X-3.046 Y9.801 E0.135
G1 X-3.662 Y10.295 E0.1744
G1 X-4.324 Y10.725 E0.21378
G1 X-5.027 Y11.086 E0.25321
G1 X-5.762 Y11.373 E0.29257
G1 X-6.523 Y11.585 E0.33198
G1 X-7.301 Y11.719 E0.37137
G1 X-8.399 Y11.773 E0.42622
G1 X-9.234 Y11.715 E0.46797
G1 X-10.011 Y11.579 E0.50733
G1 X-10.772 Y11.365 E0.54677
G1 X-11.506 Y11.076 E0.58612
G1 X-12.208 Y10.713 E0.62555
G1 X-12.878 Y10.275 E0.66549
G1 X-13.714 Y9.665 E0.71712
G1 X-14.327 Y9.168 E0.75649
G1 X-14.887 Y8.611 E0.79589
G1 X-15.388 Y8.001 E0.83528
G1 X-15.825 Y7.343 E0.87468
G1 X-16.193 Y6.644 E0.9141
G1 X-16.533 Y5.777 E0.96056
G1 X-16.777 Y5.027 E0.99991
G1 X-16.983 Y4.265 E1.03929
G1 X-17.111 Y3.485 E1.07872
G1 X-17.16 Y2.697 E1.11811
G1 X-17.128 Y1.908 E1.15751
G1 X-17.017 Y1.126 E1.19691
G1 X-16.777 Y0.201 E1.24459
G1 X-16.533 Y-.549 E1.28394
G1 X-16.251 Y-1.287 E1.32335
G1 X-15.896 Y-1.992 E1.36273
G1 X-15.472 Y-2.658 E1.40212
G1 X-14.982 Y-3.277 E1.44151
G1 X-14.432 Y-3.844 E1.48092
G1 X-13.573 Y-4.552 E1.53645
G1 X-12.734 Y-5.102 E1.5865
G1 X-12.033 Y-5.465 E1.62589
G1 X-11.299 Y-5.756 E1.66528
G1 X-10.539 Y-5.971 E1.70468
G1 X-9.762 Y-6.108 E1.74405
G1 X-8.974 Y-6.166 E1.78347
G1 X-8.684 Y-6.158 E1.79794
G1 X-8.604 Y-7.539 E1.86695
G1 X-8.447 Y-8.489 E1.91499
G1 X-8.216 Y-9.341 E1.95903
G1 X-7.895 Y-10.184 E2.00404
G1 X-7.54 Y-10.89 E2.04346
G1 X-7.116 Y-11.556 E2.08285
G1 X-6.627 Y-12.176 E2.12225
G1 X-6.078 Y-12.744 E2.16166
G1 X-5.493 Y-13.24 E2.19992
G1 X-4.85 Y-13.699 E2.23934
G1 X-4.165 Y-14.092 E2.27873
G1 X-3.443 Y-14.412 E2.31814
G1 X-2.693 Y-14.659 E2.35753
G1 X-1.922 Y-14.828 E2.39691
G1 X-.997 Y-14.934 E2.44336
G1 X7.864 Y-14.934 E2.88544
G1 X8.653 Y-14.894 E2.92485
G1 X9.433 Y-14.775 E2.96421
G1 X10.198 Y-14.577 E3.00364
G1 X10.938 Y-14.303 E3.04301
G1 X11.647 Y-13.955 E3.08241
G1 X12.318 Y-13.537 E3.12185
G1 X12.942 Y-13.054 E3.16122
G1 X13.515 Y-12.511 E3.2006
G1 X13.964 Y-12.001 E3.2345
G1 X14.445 Y-11.375 E3.27389
G1 X14.86 Y-10.703 E3.31329
G1 X15.204 Y-9.992 E3.3527
G1 X15.476 Y-9.251 E3.39208
G1 X15.742 Y-8.16 E3.4481
G1 X15.87 Y-7.167 E3.49805
G1 X15.893 Y-6.564 E3.52816
G1 X15.893 Y0.709 E3.89101
G1 X15.853 Y1.498 E3.93042
G1 X15.729 Y2.355 E3.97363
G1 X15.504 Y3.296 E4.0219
G1 X15.243 Y4.041 E4.06128
G1 X14.908 Y4.756 E4.10067
G1 X14.502 Y5.434 E4.1401
G1 X13.882 Y6.252 E4.19131
G1 X13.253 Y6.914 E4.23686
G1 X12.655 Y7.43 E4.27627
G1 X12.007 Y7.882 E4.31569
G1 X11.317 Y8.266 E4.35508
G1 X10.592 Y8.578 E4.39446
G1 X9.839 Y8.816 E4.43386
G1 X9.066 Y8.976 E4.47324
G1 X8.173 Y9.068 E4.51803
G1 X-.729 Y9.068 E4.96215
G0 F3600 X-.729 Y8.668
G1 F1800 X-1.497 Y8.628 E5.00052
G1 X-2.365 Y8.492 E5.04435
G1 X-2.93 Y9.136 E5.08709
G1 X-3.494 Y9.658 E5.12544
G1 X-4.11 Y10.12 E5.16385
G1 X-4.77 Y10.515 E5.20222
G1 X-5.467 Y10.839 E5.24057
G1 X-6.195 Y11.089 E5.27897
G1 X-6.944 Y11.262 E5.31733
G1 X-7.707 Y11.356 E5.35568
G1 X-8.437 Y11.372 E5.39211
G1 X-9.205 Y11.316 E5.43053
G1 X-9.962 Y11.18 E5.4689
G1 X-10.701 Y10.967 E5.50727
G1 X-11.413 Y10.678 E5.5456
G1 X-12.092 Y10.316 E5.58399
G1 X-12.642 Y9.952 E5.6169
G1 X-13.478 Y9.342 E5.66853
G1 X-14.075 Y8.857 E5.7069
G1 X-14.618 Y8.312 E5.74528
G1 X-15.102 Y7.715 E5.78363
G1 X-15.521 Y7.07 E5.822
G1 X-15.871 Y6.385 E5.86038
G1 X-16.153 Y5.653 E5.89951
G1 X-16.397 Y4.903 E5.93886
G1 X-16.597 Y4.161 E5.9772
G1 X-16.718 Y3.401 E6.0156
G1 X-16.76 Y2.633 E6.05397
G1 X-16.722 Y1.865 E6.09233
G1 X-16.604 Y1.105 E6.1307
G1 X-16.397 Y0.325 E6.17096
G1 X-16.153 Y-.425 E6.21031
G1 X-15.877 Y-1.143 E6.24869
G1 X-15.529 Y-1.829 E6.28706
G1 X-15.111 Y-2.475 E6.32545
G1 X-14.628 Y-3.073 E6.3638
G1 X-14.086 Y-3.619 E6.40218
G1 X-13.325 Y-4.237 E6.45109
G1 X-12.515 Y-4.767 E6.49939
G1 X-11.831 Y-5.118 E6.53774
G1 X-11.114 Y-5.396 E6.57611
G1 X-10.372 Y-5.599 E6.61449
G1 X-9.613 Y-5.723 E6.65286
G1 X-8.845 Y-5.768 E6.69124
G1 X-8.264 Y-5.742 E6.72025
G1 X-8.264 Y-6.499 E6.75802
G1 X-8.207 Y-7.496 E6.80784
G1 X-8.052 Y-8.423 E6.85473
G1 X-7.834 Y-9.221 E6.896
G1 X-7.52 Y-10.041 E6.93981
G1 X-7.172 Y-10.727 E6.97819
G1 X-6.755 Y-11.374 E7.01659
G1 X-6.273 Y-11.973 E7.05495
G1 X-5.731 Y-12.519 E7.09333
G1 X-5.244 Y-12.927 E7.12502
G1 X-4.617 Y-13.374 E7.16344
G1 X-3.948 Y-13.753 E7.2018
G1 X-3.243 Y-14.061 E7.24018
G1 X-2.51 Y-14.293 E7.27854
G1 X-1.757 Y-14.449 E7.31691
G1 X-.639 Y-14.534 E7.37285
G1 X7.864 Y-14.534 E7.79706
G1 X8.632 Y-14.494 E7.83543
G1 X9.392 Y-14.375 E7.87381
G1 X10.135 Y-14.177 E7.91217
G1 X10.854 Y-13.903 E7.95056
G1 X11.54 Y-13.556 E7.98891
G1 X12.187 Y-13.14 E8.02729
G1 X12.787 Y-12.659 E8.06565
G1 X13.573 Y-11.854 E8.12178
G1 X14.127 Y-11.131 E8.16723
G1 X14.528 Y-10.475 E8.20558
G1 X14.859 Y-9.781 E8.24394
G1 X15.117 Y-9.056 E8.28234
G1 X15.35 Y-8.076 E8.33259
G1 X15.472 Y-7.116 E8.38087
G1 X15.493 Y-6.564 E8.40843
G1 X15.493 Y0.709 E8.77128
G1 X15.453 Y1.477 E8.80965
G1 X15.335 Y2.288 E8.85054
G1 X15.114 Y3.202 E8.89745
G1 X14.857 Y3.927 E8.93583
G1 X14.526 Y4.621 E8.97419
G1 X14.125 Y5.277 E9.01254
G1 X13.574 Y5.996 E9.05774
G1 X12.963 Y6.639 E9.10199
G1 X12.378 Y7.138 E9.14035
G1 X11.744 Y7.574 E9.17874
G1 X11.069 Y7.942 E9.2171
G1 X10.359 Y8.238 E9.25547
G1 X9.622 Y8.458 E9.29384
G1 X8.866 Y8.601 E9.33223
G1 X7.872 Y8.668 E9.38193
G1 X-.729 Y8.668 E9.81104
G0 F3600 X-.729 Y8.268
G1 F1800 X-1.476 Y8.228 E9.84836
G1 X-2.214 Y8.109 E9.88566
G1 X-2.531 Y8.022 E9.90206
G1 X-2.866 Y8.469 E9.92992
G1 X-3.376 Y9.016 E9.96724
G1 X-3.942 Y9.506 E10.00458
G1 X-4.557 Y9.932 E10.04191
G1 X-5.213 Y10.29 E10.07919
G1 X-5.904 Y10.576 E10.1165
G1 X-6.622 Y10.787 E10.15384
G1 X-7.358 Y10.92 E10.19115
G1 X-8.382 Y10.973 E10.24231
G1 X-9.175 Y10.917 E10.28197
G1 X-9.911 Y10.781 E10.31931
G1 X-10.628 Y10.569 E10.35661
G1 X-11.318 Y10.28 E10.39394
G1 X-11.974 Y9.92 E10.43127
G1 X-12.406 Y9.629 E10.45725
G1 X-13.242 Y9.019 E10.50889
G1 X-13.822 Y8.546 E10.54622
G1 X-14.348 Y8.014 E10.58355
G1 X-14.814 Y7.429 E10.62086
G1 X-15.216 Y6.798 E10.65819
G1 X-15.547 Y6.128 E10.69547
G1 X-15.773 Y5.53 E10.72737
G1 X-16.017 Y4.78 E10.76671
G1 X-16.21 Y4.057 E10.80405
G1 X-16.325 Y3.318 E10.84136
G1 X-16.36 Y2.57 E10.87872
G1 X-16.315 Y1.824 E10.916
G1 X-16.191 Y1.086 E10.95334
G1 X-16.017 Y0.448 E10.98633
G1 X-15.773 Y-.302 E11.02568
G1 X-15.503 Y-1 E11.06302
G1 X-15.161 Y-1.665 E11.10033
G1 X-14.75 Y-2.29 E11.13764
G1 X-14.275 Y-2.867 E11.17493
G1 X-13.741 Y-3.391 E11.21226
G1 X-13.076 Y-3.924 E11.25477
G1 X-12.297 Y-4.431 E11.30115
G1 X-11.63 Y-4.77 E11.33847
G1 X-10.93 Y-5.035 E11.37582
G1 X-10.207 Y-5.225 E11.41311
G1 X-9.467 Y-5.336 E11.45044
G1 X-8.72 Y-5.368 E11.48774
G1 X-7.864 Y-5.312 E11.53054
G1 X-7.864 Y-6.499 E11.58976
G1 X-7.81 Y-7.453 E11.63743
G1 X-7.657 Y-8.356 E11.68313
G1 X-7.453 Y-9.101 E11.72166
G1 X-7.146 Y-9.898 E11.76427
G1 X-6.805 Y-10.564 E11.8016
G1 X-6.395 Y-11.189 E11.83889
G1 X-5.92 Y-11.767 E11.87622
G1 X-5.067 Y-12.563 E11.93443
G1 X-4.385 Y-13.047 E11.97615
G1 X-3.733 Y-13.413 E12.01345
G1 X-3.045 Y-13.708 E12.0508
G1 X-2.33 Y-13.927 E12.08811
G1 X-1.595 Y-14.068 E12.12544
G1 X-.639 Y-14.134 E12.17325
G1 X7.864 Y-14.134 E12.59747
G1 X8.611 Y-14.094 E12.63479
G1 X9.349 Y-13.975 E12.67208
G1 X10.071 Y-13.777 E12.70944
G1 X10.767 Y-13.504 E12.74673
G1 X11.43 Y-13.157 E12.78407
G1 X12.053 Y-12.742 E12.82141
G1 X12.627 Y-12.263 E12.85871
G1 X13.277 Y-11.586 E12.90554
G1 X13.808 Y-10.888 E12.94929
G1 X14.196 Y-10.248 E12.98663
G1 X14.513 Y-9.571 E13.02393
G1 X14.756 Y-8.863 E13.06127
G1 X14.959 Y-7.994 E13.10579
G1 X15.075 Y-7.066 E13.15245
G1 X15.093 Y-6.564 E13.17751
G1 X15.093 Y0.709 E13.54036
G1 X15.053 Y1.456 E13.57768
G1 X14.941 Y2.22 E13.61621
G1 X14.725 Y3.108 E13.6618
G1 X14.472 Y3.812 E13.69912
G1 X14.145 Y4.485 E13.73645
G1 X13.748 Y5.119 E13.77377
G1 X13.264 Y5.743 E13.81317
G1 X12.673 Y6.362 E13.85587
G1 X12.102 Y6.846 E13.89321
G1 X11.482 Y7.265 E13.93055
G1 X10.822 Y7.616 E13.96784
G1 X10.127 Y7.895 E14.0052
G1 X9.407 Y8.098 E14.04253
G1 X8.67 Y8.222 E14.07981
G1 X7.872 Y8.268 E14.11969
G1 X-.729 Y8.268 E14.5488
G0 F3600 X-.729 Y7.868
G1 F1800 X-1.454 Y7.828 E14.58502
G1 X-2.171 Y7.709 E14.62128
G1 X-2.702 Y7.559 E14.64881
G1 X-2.857 Y7.804 E14.66327
G1 X-3.311 Y8.372 E14.69955
G1 X-3.824 Y8.886 E14.73578
G1 X-4.39 Y9.341 E14.77201
G1 X-5.003 Y9.73 E14.80823
G1 X-5.655 Y10.051 E14.84449
G1 X-6.338 Y10.297 E14.88071
G1 X-7.044 Y10.467 E14.91694
G1 X-7.765 Y10.558 E14.95319
G1 X-8.42 Y10.573 E14.98588
G1 X-9.145 Y10.517 E15.02216
G1 X-9.858 Y10.382 E15.05836
G1 X-10.553 Y10.17 E15.09461
G1 X-11.22 Y9.883 E15.13084
G1 X-11.939 Y9.475 E15.17208
G1 X-13.006 Y8.696 E15.23799
G1 X-13.569 Y8.236 E15.27427
G1 X-14.077 Y7.717 E15.3105
G1 X-14.525 Y7.145 E15.34675
G1 X-14.908 Y6.528 E15.38298
G1 X-15.281 Y5.748 E15.42611
G1 X-15.636 Y4.656 E15.4834
G1 X-15.823 Y3.954 E15.51964
G1 X-15.931 Y3.236 E15.55587
G1 X-15.959 Y2.51 E15.59211
G1 X-15.908 Y1.785 E15.62837
G1 X-15.777 Y1.071 E15.66459
G1 X-15.636 Y0.572 E15.69046
G1 X-15.392 Y-.178 E15.72981
G1 X-15.13 Y-.855 E15.76602
G1 X-14.795 Y-1.5 E15.80228
G1 X-14.391 Y-2.103 E15.8385
G1 X-13.923 Y-2.659 E15.87475
G1 X-13.397 Y-3.16 E15.91099
G1 X-12.688 Y-3.7 E15.95546
G1 X-12.078 Y-4.095 E15.99171
G1 X-11.429 Y-4.421 E16.02795
G1 X-10.748 Y-4.673 E16.06418
G1 X-10.043 Y-4.849 E16.10043
G1 X-9.324 Y-4.947 E16.13663
G1 X-8.598 Y-4.965 E16.17286
G1 X-7.874 Y-4.903 E16.20911
G1 X-7.464 Y-4.822 E16.22996
G1 X-7.464 Y-6.499 E16.31363
G1 X-7.412 Y-7.409 E16.3591
G1 X-7.262 Y-8.289 E16.40364
G1 X-7.071 Y-8.98 E16.43941
G1 X-6.773 Y-9.754 E16.48079
G1 X-6.438 Y-10.399 E16.51705
G1 X-6.035 Y-11.003 E16.55327
G1 X-5.567 Y-11.559 E16.58953
G1 X-4.816 Y-12.252 E16.64051
G1 X-4.153 Y-12.721 E16.68103
G1 X-3.518 Y-13.073 E16.71725
G1 X-2.848 Y-13.353 E16.75348
G1 X-2.151 Y-13.558 E16.78972
G1 X-1.436 Y-13.686 E16.82596
G1 X-.639 Y-13.734 E16.8658
G1 X7.864 Y-13.734 E17.29001
G1 X8.589 Y-13.694 E17.32624
G1 X9.306 Y-13.575 E17.3625
G1 X10.005 Y-13.377 E17.39875
G1 X10.678 Y-13.104 E17.43498
G1 X11.317 Y-12.759 E17.47121
G1 X11.914 Y-12.345 E17.50745
G1 X12.462 Y-11.869 E17.54367
G1 X12.981 Y-11.315 E17.58154
G1 X13.49 Y-10.645 E17.62352
G1 X13.863 Y-10.022 E17.65975
G1 X14.166 Y-9.362 E17.69598
G1 X14.394 Y-8.673 E17.73219
G1 X14.567 Y-7.905 E17.77146
G1 X14.693 Y-6.887 E17.82264
G1 X14.693 Y0.709 E18.2016
G1 X14.653 Y1.434 E18.23783
G1 X14.509 Y2.307 E18.28197
G1 X14.336 Y3.013 E18.31824
G1 X14.087 Y3.695 E18.35446
G1 X13.764 Y4.346 E18.39071
G1 X13.372 Y4.957 E18.42693
G1 X12.954 Y5.489 E18.46069
G1 X12.383 Y6.086 E18.5019
G1 X11.826 Y6.552 E18.53813
G1 X11.222 Y6.955 E18.57436
G1 X10.576 Y7.288 E18.61062
G1 X9.899 Y7.549 E18.64681
G1 X9.196 Y7.734 E18.68308
G1 X8.477 Y7.84 E18.71934
G1 X7.872 Y7.868 E18.74956
G1 X-.729 Y7.868 E19.17866
G0 F3600 X-.729 Y7.468
G1 F1800 X-1.432 Y7.428 E19.21379
G1 X-2.126 Y7.309 E19.24892
G1 X-2.868 Y7.091 E19.2875
G1 X-3.299 Y7.729 E19.32592
G1 X-3.756 Y8.264 E19.36102
G1 X-4.271 Y8.744 E19.39614
G1 X-4.837 Y9.163 E19.43128
G1 X-5.447 Y9.514 E19.46639
G1 X-6.093 Y9.794 E19.50151
G1 X-6.767 Y9.999 E19.53666
G1 X-7.459 Y10.127 E19.57177
G1 X-8.365 Y10.174 E19.61703
G1 X-9.114 Y10.118 E19.6545
G1 X-9.805 Y9.984 E19.68962
G1 X-10.476 Y9.772 E19.72473
G1 X-11.119 Y9.486 E19.75984
G1 X-11.934 Y8.982 E19.80764
G1 X-12.77 Y8.372 E19.85927
G1 X-13.315 Y7.926 E19.89441
G1 X-13.805 Y7.42 E19.92955
G1 X-14.234 Y6.863 E19.96463
G1 X-14.598 Y6.26 E19.99977
G1 X-14.929 Y5.537 E20.03944
G1 X-15.256 Y4.532 E20.09216
G1 X-15.435 Y3.851 E20.12729
G1 X-15.536 Y3.155 E20.16238
G1 X-15.558 Y2.451 E20.19752
G1 X-15.499 Y1.749 E20.23267
G1 X-15.343 Y0.964 E20.2726
G1 X-15.012 Y-0.054 E20.326
G1 X-14.756 Y-.71 E20.36113
G1 X-14.428 Y-1.333 E20.39626
G1 X-14.032 Y-1.915 E20.43138
G1 X-13.572 Y-2.447 E20.46647
G1 X-13.054 Y-2.925 E20.50163
G1 X-12.452 Y-3.377 E20.53919
G1 X-11.861 Y-3.759 E20.5743
G1 X-11.23 Y-4.071 E20.60942
G1 X-10.568 Y-4.31 E20.64453
G1 X-9.883 Y-4.472 E20.67965
G1 X-9.184 Y-4.556 E20.71477
G1 X-8.48 Y-4.56 E20.7499
G1 X-7.78 Y-4.484 E20.78502
G1 X-7.064 Y-4.319 E20.82168
G1 X-7.064 Y-6.499 E20.93044
G1 X-7.015 Y-7.367 E20.97382
G1 X-6.867 Y-8.221 E21.01706
G1 X-6.69 Y-8.86 E21.05014
G1 X-6.399 Y-9.609 E21.09023
G1 X-6.071 Y-10.232 E21.12535
G1 X-5.675 Y-10.815 E21.16051
G1 X-5.216 Y-11.348 E21.19561
G1 X-4.563 Y-11.942 E21.23965
G1 X-3.922 Y-12.394 E21.27878
G1 X-3.304 Y-12.732 E21.31392
G1 X-2.653 Y-12.998 E21.349
G1 X-1.975 Y-13.188 E21.38413
G1 X-1.28 Y-13.301 E21.41926
G1 X-.639 Y-13.334 E21.45128
G1 X7.864 Y-13.334 E21.8755
G1 X8.567 Y-13.294 E21.91063
G1 X9.261 Y-13.175 E21.94576
G1 X9.936 Y-12.977 E21.98085
G1 X10.585 Y-12.705 E22.01596
G1 X11.199 Y-12.36 E22.0511
G1 X11.77 Y-11.949 E22.0862
G1 X12.291 Y-11.475 E22.12134
G1 X12.746 Y-10.964 E22.15547
G1 X13.171 Y-10.403 E22.19059
G1 X13.529 Y-9.797 E22.2257
G1 X13.817 Y-9.155 E22.26081
G1 X14.03 Y-8.484 E22.29593
G1 X14.194 Y-7.666 E22.33755
G1 X14.293 Y-6.861 E22.37802
G1 X14.293 Y0.709 E22.75568
G1 X14.253 Y1.412 E22.79081
G1 X14.115 Y2.234 E22.8324
G1 X13.947 Y2.917 E22.86749
G1 X13.702 Y3.577 E22.90261
G1 X13.384 Y4.205 E22.93773
G1 X12.997 Y4.793 E22.97285
G1 X12.581 Y5.301 E23.00561
G1 X12.094 Y5.809 E23.04072
G1 X11.552 Y6.258 E23.07583
G1 X10.962 Y6.643 E23.11098
G1 X10.333 Y6.959 E23.1461
G1 X9.672 Y7.201 E23.18121
G1 X8.988 Y7.367 E23.21633
G1 X8.178 Y7.468 E23.25705
G1 X-.729 Y7.468 E23.70143
G0 F3600 X-.729 Y7.068
G1 F1800 X-1.409 Y7.028 E23.73541
G1 X-2.079 Y6.909 E23.76936
G1 X-2.731 Y6.712 E23.80334
G1 X-3.052 Y6.572 E23.82081
G1 X-3.343 Y7.093 E23.85058
G1 X-3.742 Y7.645 E23.88457
G1 X-4.203 Y8.146 E23.91853
G1 X-4.719 Y8.589 E23.95246
G1 X-5.284 Y8.969 E23.98643
G1 X-5.89 Y9.281 E24.02044
G1 X-6.528 Y9.519 E24.05441
G1 X-7.189 Y9.68 E24.08835
G1 X-7.865 Y9.763 E24.12233
G1 X-8.403 Y9.773 E24.14918
G1 X-9.082 Y9.718 E24.18316
G1 X-9.75 Y9.585 E24.21714
G1 X-10.397 Y9.374 E24.25109
G1 X-11.015 Y9.088 E24.28507
G1 X-11.699 Y8.659 E24.32535
G1 X-12.535 Y8.049 E24.37698
G1 X-13.06 Y7.616 E24.41093
G1 X-13.531 Y7.125 E24.44488
G1 X-13.942 Y6.582 E24.47885
G1 X-14.286 Y5.994 E24.51284
G1 X-14.631 Y5.158 E24.55796
G1 X-14.875 Y4.408 E24.59731
G1 X-15.048 Y3.75 E24.63125
G1 X-15.142 Y3.075 E24.66525
G1 X-15.156 Y2.395 E24.69918
G1 X-15.09 Y1.717 E24.73317
G1 X-14.875 Y0.82 E24.77919
G1 X-14.631 Y0.07 E24.81854
G1 X-14.383 Y-.564 E24.8525
G1 X-14.062 Y-1.165 E24.88649
G1 X-13.673 Y-1.724 E24.92047
G1 X-13.221 Y-2.233 E24.95443
G1 X-12.406 Y-2.932 E25.008
G1 X-11.644 Y-3.422 E25.0532
G1 X-11.032 Y-3.721 E25.08718
G1 X-10.389 Y-3.945 E25.12115
G1 X-9.725 Y-4.094 E25.1551
G1 X-9.047 Y-4.163 E25.1891
G1 X-8.366 Y-4.152 E25.22308
G1 X-7.692 Y-4.061 E25.25701
G1 X-7.032 Y-3.893 E25.29099
G1 X-6.664 Y-3.751 E25.31067
G1 X-6.664 Y-6.499 E25.44777
G1 X-6.616 Y-7.324 E25.48899
G1 X-6.472 Y-8.153 E25.53097
G1 X-6.273 Y-8.83 E25.56618
G1 X-6.026 Y-9.464 E25.60012
G1 X-5.705 Y-10.065 E25.63412
G1 X-5.317 Y-10.624 E25.66806
G1 X-4.866 Y-11.134 E25.70203
G1 X-4.308 Y-11.631 E25.73931
G1 X-3.691 Y-12.066 E25.77697
G1 X-3.092 Y-12.39 E25.81095
G1 X-2.459 Y-12.641 E25.84492
G1 X-1.801 Y-12.816 E25.87889
G1 X-.981 Y-12.934 E25.92022
G1 X7.864 Y-12.934 E26.3615
G1 X8.544 Y-12.894 E26.39549
G1 X9.214 Y-12.775 E26.42944
G1 X9.866 Y-12.578 E26.46342
G1 X10.49 Y-12.306 E26.49738
G1 X11.078 Y-11.962 E26.53136
G1 X11.622 Y-11.552 E26.56535
G1 X12.355 Y-10.819 E26.61707
G1 X12.851 Y-10.162 E26.65814
G1 X13.195 Y-9.574 E26.69212
G1 X13.467 Y-8.95 E26.72608
G1 X13.773 Y-7.825 E26.78425
G1 X13.893 Y-6.827 E26.8344
G1 X13.893 Y0.709 E27.21037
G1 X13.853 Y1.389 E27.24435
G1 X13.722 Y2.16 E27.28337
