;FLAVOR:Marlin
;TIME:5268
;Filament used: 11.9613m
;Layer height: 0.4
;MINX:-71.755
;MINY:-33.523
;MINZ:0.3
;MAXX:71.836
;MAXY:25.419
;MAXZ:107.9
;Generated with Cura_SteamEngine 5.2.1
M140 S60
M105
M190 S60
M104 S200
M105
M109 S200
M82 ;absolute extrusion mode
G28 ;Home
G1 Z15.0 F6000 ;Move the platform down 15mm
;Prime the extruder
G92 E0
G1 F200 E3
G92 E0
M141 S28
G92 E0
G92 E0
G1 F1500 E-6.5
;LAYER_COUNT:270
;LAYER:0
M107
G0 F3600 X-18.218 Y-12.923 Z0.3
;TYPE:SKIRT
G1 F1500 E0
G1 F1800 X-18.755 Y-12.906 E0.0268
G1 X-19.631 Y-12.8 E0.07083
G1 X-20.486 Y-12.587 E0.11479
G1 X-21.292 Y-12.278 E0.15785
G1 X-22.037 Y-11.887 E0.19983
G1 X-22.413 Y-11.644 E0.22216
G1 X-23.096 Y-11.109 E0.26545
G1 X-23.489 Y-10.74 E0.29234
G1 X-36.661 Y2.431 E1.22166
G1 X-37.247 Y2.96 E1.26105
G1 X-37.883 Y3.427 E1.30041
G1 X-38.564 Y3.828 E1.33984
G1 X-39.281 Y4.158 E1.37922
G1 X-39.875 Y4.362 E1.41055
G1 X-40.064 Y5.119 E1.44948
G1 X-40.331 Y5.862 E1.48887
G1 X-40.672 Y6.574 E1.52826
G1 X-41.334 Y7.624 E1.59018
G1 X-42.005 Y8.454 E1.64343
G1 X-42.56 Y9.015 E1.6828
G1 X-43.17 Y9.518 E1.72225
G1 X-43.827 Y9.955 E1.76161
G1 X-44.025 Y10.06 E1.77279
G1 X-44.098 Y10.154 E1.77873
G1 X-44.644 Y10.725 E1.81815
G1 X-45.245 Y11.237 E1.85754
G1 X-45.289 Y11.267 E1.86019
G1 X-45.754 Y11.746 E1.8935
G1 X-46.077 Y12.012 E1.91437
G1 X-46.312 Y12.366 E1.93557
G1 X-46.714 Y13.046 E1.97498
G1 X-47.184 Y13.681 E2.0144
G1 X-47.715 Y14.265 E2.05378
G1 X-48.302 Y14.793 E2.09317
G1 X-48.94 Y15.259 E2.13258
G1 X-49.668 Y15.681 E2.17456
G1 X-50.267 Y16.184 E2.21359
G1 X-50.58 Y17.056 E2.25981
G1 X-50.922 Y17.768 E2.29922
G1 X-51.333 Y18.442 E2.3386
G1 X-51.811 Y19.071 E2.37801
G1 X-52.35 Y19.648 E2.41741
G1 X-53.186 Y20.351 E2.4719
G1 X-54.138 Y21.044 E2.53065
G1 X-54.799 Y21.476 E2.57004
G1 X-55.5 Y21.839 E2.60943
G1 X-56.235 Y22.129 E2.64885
G1 X-56.995 Y22.343 E2.68824
G1 X-57.772 Y22.479 E2.72759
G1 X-58.728 Y22.538 E2.77538
G1 X-59.906 Y22.538 E2.83415
G1 X-60.695 Y22.498 E2.87356
G1 X-61.475 Y22.379 E2.91293
G1 X-62.24 Y22.181 E2.95235
G1 X-62.98 Y21.907 E2.99172
G1 X-63.689 Y21.559 E3.03112
G1 X-64.498 Y21.043 E3.079
G1 X-65.451 Y20.349 E3.13781
G1 X-66.065 Y19.853 E3.17719
G1 X-66.625 Y19.297 E3.21656
G1 X-67.127 Y18.687 E3.25598
G1 X-67.564 Y18.029 E3.29538
G1 X-67.933 Y17.331 E3.33477
G1 X-68.276 Y16.457 E3.38161
G1 X-68.64 Y15.338 E3.44032
G1 X-68.846 Y14.575 E3.47975
G1 X-68.974 Y13.796 E3.51914
G1 X-69.023 Y13.008 E3.55853
G1 X-68.991 Y12.219 E3.59792
G1 X-68.88 Y11.437 E3.63733
G1 X-68.641 Y10.514 E3.68489
G1 X-68.278 Y9.397 E3.74349
G1 X-67.996 Y8.66 E3.78286
G1 X-67.641 Y7.954 E3.82228
G1 X-67.217 Y7.288 E3.86167
G1 X-66.571 Y6.495 E3.9127
G1 X-65.655 Y5.511 E3.97977
G1 X-65.53 Y5.26 E3.99376
G1 X-65.106 Y4.594 E4.03315
G1 X-64.618 Y3.973 E4.07255
G1 X-64.069 Y3.405 E4.11196
G1 X-63.215 Y2.713 E4.1668
G1 X-61.288 Y1.364 E4.28416
G1 X-60.619 Y0.945 E4.32354
G1 X-60.53 Y0.901 E4.32849
G1 X-60.445 Y0.785 E4.33567
G1 X-59.916 Y0.199 E4.37505
G1 X-59.33 Y-.331 E4.41447
G1 X-58.694 Y-.798 E4.45384
G1 X-58.109 Y-1.154 E4.488
G1 X-57.816 Y-1.547 E4.51246
G1 X-57.274 Y-2.13 E4.55217
G1 X-57.078 Y-2.556 E4.57557
G1 X-56.475 Y-3.529 E4.63268
G1 X-56.128 Y-4.006 E4.66211
G1 X-55.631 Y-4.62 E4.70152
G1 X-55.075 Y-5.181 E4.74092
G1 X-54.466 Y-5.683 E4.7803
G1 X-53.808 Y-6.12 E4.8197
G1 X-53.11 Y-6.489 E4.85909
G1 X-52.378 Y-6.786 E4.89851
G1 X-51.809 Y-6.951 E4.92806
G1 X-51.608 Y-7.653 E4.96449
G1 X-51.316 Y-8.387 E5.0039
G1 X-50.951 Y-9.087 E5.04329
G1 X-50.517 Y-9.747 E5.0827
G1 X-49.863 Y-10.526 E5.13344
G1 X-34.601 Y-26.485 E6.23512
G1 X-33.605 Y-27.47 E6.30501
G1 X-32.715 Y-28.242 E6.36379
G1 X-32.326 Y-28.559 E6.38882
G1 X-31.395 Y-29.268 E6.44721
G1 X-30.219 Y-30.057 E6.51786
G1 X-28.987 Y-30.774 E6.58897
G1 X-27.73 Y-31.405 E6.65914
G1 X-26.438 Y-31.958 E6.72926
G1 X-25.334 Y-32.352 E6.78774
G1 X-24.846 Y-32.508 E6.8133
G1 X-23.718 Y-32.829 E6.87181
G1 X-22.59 Y-33.079 E6.92945
G1 X-22.096 Y-33.172 E6.95453
G1 X-20.937 Y-33.352 E7.01305
G1 X-19.544 Y-33.483 E7.08285
G1 X-18.127 Y-33.523 E7.15357
G1 X33.467 Y-33.523 E9.72761
G1 X34.361 Y-33.483 E9.77226
G1 X35.308 Y-33.347 E9.81999
G1 X36.032 Y-33.181 E9.85704
G1 X36.919 Y-32.894 E9.90356
G1 X37.639 Y-32.588 E9.94259
G1 X38.464 Y-32.15 E9.98919
G1 X39.121 Y-31.723 E10.02828
G1 X39.861 Y-31.144 E10.07515
G1 X40.436 Y-30.608 E10.11437
G1 X41.064 Y-29.907 E10.16133
G1 X41.528 Y-29.288 E10.19992
G1 X42.022 Y-28.493 E10.24662
G1 X42.352 Y-27.846 E10.28285
G1 X42.702 Y-26.99 E10.32899
G1 X42.938 Y-26.225 E10.36893
G1 X43.133 Y-25.307 E10.41575
G1 X43.226 Y-24.564 E10.45311
G1 X43.262 Y-23.727 E10.49491
G1 X43.262 Y-21.154 E10.62328
G1 X43.202 Y-20.084 E10.67674
G1 X43.039 Y-19.08 E10.72749
G1 X42.834 Y-18.318 E10.76686
G1 X42.553 Y-17.58 E10.80625
G1 X42.198 Y-16.874 E10.84568
G1 X41.774 Y-16.208 E10.88507
G1 X41.285 Y-15.588 E10.92446
G1 X40.736 Y-15.021 E10.96384
G1 X40.132 Y-14.512 E11.00324
G1 X39.48 Y-14.066 E11.04265
G1 X38.786 Y-13.689 E11.08206
G1 X38.057 Y-13.385 E11.12146
G1 X37.302 Y-13.155 E11.16084
G1 X36.527 Y-13.003 E11.20024
G1 X35.414 Y-12.923 E11.25591
G1 X-18.218 Y-12.923 E13.93162
G0 F3600 X-18.23 Y-13.323
G1 F1800 X-19.058 Y-13.297 E13.97295
G1 X-20.111 Y-13.107 E14.02634
G1 X-20.608 Y-12.968 E14.05208
G1 X-21.447 Y-12.647 E14.0969
G1 X-21.866 Y-12.443 E14.12015
G1 X-22.639 Y-11.974 E14.16526
G1 X-23.361 Y-11.408 E14.21103
G1 X-23.778 Y-11.017 E14.23955
G1 X-36.944 Y2.148 E15.16844
G1 X-37.515 Y2.663 E15.20681
G1 X-38.137 Y3.115 E15.24517
G1 X-38.802 Y3.501 E15.28353
G1 X-39.504 Y3.816 E15.32191
G1 X-40.236 Y4.056 E15.36035
G1 X-40.307 Y4.472 E15.3814
G1 X-40.514 Y5.212 E15.41974
G1 X-40.796 Y5.928 E15.45813
G1 X-41.151 Y6.61 E15.49649
G1 X-41.683 Y7.421 E15.54488
G1 X-42.316 Y8.203 E15.59507
G1 X-42.859 Y8.747 E15.63342
G1 X-43.456 Y9.232 E15.67179
G1 X-44.1 Y9.652 E15.71015
G1 X-44.293 Y9.751 E15.72097
G1 X-44.453 Y9.953 E15.73383
G1 X-44.992 Y10.502 E15.77221
G1 X-45.543 Y10.957 E15.80786
G1 X-46.1 Y11.52 E15.84737
G1 X-46.39 Y11.757 E15.86606
G1 X-46.685 Y12.216 E15.89328
G1 X-47.081 Y12.875 E15.93164
G1 X-47.544 Y13.489 E15.97
G1 X-48.068 Y14.052 E16.00837
G1 X-48.648 Y14.557 E16.04674
G1 X-49.277 Y15 E16.08513
G1 X-49.86 Y15.313 E16.11814
G1 X-50.196 Y15.628 E16.14112
G1 X-50.638 Y15.963 E16.16879
G1 X-50.701 Y16.215 E16.18174
G1 X-50.965 Y16.938 E16.22014
G1 X-51.302 Y17.629 E16.2585
G1 X-51.709 Y18.282 E16.29689
G1 X-52.182 Y18.889 E16.33528
G1 X-52.715 Y19.443 E16.37363
G1 X-53.421 Y20.028 E16.41938
G1 X-54.373 Y20.721 E16.47812
G1 X-55.017 Y21.14 E16.51646
G1 X-55.702 Y21.491 E16.55486
G1 X-56.419 Y21.769 E16.59322
G1 X-57.162 Y21.97 E16.63162
G1 X-57.921 Y22.094 E16.66999
G1 X-58.728 Y22.138 E16.71031
G1 X-59.906 Y22.138 E16.76908
G1 X-60.674 Y22.098 E16.80745
G1 X-61.434 Y21.979 E16.84583
G1 X-62.177 Y21.781 E16.88419
G1 X-62.896 Y21.507 E16.92258
G1 X-63.582 Y21.16 E16.96093
G1 X-64.262 Y20.72 E17.00134
G1 X-65.215 Y20.026 E17.06016
G1 X-65.813 Y19.541 E17.09857
G1 X-66.356 Y18.998 E17.13688
G1 X-66.841 Y18.4 E17.17529
G1 X-67.261 Y17.756 E17.21365
G1 X-67.611 Y17.071 E17.25203
G1 X-67.896 Y16.333 E17.2915
G1 X-68.26 Y15.214 E17.35021
G1 X-68.46 Y14.471 E17.38859
G1 X-68.581 Y13.712 E17.42694
G1 X-68.623 Y12.944 E17.46531
G1 X-68.585 Y12.176 E17.50367
G1 X-68.467 Y11.415 E17.54209
G1 X-68.261 Y10.638 E17.5822
G1 X-67.898 Y9.521 E17.64079
G1 X-67.622 Y8.803 E17.67917
G1 X-67.274 Y8.117 E17.71755
G1 X-66.856 Y7.471 E17.75594
G1 X-66.278 Y6.768 E17.80134
G1 X-65.323 Y5.741 E17.87131
G1 X-65.162 Y5.423 E17.88909
G1 X-64.745 Y4.776 E17.92749
G1 X-64.264 Y4.176 E17.96586
G1 X-63.722 Y3.63 E18.00424
G1 X-62.986 Y3.041 E18.05127
G1 X-61.059 Y1.692 E18.16862
G1 X-60.407 Y1.284 E18.207
G1 X-60.263 Y1.213 E18.21501
G1 X-60.122 Y1.022 E18.22685
G1 X-59.604 Y0.453 E18.26524
G1 X-59.03 Y-0.059 E18.30361
G1 X-58.151 Y-.666 E18.35691
G1 X-57.841 Y-.848 E18.37484
G1 X-57.443 Y-1.368 E18.40751
G1 X-56.947 Y-1.895 E18.44362
G1 X-56.648 Y-2.511 E18.47778
G1 X-56.151 Y-3.293 E18.52401
G1 X-55.804 Y-3.77 E18.55343
G1 X-55.32 Y-4.368 E18.59182
G1 X-54.776 Y-4.912 E18.6302
G1 X-54.179 Y-5.397 E18.66857
G1 X-53.535 Y-5.817 E18.70693
G1 X-52.851 Y-6.168 E18.74529
G1 X-52.133 Y-6.446 E18.7837
G1 X-51.464 Y-6.628 E18.81829
G1 X-51.388 Y-6.998 E18.83713
G1 X-51.156 Y-7.731 E18.87549
G1 X-50.849 Y-8.436 E18.91385
G1 X-50.47 Y-9.106 E18.95226
G1 X-50.024 Y-9.733 E18.99064
G1 X-49.574 Y-10.249 E19.0248
G1 X-34.149 Y-26.374 E20.13809
G1 X-33.328 Y-27.18 E20.19549
G1 X-32.266 Y-28.103 E20.26568
G1 X-31.167 Y-28.939 E20.33457
G1 X-30.01 Y-29.715 E20.40408
G1 X-28.803 Y-30.418 E20.47377
G1 X-27.558 Y-31.043 E20.54327
G1 X-26.288 Y-31.587 E20.61219
G1 X-24.96 Y-32.061 E20.68254
G1 X-23.626 Y-32.44 E20.75173
G1 X-22.271 Y-32.74 E20.82097
G1 X-20.906 Y-32.952 E20.88988
G1 X-19.513 Y-33.084 E20.95969
G1 X-18.127 Y-33.123 E21.02887
G1 X33.467 Y-33.123 E23.6029
G1 X34.327 Y-33.083 E23.64586
G1 X35.251 Y-32.951 E23.69242
G1 X36.064 Y-32.75 E23.7342
G1 X36.795 Y-32.513 E23.77254
G1 X37.474 Y-32.224 E23.80936
G1 X38.276 Y-31.796 E23.85471
G1 X38.894 Y-31.394 E23.89149
G1 X39.614 Y-30.829 E23.93715
G1 X40.156 Y-30.321 E23.97421
G1 X40.765 Y-29.64 E24.01979
G1 X41.202 Y-29.055 E24.05622
G1 X41.681 Y-28.282 E24.10159
G1 X42.041 Y-27.551 E24.14225
G1 X42.331 Y-26.838 E24.18065
G1 X42.552 Y-26.119 E24.21817
G1 X42.742 Y-25.224 E24.26382
G1 X42.827 Y-24.521 E24.29915
G1 X42.862 Y-23.727 E24.3388
G1 X42.862 Y-21.154 E24.46717
G1 X42.805 Y-20.126 E24.51853
G1 X42.644 Y-19.145 E24.56813
G1 X42.441 Y-18.403 E24.60651
G1 X42.162 Y-17.686 E24.64489
G1 X41.81 Y-17.002 E24.68327
G1 X41.39 Y-16.358 E24.72163
G1 X40.904 Y-15.762 E24.76
G1 X40.36 Y-15.218 E24.79838
G1 X39.762 Y-14.735 E24.83673
G1 X39.117 Y-14.316 E24.8751
G1 X38.432 Y-13.966 E24.91348
G1 X37.714 Y-13.689 E24.95187
G1 X36.971 Y-13.489 E24.99026
G1 X36.212 Y-13.366 E25.02862
G1 X35.414 Y-13.323 E25.06849
G1 X-18.23 Y-13.323 E27.7448
G0 F3600 X-18.211 Y-13.723
G1 F1800 X-18.804 Y-13.705 E27.7744
G1 X-19.97 Y-13.563 E27.833
G1 X-20.929 Y-13.294 E27.8827
G1 X-21.83 Y-12.922 E27.93133
G1 X-22.469 Y-12.561 E27.96794
G1 X-23.414 Y-11.907 E28.02528
G1 X-24.052 Y-11.308 E28.06894
G1 X-37.226 Y1.865 E28.9984
G1 X-37.783 Y2.365 E29.03574
G1 X-38.39 Y2.803 E29.07309
G1 X-39.039 Y3.173 E29.11036
G1 X-39.725 Y3.472 E29.14769
G1 X-40.577 Y3.739 E29.19224
G1 X-40.745 Y4.584 E29.23522
G1 X-40.968 Y5.298 E29.27254
G1 X-41.266 Y5.984 E29.30985
G1 X-41.636 Y6.634 E29.34717
G1 X-42.156 Y7.37 E29.39213
G1 X-42.627 Y7.95 E29.4294
G1 X-43.158 Y8.477 E29.46673
G1 X-43.742 Y8.945 E29.50406
G1 X-44.373 Y9.347 E29.54139
G1 X-44.555 Y9.438 E29.55154
G1 X-44.808 Y9.749 E29.57154
G1 X-45.339 Y10.276 E29.60887
G1 X-45.824 Y10.664 E29.63985
G1 X-45.91 Y10.769 E29.64662
G1 X-46.445 Y11.292 E29.68395
G1 X-46.697 Y11.494 E29.70006
G1 X-47.057 Y12.064 E29.7337
G1 X-47.447 Y12.702 E29.771
G1 X-47.904 Y13.295 E29.80836
G1 X-48.421 Y13.835 E29.84565
G1 X-48.992 Y14.318 E29.88296
G1 X-49.612 Y14.737 E29.9203
G1 X-50.109 Y14.997 E29.94828
G1 X-50.47 Y15.335 E29.97295
G1 X-50.992 Y15.727 E30.00552
G1 X-51.09 Y16.118 E30.02563
G1 X-51.349 Y16.819 E30.06292
G1 X-51.682 Y17.489 E30.10024
G1 X-52.084 Y18.12 E30.13757
G1 X-52.552 Y18.704 E30.17491
G1 X-53.079 Y19.235 E30.21223
G1 X-53.656 Y19.704 E30.24933
G1 X-54.608 Y20.397 E30.30807
G1 X-55.236 Y20.805 E30.34544
G1 X-55.903 Y21.143 E30.38274
G1 X-56.603 Y21.408 E30.42008
G1 X-57.327 Y21.596 E30.4574
G1 X-58.066 Y21.707 E30.49469
G1 X-58.728 Y21.738 E30.52775
G1 X-59.906 Y21.738 E30.58652
G1 X-60.653 Y21.698 E30.62384
G1 X-61.391 Y21.579 E30.66114
G1 X-62.113 Y21.381 E30.69849
G1 X-62.809 Y21.108 E30.73579
G1 X-63.472 Y20.761 E30.77312
G1 X-64.027 Y20.397 E30.80623
G1 X-64.98 Y19.703 E30.86505
G1 X-65.56 Y19.231 E30.90236
G1 X-66.087 Y18.699 E30.93972
G1 X-66.554 Y18.115 E30.97702
G1 X-66.956 Y17.484 E31.01435
G1 X-67.288 Y16.814 E31.05165
G1 X-67.516 Y16.209 E31.08391
G1 X-67.88 Y15.09 E31.14262
G1 X-68.073 Y14.368 E31.1799
G1 X-68.188 Y13.628 E31.21726
G1 X-68.223 Y12.881 E31.25457
G1 X-68.178 Y12.134 E31.29191
G1 X-68.054 Y11.397 E31.32919
G1 X-67.88 Y10.762 E31.36204
G1 X-67.517 Y9.645 E31.42064
G1 X-67.248 Y8.946 E31.458
G1 X-66.907 Y8.281 E31.49529
G1 X-66.496 Y7.656 E31.53261
G1 X-65.985 Y7.04 E31.57254
G1 X-64.992 Y5.972 E31.64529
G1 X-64.794 Y5.586 E31.66694
G1 X-64.384 Y4.96 E31.70427
G1 X-63.91 Y4.382 E31.74156
G1 X-63.377 Y3.857 E31.77889
G1 X-62.756 Y3.369 E31.81829
G1 X-60.829 Y2.02 E31.93565
G1 X-60.195 Y1.624 E31.97294
G1 X-59.998 Y1.529 E31.98385
G1 X-59.8 Y1.26 E32.00052
G1 X-59.294 Y0.709 E32.03784
G1 X-58.732 Y0.215 E32.07517
G1 X-57.948 Y-.321 E32.12255
G1 X-57.584 Y-.536 E32.14364
G1 X-57.072 Y-1.187 E32.18496
G1 X-56.607 Y-1.668 E32.21834
G1 X-56.558 Y-1.795 E32.22513
G1 X-56.217 Y-2.461 E32.26246
G1 X-55.828 Y-3.058 E32.29801
G1 X-55.481 Y-3.535 E32.32744
G1 X-55.009 Y-4.115 E32.36474
G1 X-54.478 Y-4.642 E32.40207
G1 X-53.894 Y-5.11 E32.4394
G1 X-53.263 Y-5.512 E32.47673
G1 X-52.593 Y-5.844 E32.51404
G1 X-51.891 Y-6.104 E32.55138
G1 X-51.135 Y-6.29 E32.59023
G1 X-50.946 Y-7.095 E32.63148
G1 X-50.699 Y-7.801 E32.6688
G1 X-50.377 Y-8.476 E32.70611
G1 X-49.985 Y-9.114 E32.74346
G1 X-49.285 Y-9.973 E32.79875
G1 X-34.023 Y-25.932 E33.90043
G1 X-33.059 Y-26.884 E33.96802
G1 X-32.021 Y-27.786 E34.03663
G1 X-30.928 Y-28.618 E34.10516
G1 X-29.797 Y-29.377 E34.17311
G1 X-28.614 Y-30.066 E34.24141
G1 X-27.392 Y-30.679 E34.30962
G1 X-26.132 Y-31.218 E34.37799
G1 X-24.853 Y-31.675 E34.44575
G1 X-23.531 Y-32.051 E34.51432
G1 X-22.199 Y-32.346 E34.58239
G1 X-20.841 Y-32.557 E34.65095
G1 X-19.488 Y-32.684 E34.71875
G1 X-18.345 Y-32.72 E34.7758
G1 X33.467 Y-32.723 E37.36071
G1 X34.295 Y-32.685 E37.40207
G1 X35.194 Y-32.554 E37.44739
G1 X35.96 Y-32.364 E37.48676
G1 X36.671 Y-32.132 E37.52408
G1 X37.428 Y-31.796 E37.5654
G1 X38.088 Y-31.443 E37.60274
G1 X38.779 Y-30.976 E37.64435
G1 X39.367 Y-30.514 E37.68165
G1 X39.969 Y-29.932 E37.72343
G1 X40.466 Y-29.373 E37.76075
G1 X40.948 Y-28.708 E37.80172
G1 X41.341 Y-28.071 E37.83906
G1 X41.679 Y-27.381 E37.8774
G1 X41.96 Y-26.688 E37.9147
G1 X42.167 Y-26.01 E37.95007
G1 X42.35 Y-25.141 E37.99438
G1 X42.436 Y-24.335 E38.03482
G1 X42.462 Y-23.727 E38.06518
G1 X42.462 Y-21.154 E38.19354
G1 X42.407 Y-20.167 E38.24286
G1 X42.249 Y-19.21 E38.29125
G1 X42.048 Y-18.49 E38.32855
G1 X41.772 Y-17.794 E38.3659
G1 X41.423 Y-17.133 E38.40319
G1 X41.006 Y-16.512 E38.44051
G1 X40.524 Y-15.939 E38.47787
G1 X39.985 Y-15.421 E38.51516
G1 X39.393 Y-14.964 E38.55248
G1 X38.755 Y-14.572 E38.58983
G1 X38.08 Y-14.251 E38.62712
G1 X37.374 Y-14.003 E38.66446
G1 X36.646 Y-13.832 E38.70177
G1 X35.766 Y-13.723 E38.746
G1 X-18.211 Y-13.723 E41.43893
G0 F3600 X-18.223 Y-14.123
G1 F1800 X-18.836 Y-14.104 E41.46952
G1 X-19.344 Y-14.057 E41.49498
G1 X-20.097 Y-13.943 E41.53297
G1 X-21.054 Y-13.674 E41.58257
G1 X-22.001 Y-13.285 E41.63364
G1 X-22.889 Y-12.783 E41.68454
G1 X-23.503 Y-12.331 E41.72257
G1 X-23.9 Y-12 E41.74836
G1 X-24.326 Y-11.6 E41.77752
G1 X-37.509 Y1.582 E42.70761
G1 X-38.05 Y2.067 E42.74386
G1 X-38.641 Y2.489 E42.78009
G1 X-39.275 Y2.843 E42.81632
G1 X-39.944 Y3.126 E42.85256
G1 X-40.64 Y3.334 E42.8888
G1 X-40.956 Y3.391 E42.90482
G1 X-41.025 Y3.98 E42.93441
G1 X-41.188 Y4.688 E42.97065
G1 X-41.428 Y5.374 E43.00691
G1 X-41.741 Y6.029 E43.04313
G1 X-42.312 Y6.929 E43.0963
G1 X-42.938 Y7.698 E43.14577
G1 X-43.456 Y8.207 E43.18201
G1 X-44.026 Y8.656 E43.21821
G1 X-44.643 Y9.04 E43.25446
G1 X-44.81 Y9.12 E43.2637
G1 X-45.161 Y9.543 E43.29112
G1 X-45.684 Y10.047 E43.32736
G1 X-46.101 Y10.369 E43.35364
G1 X-46.262 Y10.56 E43.36611
G1 X-46.789 Y11.06 E43.40235
G1 X-47 Y11.227 E43.41578
G1 X-47.316 Y11.674 E43.44309
G1 X-47.429 Y11.91 E43.45614
G1 X-47.813 Y12.527 E43.4924
G1 X-48.262 Y13.098 E43.52864
G1 X-48.772 Y13.615 E43.56487
G1 X-49.335 Y14.074 E43.60111
G1 X-49.945 Y14.468 E43.63734
G1 X-50.346 Y14.672 E43.65978
G1 X-50.744 Y15.043 E43.68693
G1 X-51.343 Y15.487 E43.72413
G1 X-51.478 Y16.019 E43.75151
G1 X-51.733 Y16.699 E43.78774
G1 X-52.062 Y17.347 E43.824
G1 X-52.459 Y17.955 E43.86023
