;FLAVOR:Marlin
;TIME:1486
;Filament used: 0.781917m
;Layer height: 0.1
;MINX:-20.697
;MINY:-14.073
;MINZ:0.3
;MAXX:20.696
;MAXY:14.073
;MAXZ:15.9
;Generated with Cura_SteamEngine 5.2.1
M140 S60
M105
M190 S60
M104 S200
M105
M109 S200
M82 ;absolute extrusion mode
G28 ;Home
G1 Z15.0 F6000 ;Move the platform down 15mm
;Prime the extruder
G92 E0
G1 F200 E3
G92 E0
M141 S28
G92 E0
G92 E0
G1 F1500 E-6.5
;LAYER_COUNT:157
;LAYER:0
M107
G0 F3600 X2.107 Y-12.586 Z0.3
;TYPE:SKIRT
G1 F1500 E0
G1 F1800 X2.962 Y-13.09 E0.04952
G1 X3.68 Y-13.42 E0.08894
G1 X4.373 Y-13.665 E0.12561
G1 X5.133 Y-13.879 E0.165
G1 X5.911 Y-14.014 E0.2044
G1 X6.852 Y-14.071 E0.25143
G1 X12.512 Y-14.073 E0.53381
G1 X13.301 Y-14.033 E0.57322
G1 X14.082 Y-13.914 E0.61263
G1 X14.846 Y-13.717 E0.652
G1 X15.587 Y-13.443 E0.69141
G1 X16.296 Y-13.095 E0.73082
G1 X17.146 Y-12.56 E0.78092
G1 X17.892 Y-11.974 E0.82825
G1 X18.46 Y-11.425 E0.86766
G1 X18.969 Y-10.822 E0.90703
G1 X19.464 Y-10.102 E0.95062
G1 X19.906 Y-9.303 E0.99618
G1 X20.216 Y-8.576 E1.03561
G1 X20.451 Y-7.822 E1.07501
G1 X20.608 Y-7.049 E1.11436
G1 X20.696 Y-5.881 E1.1728
G1 X20.695 Y5.885 E1.75981
G1 X20.655 Y6.673 E1.79917
G1 X20.535 Y7.454 E1.83859
G1 X20.337 Y8.218 E1.87797
G1 X20.063 Y8.959 E1.91738
G1 X19.501 Y10.048 E1.97852
G1 X18.971 Y10.822 E2.02532
G1 X18.461 Y11.425 E2.06472
G1 X17.893 Y11.974 E2.10413
G1 X17.132 Y12.572 E2.15242
G1 X16.332 Y13.075 E2.19957
G1 X15.624 Y13.426 E2.23899
G1 X14.885 Y13.704 E2.27838
G1 X14.122 Y13.906 E2.31776
G1 X13.342 Y14.029 E2.35715
G1 X12.51 Y14.073 E2.39872
G1 X7.695 Y14.07 E2.63894
G1 X6.494 Y13.996 E2.69897
G1 X5.295 Y13.77 E2.75985
G1 X4.575 Y13.587 E2.79691
G1 X3.693 Y13.315 E2.84296
G1 X2.551 Y12.815 E2.90515
G1 X2.124 Y12.602 E2.92896
G1 X1.699 Y12.815 E2.95268
G1 X0.881 Y13.173 E2.99722
G1 X0.013 Y13.501 E3.04352
G1 X-1.045 Y13.77 E3.09798
G1 X-2.25 Y13.997 E3.15916
G1 X-3.457 Y14.071 E3.21949
G1 X-12.513 Y14.073 E3.67129
G1 X-13.302 Y14.033 E3.71071
G1 X-14.083 Y13.914 E3.75012
G1 X-14.847 Y13.716 E3.7895
G1 X-15.588 Y13.442 E3.82891
G1 X-16.297 Y13.095 E3.86829
G1 X-17.147 Y12.56 E3.9184
G1 X-17.892 Y11.974 E3.96569
G1 X-18.46 Y11.425 E4.0051
G1 X-18.969 Y10.822 E4.04447
G1 X-19.464 Y10.102 E4.08806
G1 X-19.906 Y9.303 E4.13361
G1 X-20.216 Y8.576 E4.17304
G1 X-20.451 Y7.822 E4.21245
G1 X-20.608 Y7.049 E4.2518
G1 X-20.696 Y5.884 E4.31009
G1 X-20.697 Y0.733 E4.56707
G1 X-20.657 Y-0.056 E4.60648
G1 X-20.538 Y-.837 E4.6459
G1 X-20.251 Y-1.896 E4.70064
G1 X-19.901 Y-2.782 E4.74816
G1 X-19.537 Y-3.484 E4.78762
G1 X-19.105 Y-4.145 E4.82701
G1 X-18.608 Y-4.758 E4.86638
G1 X-18.19 Y-5.192 E4.89644
G1 X-17.604 Y-5.722 E4.93586
G1 X-16.968 Y-6.189 E4.97523
G1 X-16.288 Y-6.59 E5.01461
G1 X-15.57 Y-6.92 E5.05404
G1 X-14.877 Y-7.165 E5.09071
G1 X-14.117 Y-7.379 E5.1301
G1 X-13.339 Y-7.514 E5.16949
G1 X-13.019 Y-7.533 E5.18549
G1 X-12.841 Y-8.221 E5.22094
G1 X-12.568 Y-8.962 E5.26034
G1 X-12.22 Y-9.671 E5.29974
G1 X-11.685 Y-10.521 E5.34985
G1 X-11.099 Y-11.267 E5.39718
G1 X-10.55 Y-11.835 E5.43659
G1 X-9.947 Y-12.344 E5.47596
G1 X-9.227 Y-12.839 E5.51955
G1 X-8.428 Y-13.281 E5.5651
G1 X-7.701 Y-13.591 E5.60453
G1 X-6.947 Y-13.826 E5.64394
G1 X-6.174 Y-13.983 E5.68329
G1 X-5.01 Y-14.071 E5.74153
G1 X-2.609 Y-14.072 E5.86131
G1 X-1.821 Y-14.032 E5.90068
G1 X-1.04 Y-13.913 E5.94009
G1 X0.02 Y-13.626 E5.99488
G1 X0.907 Y-13.276 E6.04245
G1 X1.609 Y-12.912 E6.0819
G1 X2.107 Y-12.586 E6.1116
G0 F3600 X2.536 Y-12.377
G1 F1800 X3.201 Y-12.763 E6.14996
G1 X4.331 Y-13.239 E6.21113
G1 X5.241 Y-13.493 E6.25827
G1 X5.999 Y-13.621 E6.29662
G1 X6.852 Y-13.671 E6.33925
G1 X12.512 Y-13.673 E6.62163
G1 X13.281 Y-13.633 E6.66005
G1 X14.04 Y-13.514 E6.69837
G1 X14.784 Y-13.317 E6.73677
G1 X15.503 Y-13.043 E6.77516
G1 X16.189 Y-12.696 E6.81351
G1 X16.925 Y-12.227 E6.85705
G1 X17.644 Y-11.659 E6.90277
G1 X18.195 Y-11.123 E6.94112
G1 X18.687 Y-10.532 E6.97948
G1 X19.129 Y-9.883 E7.01866
G1 X19.555 Y-9.109 E7.06274
G1 X19.854 Y-8.401 E7.10108
G1 X20.078 Y-7.665 E7.13946
G1 X20.224 Y-6.91 E7.17783
G1 X20.296 Y-5.881 E7.22929
G1 X20.295 Y5.885 E7.8163
G1 X20.255 Y6.653 E7.85466
G1 X20.135 Y7.413 E7.89305
G1 X19.938 Y8.156 E7.9314
G1 X19.664 Y8.875 E7.96979
G1 X19.155 Y9.846 E8.02448
G1 X18.64 Y10.596 E8.06987
G1 X18.142 Y11.181 E8.1082
G1 X17.585 Y11.712 E8.14659
G1 X16.895 Y12.249 E8.19022
G1 X16.119 Y12.736 E8.23592
G1 X15.428 Y13.075 E8.27432
G1 X14.706 Y13.341 E8.31271
G1 X13.961 Y13.53 E8.35106
G1 X13.2 Y13.641 E8.38942
G1 X12.51 Y13.673 E8.42388
G1 X7.695 Y13.67 E8.66411
G1 X6.544 Y13.599 E8.72164
G1 X5.393 Y13.382 E8.78007
G1 X4.673 Y13.199 E8.81714
G1 X3.825 Y12.936 E8.86143
G1 X2.711 Y12.448 E8.92211
G1 X2.125 Y12.155 E8.9548
G1 X1.539 Y12.448 E8.98748
G1 X0.721 Y12.806 E9.03203
G1 X-.106 Y13.118 E9.07613
G1 X-1.143 Y13.382 E9.12951
G1 X-2.299 Y13.599 E9.18819
G1 X-3.457 Y13.671 E9.24608
G1 X-12.513 Y13.673 E9.69788
G1 X-13.281 Y13.633 E9.73625
G1 X-14.041 Y13.514 E9.77463
G1 X-14.785 Y13.316 E9.81304
G1 X-15.504 Y13.043 E9.85141
G1 X-16.19 Y12.696 E9.88976
G1 X-16.926 Y12.226 E9.93333
G1 X-17.644 Y11.659 E9.97898
G1 X-18.195 Y11.123 E10.01733
G1 X-18.687 Y10.532 E10.05569
G1 X-19.129 Y9.883 E10.09487
G1 X-19.555 Y9.109 E10.13894
G1 X-19.854 Y8.401 E10.17729
G1 X-20.078 Y7.665 E10.21567
G1 X-20.224 Y6.91 E10.25403
G1 X-20.296 Y5.883 E10.3054
G1 X-20.297 Y0.732 E10.56238
G1 X-20.257 Y-0.036 E10.60075
G1 X-20.138 Y-.796 E10.63913
G1 X-19.87 Y-1.774 E10.68972
G1 X-19.528 Y-2.635 E10.73594
G1 X-19.172 Y-3.316 E10.77428
G1 X-18.746 Y-3.957 E10.81267
G1 X-17.986 Y-4.84 E10.8708
G1 X-17.336 Y-5.424 E10.91439
G1 X-16.714 Y-5.877 E10.95278
G1 X-16.049 Y-6.263 E10.99114
G1 X-14.919 Y-6.739 E11.05232
G1 X-14.009 Y-6.993 E11.09945
G1 X-13.251 Y-7.121 E11.1378
G1 X-12.68 Y-7.154 E11.16634
G1 X-12.639 Y-7.416 E11.17957
G1 X-12.442 Y-8.159 E11.21792
G1 X-12.168 Y-8.878 E11.2563
G1 X-11.821 Y-9.564 E11.29466
G1 X-11.352 Y-10.3 E11.3382
G1 X-10.784 Y-11.019 E11.38391
G1 X-10.248 Y-11.57 E11.42226
G1 X-9.657 Y-12.062 E11.46063
G1 X-9.008 Y-12.504 E11.4998
G1 X-8.234 Y-12.93 E11.54388
G1 X-7.526 Y-13.229 E11.58222
G1 X-6.79 Y-13.453 E11.62061
G1 X-6.035 Y-13.599 E11.65897
G1 X-5.01 Y-13.671 E11.71023
G1 X-2.609 Y-13.672 E11.83002
G1 X-1.841 Y-13.632 E11.86839
G1 X-1.081 Y-13.513 E11.90677
G1 X-.102 Y-13.245 E11.95741
G1 X0.76 Y-12.903 E12.00367
G1 X1.441 Y-12.547 E12.04201
G1 X2.135 Y-12.086 E12.08358
G1 X2.536 Y-12.377 E12.1083
G0 F3600 X2.788 Y-12.064
G1 F1800 X3.438 Y-12.435 E12.14563
G1 X4.465 Y-12.862 E12.20112
G1 X5.348 Y-13.107 E12.24684
G1 X6.086 Y-13.229 E12.28416
G1 X6.853 Y-13.271 E12.32248
G1 X12.513 Y-13.273 E12.60486
G1 X13.26 Y-13.233 E12.64218
G1 X13.998 Y-13.114 E12.67948
G1 X14.72 Y-12.917 E12.71682
G1 X15.416 Y-12.644 E12.75411
G1 X16.079 Y-12.298 E12.79143
G1 X16.706 Y-11.891 E12.82872
G1 X17.395 Y-11.345 E12.87258
G1 X17.929 Y-10.821 E12.9099
G1 X18.403 Y-10.243 E12.9472
G1 X18.793 Y-9.665 E12.98198
G1 X19.204 Y-8.916 E13.02461
G1 X19.492 Y-8.226 E13.06191
G1 X19.704 Y-7.509 E13.09921
G1 X19.839 Y-6.773 E13.13654
G1 X19.896 Y-5.881 E13.18114
G1 X19.895 Y5.885 E13.76814
G1 X19.855 Y6.632 E13.80547
G1 X19.735 Y7.37 E13.84277
G1 X19.538 Y8.092 E13.88011
G1 X19.264 Y8.788 E13.91742
G1 X18.81 Y9.643 E13.96572
G1 X18.31 Y10.369 E14.0097
G1 X17.823 Y10.936 E14.04699
G1 X17.277 Y11.449 E14.08437
G1 X16.657 Y11.927 E14.12342
G1 X15.906 Y12.397 E14.16762
G1 X15.233 Y12.724 E14.20495
G1 X14.529 Y12.977 E14.24228
G1 X13.802 Y13.154 E14.27961
G1 X13.061 Y13.252 E14.3169
G1 X12.511 Y13.273 E14.34436
G1 X7.696 Y13.27 E14.58458
G1 X6.592 Y13.202 E14.63976
G1 X5.492 Y12.994 E14.69561
G1 X4.772 Y12.811 E14.73267
G1 X3.959 Y12.558 E14.77515
G1 X2.871 Y12.082 E14.8344
G1 X2.127 Y11.708 E14.87595
G1 X1.379 Y12.082 E14.91767
G1 X0.561 Y12.44 E14.96222
G1 X-.23 Y12.737 E15.00437
G1 X-1.242 Y12.994 E15.05646
G1 X-2.347 Y13.202 E15.11256
G1 X-3.457 Y13.271 E15.16804
G1 X-12.513 Y13.273 E15.61985
G1 X-13.26 Y13.233 E15.65717
G1 X-13.999 Y13.114 E15.69451
G1 X-14.72 Y12.916 E15.73182
G1 X-15.417 Y12.643 E15.76916
G1 X-16.08 Y12.297 E15.80647
G1 X-16.706 Y11.892 E15.84367
G1 X-17.395 Y11.345 E15.88756
G1 X-17.929 Y10.821 E15.92489
G1 X-18.403 Y10.243 E15.96218
G1 X-18.793 Y9.665 E15.99697
G1 X-19.204 Y8.916 E16.03959
G1 X-19.492 Y8.226 E16.07689
G1 X-19.704 Y7.509 E16.11419
G1 X-19.839 Y6.773 E16.15153
G1 X-19.896 Y5.883 E16.19602
G1 X-19.897 Y0.732 E16.453
G1 X-19.857 Y-0.015 E16.49033
G1 X-19.738 Y-.753 E16.52762
G1 X-19.489 Y-1.651 E16.57411
G1 X-19.156 Y-2.487 E16.61901
G1 X-18.807 Y-3.148 E16.6563
G1 X-18.388 Y-3.768 E16.69363
G1 X-17.701 Y-4.559 E16.7459
G1 X-17.068 Y-5.127 E16.78833
G1 X-16.462 Y-5.564 E16.82561
G1 X-15.812 Y-5.935 E16.86295
G1 X-14.785 Y-6.362 E16.91843
G1 X-13.902 Y-6.607 E16.96415
G1 X-13.164 Y-6.729 E17.00147
G1 X-12.336 Y-6.771 E17.04283
G1 X-12.239 Y-7.373 E17.07325
G1 X-12.042 Y-8.095 E17.11059
G1 X-11.768 Y-8.791 E17.14791
G1 X-11.423 Y-9.454 E17.1852
G1 X-11.016 Y-10.081 E17.22249
G1 X-10.47 Y-10.77 E17.26635
G1 X-9.946 Y-11.304 E17.30367
G1 X-9.368 Y-11.778 E17.34097
G1 X-8.79 Y-12.168 E17.37575
G1 X-8.041 Y-12.579 E17.41838
G1 X-7.351 Y-12.867 E17.45568
G1 X-6.634 Y-13.079 E17.49298
G1 X-5.898 Y-13.214 E17.53032
G1 X-5.01 Y-13.271 E17.57471
G1 X-2.609 Y-13.272 E17.6945
G1 X-1.862 Y-13.232 E17.73182
G1 X-1.123 Y-13.113 E17.76916
G1 X-.225 Y-12.864 E17.81565
G1 X0.612 Y-12.531 E17.86059
G1 X1.273 Y-12.182 E17.89789
G1 X1.893 Y-11.763 E17.93522
G1 X2.11 Y-11.575 E17.94954
G1 X2.788 Y-12.064 E17.99125
G0 F3600 X3.04 Y-11.751
G1 F1800 X3.674 Y-12.105 E18.02748
G1 X4.598 Y-12.485 E18.07732
G1 X5.455 Y-12.721 E18.12167
G1 X6.172 Y-12.836 E18.1579
G1 X6.853 Y-12.871 E18.19192
G1 X12.513 Y-12.873 E18.47429
G1 X13.238 Y-12.833 E18.51052
G1 X13.954 Y-12.714 E18.54673
G1 X14.654 Y-12.517 E18.58301
G1 X15.327 Y-12.244 E18.61924
G1 X15.966 Y-11.899 E18.65547
G1 X16.578 Y-11.483 E18.69239
G1 X17.146 Y-11.031 E18.72861
G1 X17.662 Y-10.52 E18.76484
G1 X18.118 Y-9.955 E18.80106
G1 X18.504 Y-9.361 E18.8364
G1 X18.853 Y-8.724 E18.87264
G1 X19.129 Y-8.052 E18.90889
G1 X19.33 Y-7.354 E18.94512
G1 X19.453 Y-6.638 E18.98137
G1 X19.496 Y-5.881 E19.0192
G1 X19.495 Y5.885 E19.6062
G1 X19.455 Y6.61 E19.64243
G1 X19.335 Y7.326 E19.67865
G1 X19.138 Y8.025 E19.71488
G1 X18.865 Y8.698 E19.75111
G1 X18.464 Y9.441 E19.79324
G1 X17.98 Y10.142 E19.83574
G1 X17.504 Y10.69 E19.87195
G1 X16.971 Y11.183 E19.90817
G1 X16.419 Y11.605 E19.94284
G1 X15.694 Y12.057 E19.98546
G1 X15.039 Y12.371 E20.0217
G1 X14.353 Y12.612 E20.05798
G1 X13.646 Y12.775 E20.09417
G1 X12.812 Y12.873 E20.13607
G1 X7.696 Y12.87 E20.39131
G1 X6.642 Y12.805 E20.44399
G1 X5.59 Y12.607 E20.4974
G1 X4.87 Y12.424 E20.53446
G1 X3.85 Y12.073 E20.58828
G1 X3.032 Y11.715 E20.63282
G1 X2.383 Y11.388 E20.66908
G1 X2.123 Y11.221 E20.6845
G1 X1.789 Y11.432 E20.70421
G1 X1.218 Y11.715 E20.736
G1 X0.4 Y12.073 E20.78055
G1 X-.62 Y12.424 E20.83437
G1 X-1.34 Y12.607 E20.87143
G1 X-2.399 Y12.806 E20.92519
G1 X-3.458 Y12.871 E20.97812
G1 X-12.514 Y12.873 E21.42993
G1 X-13.239 Y12.833 E21.46615
G1 X-13.955 Y12.714 E21.50236
G1 X-14.654 Y12.517 E21.53859
G1 X-15.328 Y12.244 E21.57487
G1 X-15.967 Y11.899 E21.6111
G1 X-16.578 Y11.483 E21.64798
G1 X-17.146 Y11.031 E21.6842
G1 X-17.662 Y10.52 E21.72043
G1 X-18.118 Y9.955 E21.75665
G1 X-18.504 Y9.361 E21.79199
G1 X-18.853 Y8.724 E21.82823
G1 X-19.129 Y8.052 E21.86447
G1 X-19.33 Y7.354 E21.90071
G1 X-19.453 Y6.638 E21.93696
G1 X-19.496 Y5.883 E21.97468
G1 X-19.497 Y0.732 E22.23167
G1 X-19.457 Y0.007 E22.26789
G1 X-19.338 Y-.709 E22.30411
G1 X-19.108 Y-1.529 E22.34659
G1 X-18.784 Y-2.338 E22.39007
G1 X-18.442 Y-2.979 E22.42632
G1 X-18.031 Y-3.577 E22.46252
G1 X-17.414 Y-4.279 E22.50915
G1 X-16.801 Y-4.828 E22.5502
G1 X-16.21 Y-5.251 E22.58646
G1 X-15.576 Y-5.605 E22.62269
G1 X-14.652 Y-5.985 E22.67253
G1 X-13.795 Y-6.221 E22.71688
G1 X-13.078 Y-6.336 E22.75311
G1 X-11.97 Y-6.393 E22.80846
G1 X-11.958 Y-6.613 E22.81945
G1 X-11.839 Y-7.33 E22.85571
G1 X-11.642 Y-8.029 E22.89195
G1 X-11.369 Y-8.702 E22.92818
G1 X-11.024 Y-9.341 E22.96441
G1 X-10.608 Y-9.953 E23.00133
G1 X-10.156 Y-10.521 E23.03754
G1 X-9.645 Y-11.037 E23.07377
G1 X-9.08 Y-11.493 E23.11
G1 X-8.486 Y-11.879 E23.14534
G1 X-7.849 Y-12.228 E23.18158
G1 X-7.177 Y-12.504 E23.21782
G1 X-6.479 Y-12.705 E23.25406
G1 X-5.763 Y-12.828 E23.2903
G1 X-5.01 Y-12.871 E23.32793
G1 X-2.609 Y-12.872 E23.44772
G1 X-1.883 Y-12.832 E23.48399
G1 X-1.167 Y-12.713 E23.5202
G1 X-.346 Y-12.483 E23.56274
G1 X0.463 Y-12.159 E23.60622
G1 X1.104 Y-11.817 E23.64247
G1 X1.702 Y-11.406 E23.67867
G1 X2.123 Y-11.036 E23.70663
G1 X2.449 Y-11.328 E23.72846
G1 X3.04 Y-11.751 E23.76472
G0 F3600 X3.291 Y-11.436
G1 F1800 X3.909 Y-11.774 E23.79987
G1 X4.735 Y-12.109 E23.84433
G1 X5.561 Y-12.334 E23.88705
G1 X6.257 Y-12.442 E23.92218
G1 X6.853 Y-12.471 E23.95195
G1 X12.513 Y-12.473 E24.23433
G1 X13.216 Y-12.433 E24.26946
G1 X13.91 Y-12.314 E24.30459
G1 X14.585 Y-12.117 E24.33967
G1 X15.235 Y-11.845 E24.37483
G1 X16.206 Y-11.268 E24.43118
G1 X16.897 Y-10.718 E24.47524
G1 X17.394 Y-10.22 E24.51034
G1 X17.831 Y-9.668 E24.54546
G1 X18.165 Y-9.15 E24.57621
G1 X18.501 Y-8.532 E24.61131
G1 X18.765 Y-7.88 E24.6464
G1 X18.954 Y-7.201 E24.68157
G1 X19.065 Y-6.506 E24.71668
G1 X19.096 Y-5.881 E24.7479
G1 X19.095 Y5.885 E25.33491
G1 X19.055 Y6.587 E25.36999
G1 X18.936 Y7.281 E25.40512
G1 X18.738 Y7.957 E25.44026
G1 X18.466 Y8.606 E25.47537
G1 X18.117 Y9.241 E25.51152
G1 X17.651 Y9.914 E25.55235
G1 X17.187 Y10.443 E25.58746
G1 X16.666 Y10.916 E25.62257
G1 X16.08 Y11.346 E25.65883
G1 X15.482 Y11.717 E25.69394
G1 X14.846 Y12.018 E25.72904
G1 X14.179 Y12.245 E25.76419
G1 X13.492 Y12.396 E25.79929
G1 X12.511 Y12.473 E25.84838
G1 X7.696 Y12.47 E26.0886
G1 X6.69 Y12.408 E26.13889
G1 X5.689 Y12.219 E26.18971
G1 X4.969 Y12.036 E26.22677
G1 X4.01 Y11.707 E26.27735
G1 X3.192 Y11.349 E26.3219
G1 X2.564 Y11.03 E26.35704
G1 X2.124 Y10.747 E26.38314
G1 X1.575 Y11.093 E26.41552
G1 X1.058 Y11.349 E26.4443
G1 X0.24 Y11.707 E26.48885
G1 X-.719 Y12.036 E26.53943
G1 X-1.439 Y12.219 E26.57649
G1 X-2.447 Y12.408 E26.62766
G1 X-3.458 Y12.471 E26.6782
G1 X-12.514 Y12.473 E27.13
G1 X-13.216 Y12.433 E27.16508
G1 X-13.91 Y12.314 E27.20021
G1 X-14.586 Y12.117 E27.23534
G1 X-15.235 Y11.844 E27.27047
G1 X-16.206 Y11.269 E27.32677
G1 X-16.897 Y10.718 E27.37086
G1 X-17.394 Y10.22 E27.40596
G1 X-17.831 Y9.668 E27.44108
G1 X-18.165 Y9.15 E27.47183
G1 X-18.501 Y8.532 E27.50693
G1 X-18.765 Y7.88 E27.54202
G1 X-18.954 Y7.201 E27.57718
G1 X-19.065 Y6.506 E27.6123
G1 X-19.096 Y5.883 E27.64342
G1 X-19.097 Y0.732 E27.9004
G1 X-19.057 Y0.029 E27.93553
G1 X-18.938 Y-.664 E27.97061
G1 X-18.726 Y-1.408 E28.00921
G1 X-18.412 Y-2.189 E28.0512
G1 X-18.077 Y-2.808 E28.08632
G1 X-17.674 Y-3.385 E28.12143
G1 X-17.128 Y-4 E28.16246
G1 X-16.534 Y-4.53 E28.20218
G1 X-15.959 Y-4.936 E28.23729
G1 X-15.341 Y-5.274 E28.27244
G1 X-14.515 Y-5.609 E28.31691
G1 X-13.689 Y-5.834 E28.35962
G1 X-12.993 Y-5.942 E28.39476
G1 X-12.395 Y-5.971 E28.42463
G1 X-11.593 Y-5.971 E28.46464
G1 X-11.558 Y-6.591 E28.49562
G1 X-11.439 Y-7.285 E28.53075
G1 X-11.242 Y-7.961 E28.56588
G1 X-10.97 Y-8.61 E28.60098
G1 X-10.393 Y-9.581 E28.65733
G1 X-9.843 Y-10.272 E28.7014
G1 X-9.345 Y-10.769 E28.7365
G1 X-8.793 Y-11.206 E28.77162
G1 X-8.275 Y-11.54 E28.80237
G1 X-7.657 Y-11.876 E28.83747
G1 X-7.005 Y-12.14 E28.87256
G1 X-6.326 Y-12.329 E28.90772
G1 X-5.631 Y-12.44 E28.94284
G1 X-5.01 Y-12.471 E28.97386
G1 X-2.609 Y-12.472 E29.09364
G1 X-1.906 Y-12.432 E29.12877
G1 X-1.212 Y-12.313 E29.1639
G1 X-.467 Y-12.102 E29.20253
G1 X0.314 Y-11.787 E29.24455
G1 X0.933 Y-11.452 E29.27966
G1 X1.51 Y-11.049 E29.31477
G1 X2.125 Y-10.495 E29.35607
G1 X2.716 Y-11.03 E29.39584
G1 X3.291 Y-11.436 E29.43096
G0 F3600 X3.541 Y-11.12
G1 F1800 X4.141 Y-11.442 E29.46493
G1 X4.872 Y-11.732 E29.50417
G1 X5.666 Y-11.948 E29.54522
G1 X6.34 Y-12.048 E29.57921
G1 X6.853 Y-12.071 E29.60483
G1 X12.513 Y-12.073 E29.88721
G1 X13.193 Y-12.033 E29.92119
G1 X13.863 Y-11.914 E29.95514
G1 X14.515 Y-11.717 E29.98912
G1 X15.139 Y-11.445 E30.02308
G1 X15.983 Y-10.937 E30.07223
G1 X16.647 Y-10.405 E30.11468
