;FLAVOR:Marlin
;TIME:3295
;Filament used: 6.89036m
;Layer height: 0.4
;MINX:-57.323
;MINY:-38.324
;MINZ:0.3
;MAXX:57.323
;MAXY:38.324
;MAXZ:15.5
;Generated with Cura_SteamEngine 5.2.1
M140 S60
M105
M190 S60
M104 S200
M105
M109 S200
M82 ;absolute extrusion mode
G28 ;Home
G1 Z15.0 F6000 ;Move the platform down 15mm
;Prime the extruder
G92 E0
G1 F200 E3
G92 E0
M141 S28
G92 E0
G92 E0
G1 F1500 E-6.5
;LAYER_COUNT:39
;LAYER:0
M107
G0 F3600 X49.002 Y-38.321 Z0.3
;TYPE:SKIRT
G1 F1500 E0
G1 F1800 X49.791 Y-38.281 E0.03941
G1 X51.049 Y-38.055 E0.10318
G1 X51.938 Y-37.777 E0.14965
G1 X52.663 Y-37.466 E0.18901
G1 X53.354 Y-37.083 E0.22842
G1 X54.002 Y-36.632 E0.26781
G1 X54.636 Y-36.097 E0.3092
G1 X55.284 Y-35.436 E0.35538
G1 X55.777 Y-34.819 E0.39478
G1 X56.205 Y-34.155 E0.43419
G1 X56.564 Y-33.452 E0.47358
G1 X56.986 Y-32.296 E0.53497
G1 X57.2 Y-31.37 E0.58239
G1 X57.299 Y-30.586 E0.62181
G1 X57.321 Y-30 E0.65107
G1 X57.323 Y30.033 E3.64613
G1 X57.283 Y30.821 E3.68549
G1 X57.164 Y31.602 E3.72491
G1 X56.883 Y32.641 E3.7786
G1 X56.541 Y33.507 E3.82506
G1 X56.178 Y34.209 E3.86448
G1 X55.746 Y34.87 E3.90388
G1 X54.929 Y35.83 E3.96677
G1 X54.246 Y36.456 E4.01299
G1 X53.612 Y36.928 E4.05243
G1 X52.934 Y37.333 E4.09183
G1 X52.219 Y37.667 E4.1312
G1 X51.51 Y37.921 E4.16877
G1 X50.749 Y38.133 E4.20818
G1 X49.971 Y38.268 E4.24758
G1 X49.034 Y38.324 E4.29441
G1 X-49.002 Y38.321 E9.18545
G1 X-49.791 Y38.281 E9.22486
G1 X-51.049 Y38.055 E9.28863
G1 X-51.938 Y37.777 E9.3351
G1 X-52.663 Y37.466 E9.37445
G1 X-53.354 Y37.083 E9.41387
G1 X-54.002 Y36.632 E9.45326
G1 X-54.636 Y36.097 E9.49465
G1 X-55.284 Y35.436 E9.54083
G1 X-55.777 Y34.819 E9.58023
G1 X-56.205 Y34.155 E9.61964
G1 X-56.564 Y33.452 E9.65902
G1 X-56.986 Y32.296 E9.72042
G1 X-57.2 Y31.37 E9.76783
G1 X-57.299 Y30.586 E9.80726
G1 X-57.321 Y30 E9.83651
G1 X-57.323 Y-30.033 E12.83157
G1 X-57.283 Y-30.821 E12.87094
G1 X-57.164 Y-31.602 E12.91035
G1 X-56.883 Y-32.641 E12.96405
G1 X-56.541 Y-33.507 E13.0105
G1 X-56.178 Y-34.209 E13.04993
G1 X-55.746 Y-34.87 E13.08933
G1 X-54.929 Y-35.83 E13.15222
G1 X-54.246 Y-36.456 E13.19844
G1 X-53.612 Y-36.928 E13.23787
G1 X-52.934 Y-37.333 E13.27727
G1 X-52.219 Y-37.667 E13.31664
G1 X-51.51 Y-37.921 E13.35422
G1 X-50.749 Y-38.133 E13.39363
G1 X-49.971 Y-38.268 E13.43302
G1 X-49.034 Y-38.324 E13.47986
G1 X49.002 Y-38.321 E18.37089
G0 F3600 X49.002 Y-37.921
G1 F1800 X49.77 Y-37.881 E18.40926
G1 X50.951 Y-37.668 E18.46913
G1 X51.817 Y-37.395 E18.51443
G1 X52.523 Y-37.089 E18.55282
G1 X53.193 Y-36.711 E18.5912
G1 X53.82 Y-36.266 E18.62956
G1 X54.372 Y-35.794 E18.66579
G1 X54.998 Y-35.156 E18.71038
G1 X55.476 Y-34.553 E18.74877
G1 X55.888 Y-33.904 E18.78713
G1 X56.232 Y-33.215 E18.82555
G1 X56.602 Y-32.179 E18.88043
G1 X56.81 Y-31.28 E18.92647
G1 X56.903 Y-30.516 E18.96486
G1 X56.921 Y-30 E18.99062
G1 X56.923 Y30.033 E21.98568
G1 X56.883 Y30.801 E22.02405
G1 X56.764 Y31.561 E22.06243
G1 X56.503 Y32.518 E22.11192
G1 X56.168 Y33.36 E22.15713
G1 X55.812 Y34.041 E22.19546
G1 X55.387 Y34.683 E22.23388
G1 X54.642 Y35.552 E22.29098
G1 X53.976 Y36.161 E22.33601
G1 X53.357 Y36.617 E22.37436
G1 X52.694 Y37.007 E22.41274
G1 X51.994 Y37.326 E22.45112
G1 X51.383 Y37.541 E22.48343
G1 X50.642 Y37.747 E22.5218
G1 X49.883 Y37.875 E22.5602
G1 X49.034 Y37.924 E22.60263
G1 X-49.002 Y37.921 E27.49367
G1 X-49.77 Y37.881 E27.53204
G1 X-50.951 Y37.668 E27.59191
G1 X-51.817 Y37.395 E27.63721
G1 X-52.523 Y37.089 E27.6756
G1 X-53.193 Y36.711 E27.71397
G1 X-53.82 Y36.266 E27.75233
G1 X-54.372 Y35.794 E27.78857
G1 X-54.998 Y35.156 E27.83316
G1 X-55.476 Y34.553 E27.87155
G1 X-55.888 Y33.904 E27.9099
G1 X-56.232 Y33.215 E27.94832
G1 X-56.602 Y32.179 E28.00321
G1 X-56.81 Y31.28 E28.04924
G1 X-56.903 Y30.516 E28.08764
G1 X-56.921 Y30 E28.1134
G1 X-56.923 Y-30.033 E31.10846
G1 X-56.883 Y-30.801 E31.14683
G1 X-56.764 Y-31.561 E31.1852
G1 X-56.503 Y-32.518 E31.23469
G1 X-56.168 Y-33.36 E31.2799
G1 X-55.812 Y-34.041 E31.31824
G1 X-55.387 Y-34.683 E31.35665
G1 X-54.642 Y-35.552 E31.41376
G1 X-53.976 Y-36.161 E31.45878
G1 X-53.357 Y-36.617 E31.49714
G1 X-52.694 Y-37.007 E31.53551
G1 X-51.994 Y-37.326 E31.57389
G1 X-51.383 Y-37.541 E31.60621
G1 X-50.642 Y-37.747 E31.64458
G1 X-49.883 Y-37.875 E31.68298
G1 X-49.034 Y-37.924 E31.72541
G1 X49.002 Y-37.921 E36.61644
G0 F3600 X49.002 Y-37.521
G1 F1800 X49.749 Y-37.481 E36.65376
G1 X50.854 Y-37.28 E36.7098
G1 X51.697 Y-37.013 E36.75391
G1 X52.382 Y-36.712 E36.79124
G1 X53.031 Y-36.34 E36.82856
G1 X53.636 Y-35.901 E36.86586
G1 X54.189 Y-35.411 E36.90272
G1 X54.711 Y-34.876 E36.94001
G1 X55.173 Y-34.287 E36.97736
G1 X55.57 Y-33.653 E37.01468
G1 X55.897 Y-32.98 E37.05201
G1 X56.221 Y-32.062 E37.10057
G1 X56.419 Y-31.19 E37.14519
G1 X56.521 Y-30.329 E37.18844
G1 X56.523 Y30.033 E40.19991
G1 X56.483 Y30.78 E40.23724
G1 X56.364 Y31.518 E40.27453
G1 X56.122 Y32.394 E40.31987
G1 X55.796 Y33.212 E40.3638
G1 X55.447 Y33.873 E40.40109
G1 X55.029 Y34.494 E40.43844
G1 X54.353 Y35.276 E40.49001
G1 X53.706 Y35.864 E40.53363
G1 X53.102 Y36.306 E40.57097
G1 X52.454 Y36.68 E40.6083
G1 X51.401 Y37.122 E40.66527
G1 X50.535 Y37.361 E40.71009
G1 X49.796 Y37.482 E40.74745
G1 X49.034 Y37.524 E40.78553
G1 X-49.002 Y37.521 E45.67656
G1 X-49.749 Y37.481 E45.71388
G1 X-50.854 Y37.28 E45.76992
G1 X-51.697 Y37.013 E45.81403
G1 X-52.382 Y36.712 E45.85136
G1 X-53.031 Y36.34 E45.88868
G1 X-53.636 Y35.901 E45.92597
G1 X-54.189 Y35.411 E45.96284
G1 X-54.711 Y34.876 E46.00013
G1 X-55.173 Y34.287 E46.03747
G1 X-55.57 Y33.653 E46.07479
G1 X-55.897 Y32.98 E46.11212
G1 X-56.221 Y32.062 E46.16069
G1 X-56.419 Y31.19 E46.2053
G1 X-56.521 Y30.329 E46.24856
G1 X-56.523 Y-30.033 E49.26003
G1 X-56.483 Y-30.78 E49.29735
G1 X-56.364 Y-31.518 E49.33465
G1 X-56.122 Y-32.394 E49.37999
G1 X-55.796 Y-33.212 E49.42392
G1 X-55.447 Y-33.873 E49.46121
G1 X-55.029 Y-34.494 E49.49856
G1 X-54.353 Y-35.276 E49.55013
G1 X-53.706 Y-35.864 E49.59375
G1 X-53.102 Y-36.306 E49.63109
G1 X-52.454 Y-36.68 E49.66841
G1 X-51.401 Y-37.122 E49.72539
G1 X-50.535 Y-37.361 E49.77021
G1 X-49.796 Y-37.482 E49.80757
G1 X-49.034 Y-37.524 E49.84564
G1 X49.002 Y-37.521 E54.73668
G0 F3600 X49.002 Y-37.121
G1 F1800 X49.727 Y-37.081 E54.7729
G1 X50.756 Y-36.892 E54.8251
G1 X51.576 Y-36.631 E54.86803
G1 X52.239 Y-36.336 E54.90424
G1 X52.867 Y-35.97 E54.9405
G1 X53.797 Y-35.242 E54.99942
G1 X54.424 Y-34.596 E55.04434
G1 X54.87 Y-34.023 E55.08056
G1 X55.251 Y-33.404 E55.11682
G1 X55.561 Y-32.747 E55.15307
G1 X55.838 Y-31.941 E55.19559
G1 X56.028 Y-31.102 E55.23851
G1 X56.121 Y-30.283 E55.27963
G1 X56.123 Y30.033 E58.28881
G1 X56.083 Y30.758 E58.32503
G1 X55.964 Y31.475 E58.36129
G1 X55.741 Y32.272 E58.40258
G1 X55.424 Y33.063 E58.4451
G1 X55.082 Y33.704 E58.48134
G1 X54.671 Y34.303 E58.51759
G1 X54.065 Y34.998 E58.56359
G1 X53.437 Y35.568 E58.6059
G1 X52.848 Y35.994 E58.64217
G1 X52.216 Y36.352 E58.6784
G1 X51.268 Y36.745 E58.7296
G1 X50.428 Y36.975 E58.77305
G1 X49.711 Y37.089 E58.80927
G1 X49.034 Y37.124 E58.8431
G1 X-49.002 Y37.121 E63.73413
G1 X-49.727 Y37.081 E63.77036
G1 X-50.756 Y36.892 E63.82255
G1 X-51.576 Y36.631 E63.86548
G1 X-52.239 Y36.336 E63.90169
G1 X-52.867 Y35.97 E63.93795
G1 X-53.797 Y35.242 E63.99687
G1 X-54.424 Y34.596 E64.04179
G1 X-54.87 Y34.023 E64.07801
G1 X-55.251 Y33.404 E64.11428
G1 X-55.561 Y32.747 E64.15052
G1 X-55.838 Y31.941 E64.19304
G1 X-56.028 Y31.102 E64.23596
G1 X-56.121 Y30.283 E64.27708
G1 X-56.123 Y-30.033 E67.28626
G1 X-56.083 Y-30.758 E67.32248
G1 X-55.964 Y-31.475 E67.35874
G1 X-55.741 Y-32.272 E67.40003
G1 X-55.424 Y-33.063 E67.44255
G1 X-55.082 Y-33.704 E67.4788
G1 X-54.671 Y-34.303 E67.51504
G1 X-54.065 Y-34.998 E67.56104
G1 X-53.437 Y-35.568 E67.60335
G1 X-52.848 Y-35.994 E67.63962
G1 X-52.216 Y-36.352 E67.67586
G1 X-51.268 Y-36.745 E67.72706
G1 X-50.428 Y-36.975 E67.77051
G1 X-49.711 Y-37.089 E67.80673
G1 X-49.034 Y-37.124 E67.84055
G1 X49.002 Y-37.121 E72.73158
G0 F3600 X49.002 Y-36.721
G1 F1800 X49.705 Y-36.681 E72.76671
G1 X50.658 Y-36.504 E72.81507
G1 X51.454 Y-36.25 E72.85676
G1 X52.095 Y-35.96 E72.89186
G1 X52.7 Y-35.6 E72.92698
G1 X53.53 Y-34.943 E72.97979
G1 X54.137 Y-34.317 E73.02329
G1 X54.566 Y-33.759 E73.05841
G1 X54.929 Y-33.156 E73.09352
G1 X55.222 Y-32.516 E73.12864
G1 X55.456 Y-31.822 E73.16518
G1 X55.638 Y-31.013 E73.20655
G1 X55.721 Y-30 E73.25726
G1 X55.723 Y30.033 E76.25232
G1 X55.683 Y30.736 E76.28745
G1 X55.564 Y31.429 E76.32253
G1 X55.36 Y32.15 E76.35991
G1 X55.052 Y32.914 E76.40101
G1 X54.717 Y33.533 E76.43612
G1 X54.314 Y34.111 E76.47127
G1 X53.775 Y34.722 E76.51192
G1 X53.168 Y35.271 E76.55276
G1 X52.595 Y35.681 E76.58791
G1 X51.98 Y36.023 E76.62301
G1 X51.135 Y36.367 E76.66853
G1 X50.323 Y36.589 E76.71053
G1 X49.627 Y36.696 E76.74566
G1 X49.034 Y36.724 E76.77528
G1 X-49.002 Y36.721 E81.66631
G1 X-49.705 Y36.681 E81.70144
G1 X-50.658 Y36.504 E81.7498
G1 X-51.454 Y36.25 E81.79149
G1 X-52.095 Y35.96 E81.82659
G1 X-52.7 Y35.6 E81.86171
G1 X-53.53 Y34.943 E81.91452
G1 X-54.137 Y34.317 E81.95802
G1 X-54.566 Y33.759 E81.99314
G1 X-54.929 Y33.156 E82.02825
G1 X-55.222 Y32.516 E82.06337
G1 X-55.456 Y31.822 E82.09991
G1 X-55.638 Y31.013 E82.14128
G1 X-55.721 Y30 E82.19199
G1 X-55.723 Y-30.033 E85.18705
G1 X-55.683 Y-30.736 E85.22218
G1 X-55.564 Y-31.429 E85.25726
G1 X-55.36 Y-32.15 E85.29464
G1 X-55.052 Y-32.914 E85.33574
G1 X-54.717 Y-33.533 E85.37085
G1 X-54.314 Y-34.111 E85.406
G1 X-53.775 Y-34.722 E85.44665
G1 X-53.168 Y-35.271 E85.48749
G1 X-52.595 Y-35.681 E85.52264
G1 X-51.98 Y-36.023 E85.55774
G1 X-51.135 Y-36.367 E85.60326
G1 X-50.323 Y-36.589 E85.64526
G1 X-49.627 Y-36.696 E85.68039
G1 X-49.034 Y-36.724 E85.71001
G1 X49.002 Y-36.721 E90.60104
G0 F3600 X49.002 Y-36.321
G1 F1800 X49.682 Y-36.281 E90.63503
G1 X50.563 Y-36.116 E90.67975
G1 X51.331 Y-35.868 E90.72001
G1 X51.95 Y-35.585 E90.75397
G1 X52.532 Y-35.231 E90.78795
G1 X53.265 Y-34.644 E90.8348
G1 X53.849 Y-34.039 E90.87675
G1 X54.261 Y-33.497 E90.91072
G1 X54.607 Y-32.91 E90.94471
G1 X54.881 Y-32.287 E90.97867
G1 X55.099 Y-31.591 E91.01506
G1 X55.247 Y-30.926 E91.04904
G1 X55.321 Y-30 E91.09539
G1 X55.323 Y30.033 E94.09045
G1 X55.283 Y30.713 E94.12443
G1 X55.164 Y31.383 E94.15838
G1 X54.978 Y32.029 E94.19192
G1 X54.68 Y32.764 E94.23149
G1 X54.353 Y33.361 E94.26545
G1 X53.958 Y33.916 E94.29943
G1 X53.483 Y34.447 E94.33498
G1 X52.899 Y34.973 E94.37419
G1 X52.343 Y35.366 E94.40816
G1 X51.745 Y35.692 E94.44214
G1 X50.999 Y35.99 E94.48222
G1 X50.218 Y36.202 E94.52259
G1 X49.544 Y36.302 E94.55659
G1 X49.034 Y36.324 E94.58205
G1 X-49.002 Y36.321 E99.47309
G1 X-49.682 Y36.281 E99.50707
G1 X-50.563 Y36.116 E99.55179
G1 X-51.331 Y35.868 E99.59205
G1 X-51.95 Y35.585 E99.62601
G1 X-52.532 Y35.231 E99.66
G1 X-53.265 Y34.644 E99.70685
G1 X-53.849 Y34.039 E99.7488
G1 X-54.261 Y33.497 E99.78276
G1 X-54.607 Y32.91 E99.81676
G1 X-54.881 Y32.287 E99.85071
G1 X-55.099 Y31.591 E99.8871
G1 X-55.247 Y30.926 E99.92109
G1 X-55.321 Y30 E99.96743
G1 X-55.323 Y-30.033 E102.96249
G1 X-55.283 Y-30.713 E102.99648
G1 X-55.164 Y-31.383 E103.03043
G1 X-54.978 Y-32.029 E103.06397
G1 X-54.68 Y-32.764 E103.10353
G1 X-54.353 Y-33.361 E103.13749
G1 X-53.958 Y-33.916 E103.17148
G1 X-53.483 Y-34.447 E103.20702
G1 X-52.899 Y-34.973 E103.24624
G1 X-52.343 Y-35.366 E103.2802
G1 X-51.745 Y-35.692 E103.31418
G1 X-50.999 Y-35.99 E103.35426
G1 X-50.218 Y-36.202 E103.39464
G1 X-49.544 Y-36.302 E103.42863
G1 X-49.034 Y-36.324 E103.4541
G1 X49.002 Y-36.321 E108.34513
G0 F3600 X49.002 Y-35.921
G1 F1800 X49.658 Y-35.881 E108.37792
G1 X50.466 Y-35.728 E108.41895
G1 X51.208 Y-35.487 E108.45787
G1 X51.803 Y-35.209 E108.49064
G1 X52.361 Y-34.862 E108.52342
G1 X53.002 Y-34.342 E108.5646
G1 X53.56 Y-33.761 E108.60479
G1 X53.954 Y-33.235 E108.63758
G1 X54.282 Y-32.666 E108.67034
G1 X54.538 Y-32.061 E108.70312
G1 X54.714 Y-31.481 E108.73336
G1 X54.855 Y-30.839 E108.76615
G1 X54.921 Y-30 E108.80814
G1 X54.923 Y30.033 E111.80319
G1 X54.883 Y30.689 E111.83598
G1 X54.764 Y31.335 E111.86875
G1 X54.557 Y32.005 E111.90374
G1 X54.309 Y32.614 E111.93655
G1 X53.99 Y33.188 E111.96931
G1 X53.603 Y33.719 E112.00209
G1 X53.121 Y34.237 E112.03739
G1 X52.632 Y34.675 E112.07014
G1 X52.093 Y35.051 E112.10293
G1 X51.512 Y35.359 E112.13574
G1 X50.862 Y35.614 E112.17057
G1 X50.113 Y35.815 E112.20926
G1 X49.343 Y35.924 E112.24806
G1 X-49.002 Y35.921 E117.15451
G1 X-49.658 Y35.881 E117.1873
G1 X-50.466 Y35.728 E117.22833
G1 X-51.208 Y35.487 E117.26725
G1 X-51.803 Y35.209 E117.30001
G1 X-52.361 Y34.862 E117.3328
G1 X-53.002 Y34.342 E117.37398
G1 X-53.56 Y33.761 E117.41417
G1 X-53.954 Y33.235 E117.44695
G1 X-54.282 Y32.666 E117.47972
G1 X-54.538 Y32.061 E117.51249
G1 X-54.714 Y31.481 E117.54273
G1 X-54.855 Y30.839 E117.57553
G1 X-54.921 Y30 E117.61751
G1 X-54.923 Y-30.033 E120.61257
G1 X-54.883 Y-30.689 E120.64536
G1 X-54.764 Y-31.335 E120.67813
G1 X-54.557 Y-32.005 E120.71312
G1 X-54.309 Y-32.614 E120.74592
G1 X-53.99 Y-33.188 E120.77869
G1 X-53.603 Y-33.719 E120.81147
G1 X-53.121 Y-34.237 E120.84677
G1 X-52.632 Y-34.675 E120.87952
G1 X-52.093 Y-35.051 E120.91231
G1 X-51.512 Y-35.359 E120.94511
G1 X-50.862 Y-35.614 E120.97995
G1 X-50.113 Y-35.815 E121.01864
G1 X-49.343 Y-35.924 E121.05744
G1 X49.002 Y-35.921 E125.96389
G0 F3600 X49.002 Y-35.521
G1 F1800 X49.633 Y-35.481 E125.99543
G1 X50.371 Y-35.34 E126.03292
G1 X51.083 Y-35.106 E126.07031
G1 X51.654 Y-34.835 E126.10184
G1 X52.187 Y-34.494 E126.13341
G1 X52.739 Y-34.039 E126.1691
G1 X53.271 Y-33.483 E126.20749
G1 X53.647 Y-32.975 E126.23902
G1 X53.955 Y-32.423 E126.27056
G1 X54.295 Y-31.525 E126.31846
G1 X54.464 Y-30.754 E126.35784
G1 X54.521 Y-30 E126.39557
G1 X54.523 Y30.033 E129.39063
G1 X54.483 Y30.664 E129.42217
G1 X54.364 Y31.285 E129.45371
G1 X54.178 Y31.877 E129.48467
G1 X53.938 Y32.462 E129.51622
G1 X53.627 Y33.013 E129.54779
G1 X53.248 Y33.519 E129.57933
G1 X52.836 Y33.956 E129.60929
G1 X52.365 Y34.376 E129.64077
G1 X51.843 Y34.734 E129.67235
G1 X51.281 Y35.024 E129.7039
G1 X50.621 Y35.265 E129.73896
G1 X50.01 Y35.428 E129.77051
G1 X49.293 Y35.524 E129.8066
G1 X-49.002 Y35.521 E134.71055
G1 X-49.633 Y35.481 E134.7421
G1 X-50.371 Y35.34 E134.77958
G1 X-51.083 Y35.106 E134.81697
G1 X-51.654 Y34.835 E134.84851
G1 X-52.187 Y34.494 E134.88008
G1 X-52.739 Y34.039 E134.91576
G1 X-53.271 Y33.483 E134.95416
G1 X-53.647 Y32.975 E134.98569
G1 X-53.955 Y32.423 E135.01722
G1 X-54.295 Y31.525 E135.06513
G1 X-54.464 Y30.754 E135.10451
G1 X-54.521 Y30 E135.14223
G1 X-54.523 Y-30.033 E138.13729
G1 X-54.483 Y-30.664 E138.16883
G1 X-54.364 Y-31.285 E138.20038
G1 X-54.178 Y-31.877 E138.23134
G1 X-53.938 Y-32.462 E138.26288
G1 X-53.627 Y-33.013 E138.29445
G1 X-53.248 Y-33.519 E138.32599
G1 X-52.836 Y-33.956 E138.35595
G1 X-52.365 Y-34.376 E138.38744
G1 X-51.843 Y-34.734 E138.41902
G1 X-51.281 Y-35.024 E138.45057
G1 X-50.621 Y-35.265 E138.48562
G1 X-50.01 Y-35.428 E138.51717
G1 X-49.293 Y-35.524 E138.55326
G1 X49.002 Y-35.521 E143.45722
G0 F3600 X49.002 Y-35.121
G1 F1800 X49.607 Y-35.081 E143.48747
G1 X50.275 Y-34.95 E143.52143
G1 X50.958 Y-34.725 E143.55731
G1 X51.504 Y-34.461 E143.58756
G1 X52.01 Y-34.127 E143.61781
G1 X52.563 Y-33.646 E143.65438
G1 X52.981 Y-33.207 E143.68462
G1 X53.337 Y-32.716 E143.71488
G1 X53.626 Y-32.183 E143.74513
G1 X53.914 Y-31.405 E143.78651
G1 X54.072 Y-30.669 E143.82407
G1 X54.121 Y-30 E143.85754
G1 X54.123 Y30.033 E146.85259
G1 X54.083 Y30.638 E146.88284
G1 X53.858 Y31.608 E146.93252
G1 X53.567 Y32.31 E146.97044
G1 X53.264 Y32.835 E147.00068
G1 X52.653 Y33.585 E147.04894
G1 X52.098 Y34.077 E147.08594
G1 X51.596 Y34.416 E147.11616
G1 X51.053 Y34.686 E147.14642
G1 X50.494 Y34.886 E147.17604
G1 X49.908 Y35.04 E147.20627
G1 X49.034 Y35.124 E147.25007
G1 X-49.002 Y35.121 E152.14111
G1 X-49.607 Y35.081 E152.17136
G1 X-50.275 Y34.95 E152.20532
G1 X-50.958 Y34.725 E152.24119
G1 X-51.504 Y34.461 E152.27145
G1 X-52.01 Y34.127 E152.3017
G1 X-52.563 Y33.646 E152.33826
G1 X-52.981 Y33.207 E152.36851
G1 X-53.337 Y32.716 E152.39876
G1 X-53.626 Y32.183 E152.42901
G1 X-53.914 Y31.405 E152.4704
G1 X-54.072 Y30.669 E152.50796
G1 X-54.121 Y30 E152.54142
G1 X-54.123 Y-30.033 E155.53648
G1 X-54.083 Y-30.638 E155.56673
