;FLAVOR:Marlin
;TIME:1142
;Filament used: 2.18433m
;Layer height: 0.4
;MINX:-35.073
;MINY:-28.815
;MINZ:0.3
;MAXX:35.074
;MAXY:29.298
;MAXZ:20.3
;Generated with Cura_SteamEngine 5.2.1
M140 S60
M105
M190 S60
M104 S200
M105
M109 S200
M82 ;absolute extrusion mode
G28 ;Home
G1 Z15.0 F6000 ;Move the platform down 15mm
;Prime the extruder
G92 E0
G1 F200 E3
G92 E0
M141 S28
G92 E0
G92 E0
G1 F1500 E-6.5
;LAYER_COUNT:51
;LAYER:0
M107
G0 F3600 X7.4 Y-1.41 Z0.3
;TYPE:SKIRT
G1 F1500 E0
G1 F1800 X7.321 Y-2.351 E0.04711
G1 X7.345 Y-3.437 E0.10131
G1 X7.476 Y-4.456 E0.15256
G1 X7.657 Y-5.225 E0.19198
G1 X7.987 Y-6.168 E0.24182
G1 X8.385 Y-7.003 E0.28797
G1 X8.795 Y-7.678 E0.32737
G1 X9.211 Y-8.244 E0.36241
G1 X9.895 Y-9.025 E0.41421
G1 X12.092 Y-11.22 E0.56915
G1 X12.959 Y-11.977 E0.62657
G1 X13.729 Y-12.505 E0.67315
G1 X14.423 Y-12.884 E0.7126
G1 X15.049 Y-13.157 E0.74667
G1 X15.93 Y-13.472 E0.79335
G1 X15.932 Y-20.514 E1.14468
G1 X15.972 Y-21.303 E1.18409
G1 X16.092 Y-22.083 E1.22346
G1 X16.297 Y-22.894 E1.2652
G1 X16.603 Y-23.75 E1.31055
G1 X16.943 Y-24.463 E1.34996
G1 X17.353 Y-25.138 E1.38936
G1 X17.83 Y-25.768 E1.42879
G1 X18.637 Y-26.609 E1.48694
G1 X19.375 Y-27.216 E1.53461
G1 X20.032 Y-27.654 E1.574
G1 X20.731 Y-28.022 E1.61341
G1 X21.463 Y-28.319 E1.65282
G1 X22.136 Y-28.525 E1.68794
G1 X23.004 Y-28.711 E1.73223
G1 X23.913 Y-28.811 E1.77785
G1 X26.774 Y-28.814 E1.92059
G1 X27.562 Y-28.775 E1.95995
G1 X28.343 Y-28.656 E1.99936
G1 X29.389 Y-28.375 E2.0534
G1 X30.257 Y-28.032 E2.09996
G1 X30.959 Y-27.669 E2.13939
G1 X31.62 Y-27.237 E2.17878
G1 X32.58 Y-26.42 E2.24167
G1 X33.206 Y-25.737 E2.2879
G1 X33.678 Y-25.103 E2.32733
G1 X34.083 Y-24.425 E2.36673
G1 X34.417 Y-23.71 E2.4061
G1 X34.671 Y-23.001 E2.44368
G1 X34.883 Y-22.24 E2.48309
G1 X35.018 Y-21.462 E2.52248
G1 X35.074 Y-20.524 E2.56936
G1 X35.072 Y-3.548 E3.4163
G1 X35.032 Y-2.759 E3.45571
G1 X34.848 Y-1.692 E3.50973
G1 X34.644 Y-.86 E3.55247
G1 X34.401 Y0.039 E3.59893
G1 X34.164 Y0.838 E3.64051
G1 X33.561 Y2.683 E3.73735
G1 X32.792 Y4.685 E3.84434
G1 X31.912 Y6.656 E3.95203
G1 X30.936 Y8.576 E4.05949
G1 X29.85 Y10.454 E4.16772
G1 X28.7 Y12.231 E4.27332
G1 X27.434 Y13.977 E4.38092
G1 X26.078 Y15.663 E4.48886
G1 X24.644 Y17.264 E4.59609
G1 X23.126 Y18.792 E4.70355
G1 X21.556 Y20.218 E4.80936
G1 X19.863 Y21.601 E4.91843
G1 X18.149 Y22.859 E5.0245
G1 X16.34 Y24.049 E5.13253
G1 X14.495 Y25.131 E5.23924
G1 X12.585 Y26.12 E5.34654
G1 X10.626 Y27.01 E5.45389
G1 X8.625 Y27.797 E5.56116
G1 X6.589 Y28.478 E5.66827
G1 X4.716 Y29 E5.76528
G1 X3.946 Y29.173 E5.80465
G1 X3.162 Y29.267 E5.84405
G1 X2.294 Y29.29 E5.88736
G1 X1.505 Y29.257 E5.92676
G1 X0.731 Y29.147 E5.96577
G1 X-0.001 Y28.988 E6.00314
G1 X-.731 Y29.147 E6.04041
G1 X-1.513 Y29.258 E6.07982
G1 X-2.497 Y29.298 E6.12895
G1 X-3.488 Y29.238 E6.17848
G1 X-4.389 Y29.091 E6.22403
G1 X-6.583 Y28.481 E6.33764
G1 X-8.625 Y27.798 E6.44506
G1 X-10.624 Y27.011 E6.55224
G1 X-12.584 Y26.121 E6.65963
G1 X-14.501 Y25.129 E6.76732
G1 X-16.363 Y24.035 E6.87506
G1 X-18.139 Y22.866 E6.98114
G1 X-19.862 Y21.602 E7.08775
G1 X-21.553 Y20.22 E7.19671
G1 X-23.133 Y18.784 E7.30323
G1 X-24.652 Y17.255 E7.41075
G1 X-26.095 Y15.64 E7.5188
G1 X-27.448 Y13.958 E7.6265
G1 X-28.693 Y12.241 E7.73231
G1 X-29.864 Y10.429 E7.83994
G1 X-30.932 Y8.581 E7.94643
G1 X-31.914 Y6.65 E8.05451
G1 X-32.795 Y4.676 E8.16236
G1 X-33.566 Y2.67 E8.26957
G1 X-34.164 Y0.84 E8.36562
G1 X-34.44 Y-.1 E8.4145
G1 X-34.645 Y-.864 E8.45396
G1 X-34.848 Y-1.694 E8.49659
G1 X-34.996 Y-2.469 E8.53596
G1 X-35.071 Y-3.546 E8.58982
G1 X-35.073 Y-20.523 E9.43681
G1 X-35.033 Y-21.312 E9.47622
G1 X-34.914 Y-22.092 E9.51558
G1 X-34.633 Y-23.131 E9.56928
G1 X-34.291 Y-23.998 E9.61578
G1 X-33.928 Y-24.7 E9.65521
G1 X-33.496 Y-25.361 E9.6946
G1 X-32.679 Y-26.321 E9.7575
G1 X-31.996 Y-26.947 E9.80372
G1 X-31.362 Y-27.419 E9.84315
G1 X-30.684 Y-27.824 E9.88255
G1 X-29.969 Y-28.158 E9.92192
G1 X-29.26 Y-28.412 E9.9595
G1 X-28.499 Y-28.624 E9.99891
G1 X-27.721 Y-28.759 E10.0383
G1 X-26.772 Y-28.815 E10.08573
G1 X-24.236 Y-28.811 E10.21225
G1 X-23.447 Y-28.77 E10.25167
G1 X-22.201 Y-28.545 E10.31484
G1 X-21.312 Y-28.267 E10.36131
G1 X-20.587 Y-27.956 E10.40067
G1 X-19.896 Y-27.573 E10.44008
G1 X-19.248 Y-27.122 E10.47947
G1 X-18.614 Y-26.587 E10.52086
G1 X-17.966 Y-25.926 E10.56704
G1 X-17.473 Y-25.309 E10.60644
G1 X-17.045 Y-24.645 E10.64585
G1 X-16.686 Y-23.942 E10.68524
G1 X-16.292 Y-22.883 E10.74161
G1 X-16.071 Y-21.978 E10.78808
G1 X-15.962 Y-21.196 E10.82748
G1 X-15.932 Y-20.514 E10.86153
G1 X-15.931 Y-13.453 E11.21381
G1 X-15.476 Y-13.32 E11.23746
G1 X-14.811 Y-13.058 E11.27312
G1 X-14.098 Y-12.718 E11.31253
G1 X-13.424 Y-12.308 E11.35189
G1 X-12.875 Y-11.905 E11.38586
G1 X-12.083 Y-11.212 E11.43837
G1 X-9.892 Y-9.021 E11.59295
G1 X-9.135 Y-8.157 E11.65026
G1 X-8.606 Y-7.385 E11.69695
G1 X-8.227 Y-6.693 E11.73632
G1 X-7.935 Y-6.019 E11.77296
G1 X-7.673 Y-5.275 E11.81231
G1 X-7.487 Y-4.507 E11.85174
G1 X-7.387 Y-3.848 E11.88499
G1 X-7.32 Y-3.061 E11.9244
G1 X-7.345 Y-1.973 E11.97869
G1 X-7.477 Y-.959 E12.02971
G1 X-7.657 Y-.19 E12.06911
G1 X-7.98 Y0.733 E12.1179
G1 X-8.374 Y1.567 E12.16391
G1 X-8.781 Y2.243 E12.20328
G1 X-9.216 Y2.833 E12.23985
G1 X-9.727 Y3.435 E12.27925
G1 X-10.043 Y3.739 E12.30112
G1 X-9.668 Y4.393 E12.33873
G1 X-9.235 Y5.039 E12.37753
G1 X-8.745 Y5.671 E12.41743
G1 X-8.223 Y6.256 E12.45655
G1 X-7.653 Y6.81 E12.4962
G1 X-7.056 Y7.316 E12.53525
G1 X-6.414 Y7.788 E12.575
G1 X-5.753 Y8.206 E12.61402
G1 X-5.049 Y8.586 E12.65393
G1 X-4.343 Y8.906 E12.6926
G1 X-3.594 Y9.184 E12.73246
G1 X-2.836 Y9.408 E12.7719
G1 X-1.619 Y9.677 E12.83408
G1 X-.88 Y9.88 E12.87231
G1 X-0.001 Y9.835 E12.91622
G1 X0.924 Y9.882 E12.96243
G1 X1.622 Y9.676 E12.99874
G1 X2.835 Y9.408 E13.06072
G1 X3.61 Y9.179 E13.10103
G1 X4.352 Y8.903 E13.14053
G1 X5.046 Y8.588 E13.17855
G1 X5.752 Y8.207 E13.21858
G1 X6.419 Y7.785 E13.25795
G1 X7.052 Y7.319 E13.29717
G1 X7.663 Y6.801 E13.33713
G1 X8.224 Y6.254 E13.37622
G1 X8.754 Y5.66 E13.41594
G1 X9.237 Y5.036 E13.45531
G1 X9.674 Y4.384 E13.49447
G1 X10.039 Y3.746 E13.53114
G1 X9.522 Y3.209 E13.56833
G1 X9.059 Y2.63 E13.60531
G1 X8.612 Y1.979 E13.64471
G1 X8.232 Y1.287 E13.6841
G1 X7.931 Y0.592 E13.72188
G1 X7.67 Y-.153 E13.76127
G1 X7.4 Y-1.41 E13.82541
G0 F3600 X7.797 Y-1.466
G1 F1800 X7.72 Y-2.385 E13.87142
G1 X7.744 Y-3.414 E13.92277
G1 X7.874 Y-4.405 E13.97264
G1 X8.052 Y-5.153 E14.011
G1 X8.359 Y-6.02 E14.05688
G1 X8.746 Y-6.831 E14.10171
G1 X9.436 Y-7.895 E14.16498
G1 X10.178 Y-8.742 E14.22116
G1 X12.375 Y-10.937 E14.3761
G1 X13.203 Y-11.66 E14.43094
G1 X13.956 Y-12.175 E14.47645
G1 X15.057 Y-12.735 E14.53808
G1 X15.927 Y-13.046 E14.58417
G1 X16.33 Y-13.144 E14.60487
G1 X16.332 Y-20.514 E14.97256
G1 X16.372 Y-21.282 E15.01092
G1 X16.492 Y-22.042 E15.04931
G1 X16.681 Y-22.783 E15.08746
G1 X16.98 Y-23.615 E15.13157
G1 X17.314 Y-24.308 E15.16995
G1 X17.718 Y-24.962 E15.2083
G1 X18.188 Y-25.572 E15.24672
G1 X18.913 Y-26.319 E15.29866
G1 X19.629 Y-26.907 E15.34488
G1 X20.271 Y-27.33 E15.38324
G1 X20.954 Y-27.685 E15.42164
G1 X21.669 Y-27.967 E15.45998
G1 X22.335 Y-28.16 E15.49458
G1 X23.088 Y-28.319 E15.53297
G1 X23.954 Y-28.411 E15.57642
G1 X26.774 Y-28.414 E15.71711
G1 X27.542 Y-28.375 E15.75548
G1 X28.302 Y-28.256 E15.79386
G1 X29.266 Y-27.994 E15.84369
G1 X30.11 Y-27.659 E15.889
G1 X30.791 Y-27.303 E15.92734
G1 X31.433 Y-26.878 E15.96575
G1 X32.302 Y-26.133 E16.02285
G1 X32.911 Y-25.467 E16.06788
G1 X33.367 Y-24.848 E16.10623
G1 X33.757 Y-24.185 E16.14461
G1 X34.076 Y-23.485 E16.18299
G1 X34.291 Y-22.874 E16.2153
G1 X34.497 Y-22.133 E16.25367
G1 X34.625 Y-21.374 E16.29208
G1 X34.674 Y-20.524 E16.33455
G1 X34.672 Y-3.548 E17.18149
G1 X34.632 Y-2.78 E17.21986
G1 X34.459 Y-1.787 E17.27014
G1 X34.211 Y-.784 E17.32169
G1 X34.057 Y-.215 E17.3511
G1 X33.784 Y0.714 E17.39941
G1 X33.185 Y2.547 E17.49561
G1 X32.422 Y4.533 E17.60176
G1 X31.552 Y6.482 E17.70824
G1 X30.583 Y8.388 E17.81492
G1 X29.518 Y10.23 E17.92107
G1 X28.366 Y12.009 E18.02681
G1 X27.101 Y13.754 E18.13433
G1 X25.788 Y15.387 E18.23887
G1 X24.346 Y16.998 E18.34674
G1 X22.866 Y18.487 E18.45148
G1 X21.275 Y19.932 E18.55871
G1 X19.628 Y21.278 E18.66483
G1 X17.91 Y22.538 E18.77112
G1 X16.136 Y23.705 E18.87706
G1 X14.318 Y24.772 E18.98222
G1 X12.397 Y25.766 E19.09013
G1 X10.468 Y26.642 E19.19583
G1 X8.485 Y27.422 E19.30214
G1 X6.47 Y28.097 E19.40816
G1 X4.609 Y28.615 E19.50454
G1 X3.858 Y28.782 E19.54292
G1 X3.094 Y28.871 E19.58129
G1 X2.29 Y28.89 E19.62142
G1 X1.521 Y28.857 E19.65982
G1 X0.807 Y28.755 E19.6958
G1 X0.002 Y28.576 E19.73694
G1 X-.807 Y28.755 E19.77828
G1 X-1.569 Y28.862 E19.81667
G1 X-2.501 Y28.898 E19.8632
G1 X-3.464 Y28.838 E19.91134
G1 X-4.32 Y28.695 E19.95464
G1 X-6.482 Y28.093 E20.0666
G1 X-8.484 Y27.424 E20.17191
G1 X-10.466 Y26.643 E20.27819
G1 X-12.397 Y25.767 E20.38398
G1 X-14.315 Y24.773 E20.49176
G1 X-16.143 Y23.7 E20.59751
G1 X-17.923 Y22.528 E20.70383
G1 X-19.627 Y21.279 E20.80924
G1 X-21.283 Y19.925 E20.91596
G1 X-22.863 Y18.489 E21.02248
G1 X-24.361 Y16.981 E21.12852
G1 X-25.795 Y15.377 E21.23586
G1 X-27.116 Y13.735 E21.341
G1 X-28.367 Y12.009 E21.44735
G1 X-29.526 Y10.214 E21.55395
G1 X-30.583 Y8.386 E21.6593
G1 X-31.55 Y6.484 E21.76575
G1 X-32.417 Y4.542 E21.87185
G1 X-33.191 Y2.529 E21.97945
G1 X-33.856 Y0.481 E22.08688
G1 X-34.054 Y-.205 E22.1225
G1 X-34.209 Y-.775 E22.15197
G1 X-34.459 Y-1.789 E22.20407
G1 X-34.603 Y-2.545 E22.24247
G1 X-34.671 Y-3.546 E22.29252
G1 X-34.673 Y-20.523 E23.13951
G1 X-34.633 Y-21.291 E23.17788
G1 X-34.514 Y-22.051 E23.21625
G1 X-34.253 Y-23.008 E23.26574
G1 X-33.918 Y-23.851 E23.311
G1 X-33.562 Y-24.532 E23.34934
G1 X-33.137 Y-25.174 E23.38775
G1 X-32.392 Y-26.043 E23.44485
G1 X-31.726 Y-26.652 E23.48988
G1 X-31.107 Y-27.108 E23.52824
G1 X-30.444 Y-27.498 E23.56661
G1 X-29.744 Y-27.817 E23.60499
G1 X-29.133 Y-28.032 E23.6373
G1 X-28.392 Y-28.238 E23.67568
G1 X-27.633 Y-28.366 E23.71408
G1 X-26.772 Y-28.415 E23.7571
G1 X-24.236 Y-28.411 E23.88362
G1 X-23.468 Y-28.37 E23.92199
G1 X-22.298 Y-28.158 E23.98132
G1 X-21.433 Y-27.885 E24.02657
G1 X-20.727 Y-27.579 E24.06496
G1 X-20.057 Y-27.201 E24.10334
G1 X-19.43 Y-26.756 E24.1417
G1 X-18.878 Y-26.284 E24.17793
G1 X-18.252 Y-25.646 E24.22252
G1 X-17.774 Y-25.043 E24.26091
G1 X-17.362 Y-24.394 E24.29926
G1 X-17.018 Y-23.705 E24.33768
G1 X-16.674 Y-22.761 E24.38781
G1 X-16.46 Y-21.883 E24.4329
G1 X-16.357 Y-21.121 E24.47126
G1 X-16.332 Y-20.514 E24.50157
G1 X-16.33 Y-13.152 E24.86886
G1 X-15.57 Y-12.929 E24.90837
G1 X-14.965 Y-12.688 E24.94086
G1 X-14.271 Y-12.357 E24.97923
G1 X-13.223 Y-11.678 E25.04152
G1 X-12.365 Y-10.93 E25.09831
G1 X-10.174 Y-8.739 E25.2529
G1 X-9.451 Y-7.912 E25.3077
G1 X-8.936 Y-7.159 E25.35322
G1 X-8.57 Y-6.483 E25.39157
G1 X-8.306 Y-5.868 E25.42496
G1 X-8.051 Y-5.142 E25.46335
G1 X-7.796 Y-3.947 E25.52431
G1 X-7.72 Y-3.027 E25.57036
G1 X-7.744 Y-2.001 E25.62157
G1 X-7.874 Y-1.011 E25.67138
G1 X-8.053 Y-.263 E25.70975
G1 X-8.351 Y0.584 E25.75455
G1 X-8.736 Y1.396 E25.79938
G1 X-9.136 Y2.053 E25.83776
G1 X-9.533 Y2.59 E25.87108
G1 X-10.032 Y3.176 E25.90947
G1 X-10.546 Y3.666 E25.9449
G1 X-10.009 Y4.603 E25.99878
G1 X-9.555 Y5.279 E26.03941
G1 X-9.062 Y5.916 E26.0796
G1 X-8.504 Y6.541 E26.1214
G1 X-7.931 Y7.098 E26.16126
G1 X-7.3 Y7.632 E26.2025
G1 X-6.637 Y8.12 E26.24358
G1 X-5.956 Y8.551 E26.28378
G1 X-5.231 Y8.942 E26.32488
G1 X-4.491 Y9.277 E26.3654
G1 X-3.715 Y9.566 E26.40672
G1 X-2.935 Y9.796 E26.44729
G1 X-1.705 Y10.068 E26.51014
G1 X-.941 Y10.282 E26.54972
G1 X0.005 Y10.235 E26.59697
G1 X0.96 Y10.285 E26.64468
G1 X1.709 Y10.067 E26.6836
G1 X2.936 Y9.796 E26.74629
G1 X3.728 Y9.562 E26.78749
G1 X4.5 Y9.274 E26.8286
G1 X5.229 Y8.944 E26.86852
G1 X5.955 Y8.552 E26.90969
G1 X6.642 Y8.117 E26.95025
G1 X7.304 Y7.63 E26.99126
G1 X7.934 Y7.096 E27.03246
G1 X8.513 Y6.531 E27.07282
G1 X9.058 Y5.919 E27.1137
G1 X9.558 Y5.275 E27.15438
G1 X10.014 Y4.593 E27.19531
G1 X10.549 Y3.66 E27.24897
G1 X10.329 Y3.473 E27.26337
G1 X9.798 Y2.916 E27.30177
G1 X9.377 Y2.386 E27.33553
G1 X8.942 Y1.752 E27.37389
G1 X8.575 Y1.076 E27.41227
G1 X8.302 Y0.441 E27.44675
G1 X8.048 Y-.285 E27.48513
G1 X7.797 Y-1.466 E27.54536
G0 F3600 X8.192 Y-1.523
G1 F1800 X8.119 Y-2.418 E27.59016
G1 X8.142 Y-3.39 E27.63867
G1 X8.271 Y-4.352 E27.68709
G1 X8.448 Y-5.079 E27.72442
G1 X8.73 Y-5.872 E27.76641
G1 X9.108 Y-6.658 E27.80993
G1 X9.755 Y-7.653 E27.86914
G1 X10.461 Y-8.459 E27.9226
G1 X12.658 Y-10.654 E28.07754
G1 X13.446 Y-11.343 E28.12976
G1 X14.181 Y-11.844 E28.17414
G1 X15.215 Y-12.368 E28.23197
G1 X16.062 Y-12.668 E28.2768
G1 X16.73 Y-12.81 E28.31087
G1 X16.732 Y-20.514 E28.69522
G1 X16.772 Y-21.261 E28.73254
G1 X16.892 Y-21.999 E28.76985
G1 X17.066 Y-22.674 E28.80462
G1 X17.357 Y-23.479 E28.84733
G1 X17.685 Y-24.152 E28.88468
G1 X18.082 Y-24.785 E28.92196
G1 X18.545 Y-25.373 E28.9593
G1 X19.189 Y-26.029 E29.00516
G1 X19.883 Y-26.597 E29.0499
G1 X20.509 Y-27.006 E29.08721
G1 X21.176 Y-27.346 E29.12456
G1 X22.301 Y-27.744 E29.18409
G1 X23.171 Y-27.928 E29.22846
G1 X24.24 Y-28.011 E29.28195
G1 X26.775 Y-28.014 E29.40842
G1 X27.522 Y-27.975 E29.44574
G1 X28.26 Y-27.856 E29.48304
G1 X29.142 Y-27.614 E29.52866
G1 X29.962 Y-27.287 E29.57271
G1 X30.623 Y-26.938 E29.61
G1 X31.244 Y-26.52 E29.64735
G1 X32.026 Y-25.844 E29.69892
G1 X32.614 Y-25.197 E29.74253
G1 X33.056 Y-24.593 E29.77987
G1 X33.43 Y-23.945 E29.8172
G1 X33.872 Y-22.892 E29.87418
G1 X34.111 Y-22.026 E29.919
G1 X34.232 Y-21.287 E29.95636
G1 X34.274 Y-20.524 E29.99448
G1 X34.272 Y-3.548 E30.84142
G1 X34.232 Y-2.801 E30.87874
G1 X34.071 Y-1.882 E30.92529
G1 X33.867 Y-1.05 E30.96802
G1 X33.671 Y-.319 E31.00578
G1 X33.403 Y0.59 E31.05306
G1 X32.806 Y2.418 E31.149
G1 X32.053 Y4.376 E31.25366
G1 X31.187 Y6.317 E31.3597
G1 X30.233 Y8.193 E31.4647
G1 X29.171 Y10.03 E31.57056
G1 X28.031 Y11.791 E31.67522
G1 X26.795 Y13.496 E31.78028
G1 X25.478 Y15.133 E31.8851
G1 X24.056 Y16.722 E31.99149
G1 X22.585 Y18.201 E32.09556
G1 X21.016 Y19.626 E32.2013
G1 X19.39 Y20.955 E32.30607
G1 X17.671 Y22.216 E32.41243
G1 X15.93 Y23.361 E32.51639
G1 X14.119 Y24.424 E32.62116
G1 X12.22 Y25.408 E32.72786
G1 X10.311 Y26.274 E32.83245
G1 X8.366 Y27.04 E32.93674
G1 X6.355 Y27.713 E33.04253
G1 X4.501 Y28.229 E33.13855
G1 X3.771 Y28.391 E33.17585
G1 X2.526 Y28.501 E33.23821
G1 X1.539 Y28.457 E33.2875
G1 X0.884 Y28.362 E33.32052
G1 X0.006 Y28.165 E33.36541
G1 X-.693 Y28.335 E33.4013
G1 X-1.625 Y28.465 E33.44825
G1 X-2.502 Y28.498 E33.49203
G1 X-3.439 Y28.438 E33.53888
G1 X-4.499 Y28.23 E33.59277
G1 X-6.345 Y27.717 E33.68836
G1 X-8.365 Y27.041 E33.79463
G1 X-10.31 Y26.275 E33.89892
G1 X-12.219 Y25.409 E34.0035
G1 X-14.115 Y24.427 E34.11003
G1 X-15.937 Y23.357 E34.21544
G1 X-17.684 Y22.207 E34.31979
G1 X-19.389 Y20.956 E34.42529
G1 X-21.024 Y19.62 E34.53063
G1 X-22.583 Y18.203 E34.63574
G1 X-24.072 Y16.704 E34.74115
G1 X-25.485 Y15.122 E34.84697
G1 X-26.8 Y13.489 E34.95158
G1 X-28.038 Y11.779 E35.0569
G1 X-29.189 Y10 E35.16261
G1 X-30.226 Y8.204 E35.26608
G1 X-31.185 Y6.319 E35.37159
G1 X-32.056 Y4.367 E35.47823
G1 X-32.811 Y2.406 E35.58307
G1 X-33.472 Y0.369 E35.68991
G1 X-33.668 Y-.31 E35.72517
G1 X-33.868 Y-1.054 E35.7636
G1 X-34.071 Y-1.884 E35.80623
G1 X-34.209 Y-2.619 E35.84354
G1 X-34.271 Y-3.546 E35.88989
G1 X-34.273 Y-20.523 E36.73688
G1 X-34.233 Y-21.27 E36.7742
G1 X-34.114 Y-22.009 E36.81155
G1 X-33.872 Y-22.885 E36.85689
G1 X-33.546 Y-23.703 E36.90082
G1 X-33.197 Y-24.364 E36.93811
G1 X-32.779 Y-24.985 E36.97546
G1 X-32.103 Y-25.767 E37.02703
G1 X-31.456 Y-26.355 E37.07065
G1 X-30.852 Y-26.797 E37.10799
G1 X-30.204 Y-27.171 E37.14531
G1 X-29.151 Y-27.613 E37.20229
G1 X-28.285 Y-27.852 E37.24711
G1 X-27.546 Y-27.973 E37.28447
G1 X-26.773 Y-28.015 E37.32309
G1 X-24.237 Y-28.011 E37.44961
G1 X-23.49 Y-27.97 E37.48694
G1 X-22.395 Y-27.77 E37.54247
G1 X-21.553 Y-27.503 E37.58654
G1 X-20.868 Y-27.202 E37.62387
G1 X-20.219 Y-26.83 E37.66119
G1 X-19.614 Y-26.391 E37.69848
G1 X-19.061 Y-25.901 E37.73534
G1 X-18.539 Y-25.366 E37.77263
G1 X-18.077 Y-24.777 E37.80998
G1 X-17.68 Y-24.143 E37.8473
G1 X-17.353 Y-23.47 E37.88463
G1 X-17.055 Y-22.64 E37.92863
