;FLAVOR:Marlin
;TIME:3890
;Filament used: 7.10999m
;Layer height: 0.4
;MINX:-57.321
;MINY:-38.323
;MINZ:0.3
;MAXX:57.324
;MAXY:38.324
;MAXZ:15.5
;Generated with Cura_SteamEngine 5.2.1
M140 S60
M105
M190 S60
M104 S200
M105
M109 S200
M82 ;absolute extrusion mode
G28 ;Home
G1 Z15.0 F6000 ;Move the platform down 15mm
;Prime the extruder
G92 E0
G1 F200 E3
G92 E0
M141 S28
G92 E0
G92 E0
G1 F1500 E-6.5
;LAYER_COUNT:39
;LAYER:0
M107
G0 F3600 X-49.002 Y38.321 Z0.3
;TYPE:SKIRT
G1 F1500 E0
G1 F1800 X-49.791 Y38.281 E0.03941
G1 X-51.049 Y38.055 E0.10318
G1 X-51.938 Y37.777 E0.14965
G1 X-52.663 Y37.466 E0.18901
G1 X-53.354 Y37.083 E0.22842
G1 X-54.002 Y36.632 E0.26781
G1 X-54.636 Y36.097 E0.3092
G1 X-55.284 Y35.436 E0.35538
G1 X-55.777 Y34.819 E0.39478
G1 X-56.205 Y34.155 E0.43419
G1 X-56.564 Y33.452 E0.47358
G1 X-56.986 Y32.296 E0.53497
G1 X-57.2 Y31.37 E0.58239
G1 X-57.299 Y30.586 E0.62181
G1 X-57.321 Y30 E0.65107
G1 X-57.318 Y-30.021 E3.64553
G1 X-57.278 Y-30.81 E3.68494
G1 X-57.158 Y-31.591 E3.72436
G1 X-56.955 Y-32.395 E3.76573
G1 X-56.65 Y-33.252 E3.81112
G1 X-56.311 Y-33.965 E3.85051
G1 X-55.902 Y-34.64 E3.88988
G1 X-55.426 Y-35.271 E3.92931
G1 X-54.613 Y-36.118 E3.98789
G1 X-53.875 Y-36.726 E4.03559
G1 X-53.218 Y-37.164 E4.07499
G1 X-52.519 Y-37.532 E4.1144
G1 X-51.787 Y-37.829 E4.15381
G1 X-51.114 Y-38.035 E4.18892
G1 X-50.246 Y-38.221 E4.23321
G1 X-49.333 Y-38.321 E4.27903
G1 X49.033 Y-38.323 E9.18653
G1 X49.822 Y-38.283 E9.22595
G1 X50.602 Y-38.164 E9.26531
G1 X51.641 Y-37.883 E9.31901
G1 X52.507 Y-37.541 E9.36546
G1 X53.209 Y-37.178 E9.40489
G1 X53.87 Y-36.746 E9.44428
G1 X54.83 Y-35.929 E9.50718
G1 X55.456 Y-35.246 E9.5534
G1 X55.928 Y-34.612 E9.59283
G1 X56.333 Y-33.934 E9.63223
G1 X56.667 Y-33.219 E9.6716
G1 X56.921 Y-32.51 E9.70918
G1 X57.133 Y-31.749 E9.74859
G1 X57.268 Y-30.971 E9.78798
G1 X57.324 Y-30.034 E9.83481
G1 X57.323 Y30.033 E12.83157
G1 X57.283 Y30.822 E12.87098
G1 X57.163 Y31.602 E12.91036
G1 X56.884 Y32.64 E12.96398
G1 X56.541 Y33.507 E13.0105
G1 X56.178 Y34.209 E13.04992
G1 X55.746 Y34.87 E13.08932
G1 X54.929 Y35.83 E13.15221
G1 X54.246 Y36.456 E13.19843
G1 X53.612 Y36.928 E13.23787
G1 X52.934 Y37.333 E13.27727
G1 X52.219 Y37.667 E13.31664
G1 X51.51 Y37.921 E13.35421
G1 X50.749 Y38.133 E13.39363
G1 X49.971 Y38.268 E13.43302
G1 X49.034 Y38.324 E13.47985
G1 X-49.002 Y38.321 E18.37089
G0 F3600 X-49.002 Y37.921
G1 F1800 X-49.77 Y37.881 E18.40925
G1 X-50.951 Y37.668 E18.46912
G1 X-51.817 Y37.395 E18.51443
G1 X-52.523 Y37.089 E18.55281
G1 X-53.193 Y36.711 E18.59119
G1 X-53.82 Y36.266 E18.62955
G1 X-54.372 Y35.794 E18.66579
G1 X-54.998 Y35.156 E18.71038
G1 X-55.476 Y34.553 E18.74877
G1 X-55.888 Y33.904 E18.78712
G1 X-56.232 Y33.215 E18.82554
G1 X-56.602 Y32.179 E18.88043
G1 X-56.81 Y31.28 E18.92646
G1 X-56.903 Y30.516 E18.96486
G1 X-56.921 Y30 E18.99062
G1 X-56.918 Y-30.021 E21.98508
G1 X-56.878 Y-30.789 E22.02345
G1 X-56.758 Y-31.549 E22.06183
G1 X-56.571 Y-32.285 E22.09972
G1 X-56.273 Y-33.117 E22.14381
G1 X-55.94 Y-33.811 E22.18221
G1 X-55.537 Y-34.465 E22.22054
G1 X-55.068 Y-35.075 E22.25893
G1 X-54.338 Y-35.828 E22.31125
G1 X-53.621 Y-36.417 E22.35754
G1 X-52.979 Y-36.84 E22.3959
G1 X-52.296 Y-37.195 E22.4343
G1 X-51.581 Y-37.477 E22.47265
G1 X-50.915 Y-37.67 E22.50724
G1 X-50.162 Y-37.829 E22.54564
G1 X-49.293 Y-37.921 E22.58923
G1 X49.033 Y-37.923 E27.49474
G1 X49.801 Y-37.883 E27.53311
G1 X50.561 Y-37.764 E27.57148
G1 X51.518 Y-37.503 E27.62097
G1 X52.36 Y-37.168 E27.66618
G1 X53.041 Y-36.812 E27.70452
G1 X53.683 Y-36.387 E27.74293
G1 X54.552 Y-35.642 E27.80004
G1 X55.161 Y-34.976 E27.84506
G1 X55.617 Y-34.357 E27.88342
G1 X56.007 Y-33.694 E27.9218
G1 X56.326 Y-32.994 E27.96017
G1 X56.541 Y-32.383 E27.99249
G1 X56.747 Y-31.642 E28.03086
G1 X56.875 Y-30.883 E28.06926
G1 X56.924 Y-30.034 E28.11169
G1 X56.923 Y30.033 E31.10844
G1 X56.883 Y30.801 E31.14681
G1 X56.764 Y31.561 E31.18519
G1 X56.503 Y32.518 E31.23468
G1 X56.168 Y33.36 E31.27989
G1 X55.812 Y34.041 E31.31823
G1 X55.387 Y34.683 E31.35664
G1 X54.642 Y35.552 E31.41374
G1 X53.976 Y36.161 E31.45877
G1 X53.357 Y36.617 E31.49712
G1 X52.694 Y37.007 E31.5355
G1 X51.994 Y37.326 E31.57388
G1 X51.383 Y37.541 E31.60619
G1 X50.642 Y37.747 E31.64456
G1 X49.883 Y37.875 E31.68297
G1 X49.034 Y37.924 E31.72539
G1 X-49.002 Y37.921 E36.61643
G0 F3600 X-49.002 Y37.521
G1 F1800 X-49.749 Y37.481 E36.65375
G1 X-50.854 Y37.28 E36.70978
G1 X-51.697 Y37.013 E36.7539
G1 X-52.382 Y36.712 E36.79123
G1 X-53.031 Y36.34 E36.82855
G1 X-53.636 Y35.901 E36.86584
G1 X-54.189 Y35.411 E36.9027
G1 X-54.711 Y34.876 E36.93999
G1 X-55.173 Y34.287 E36.97734
G1 X-55.57 Y33.653 E37.01466
G1 X-55.897 Y32.98 E37.05199
G1 X-56.221 Y32.062 E37.10056
G1 X-56.419 Y31.19 E37.14517
G1 X-56.521 Y30.329 E37.18843
G1 X-56.518 Y-30.021 E40.1993
G1 X-56.478 Y-30.768 E40.23662
G1 X-56.358 Y-31.507 E40.27397
G1 X-56.186 Y-32.176 E40.30844
G1 X-55.896 Y-32.982 E40.35117
G1 X-55.569 Y-33.655 E40.3885
G1 X-55.172 Y-34.289 E40.42582
G1 X-54.71 Y-34.877 E40.46313
G1 X-54.062 Y-35.538 E40.50931
G1 X-53.367 Y-36.107 E40.55412
G1 X-52.741 Y-36.516 E40.59143
G1 X-52.074 Y-36.856 E40.62878
G1 X-50.949 Y-37.254 E40.68831
G1 X-50.079 Y-37.438 E40.73268
G1 X-49.002 Y-37.521 E40.78657
G1 X49.033 Y-37.523 E45.67755
G1 X49.78 Y-37.483 E45.71488
G1 X50.518 Y-37.364 E45.75217
G1 X51.394 Y-37.122 E45.79751
G1 X52.212 Y-36.796 E45.84144
G1 X52.873 Y-36.447 E45.87873
G1 X53.494 Y-36.029 E45.91608
G1 X54.276 Y-35.353 E45.96765
G1 X54.864 Y-34.706 E46.01127
G1 X55.306 Y-34.102 E46.04861
G1 X55.68 Y-33.454 E46.08594
G1 X56.122 Y-32.401 E46.14291
G1 X56.361 Y-31.535 E46.18773
G1 X56.482 Y-30.796 E46.22509
G1 X56.524 Y-30.034 E46.26317
G1 X56.523 Y30.033 E49.25992
G1 X56.483 Y30.78 E49.29724
G1 X56.364 Y31.519 E49.33459
G1 X56.122 Y32.394 E49.37988
G1 X55.796 Y33.212 E49.42381
G1 X55.447 Y33.873 E49.4611
G1 X55.029 Y34.494 E49.49845
G1 X54.353 Y35.276 E49.55002
G1 X53.706 Y35.864 E49.59364
G1 X53.102 Y36.306 E49.63098
G1 X52.454 Y36.68 E49.6683
G1 X51.401 Y37.122 E49.72528
G1 X50.535 Y37.361 E49.7701
G1 X49.796 Y37.482 E49.80746
G1 X49.034 Y37.524 E49.84553
G1 X-49.002 Y37.521 E54.73657
G0 F3600 X-49.002 Y37.121
G1 F1800 X-49.727 Y37.081 E54.77279
G1 X-50.756 Y36.892 E54.82499
G1 X-51.576 Y36.631 E54.86792
G1 X-52.239 Y36.336 E54.90413
G1 X-52.867 Y35.97 E54.94039
G1 X-53.797 Y35.242 E54.99931
G1 X-54.424 Y34.596 E55.04423
G1 X-54.87 Y34.023 E55.08045
G1 X-55.251 Y33.404 E55.11672
G1 X-55.561 Y32.747 E55.15296
G1 X-55.838 Y31.941 E55.19548
G1 X-56.028 Y31.102 E55.2384
G1 X-56.121 Y30.283 E55.27952
G1 X-56.118 Y-30.021 E58.2881
G1 X-56.078 Y-30.747 E58.32437
G1 X-55.959 Y-31.463 E58.36058
G1 X-55.766 Y-32.163 E58.39681
G1 X-55.519 Y-32.846 E58.43305
G1 X-55.198 Y-33.498 E58.4693
G1 X-54.808 Y-34.11 E58.50551
G1 X-54.353 Y-34.677 E58.54178
G1 X-53.783 Y-35.249 E58.58206
G1 X-53.114 Y-35.797 E58.62521
G1 X-52.504 Y-36.191 E58.66144
G1 X-51.854 Y-36.516 E58.69769
G1 X-50.841 Y-36.869 E58.75121
G1 X-49.997 Y-37.046 E58.79424
G1 X-49.002 Y-37.121 E58.84402
G1 X49.033 Y-37.123 E63.73501
G1 X49.758 Y-37.083 E63.77123
G1 X50.475 Y-36.964 E63.80749
G1 X51.272 Y-36.741 E63.84878
G1 X52.063 Y-36.424 E63.8913
G1 X52.704 Y-36.082 E63.92754
G1 X53.303 Y-35.671 E63.96378
G1 X53.998 Y-35.065 E64.00979
G1 X54.568 Y-34.437 E64.0521
G1 X54.994 Y-33.848 E64.08837
G1 X55.352 Y-33.216 E64.1246
G1 X55.745 Y-32.268 E64.1758
G1 X55.975 Y-31.428 E64.21925
G1 X56.089 Y-30.711 E64.25547
G1 X56.124 Y-30.034 E64.28929
G1 X56.123 Y30.033 E67.28605
G1 X56.083 Y30.758 E67.32227
G1 X55.964 Y31.475 E67.35854
G1 X55.741 Y32.272 E67.39982
G1 X55.424 Y33.063 E67.44234
G1 X55.082 Y33.704 E67.47859
G1 X54.671 Y34.303 E67.51483
G1 X54.065 Y34.998 E67.56083
G1 X53.437 Y35.568 E67.60314
G1 X52.848 Y35.994 E67.63941
G1 X52.216 Y36.352 E67.67565
G1 X51.268 Y36.745 E67.72685
G1 X50.428 Y36.975 E67.7703
G1 X49.711 Y37.089 E67.80652
G1 X49.034 Y37.124 E67.84034
G1 X-49.002 Y37.121 E72.73137
G0 F3600 X-49.002 Y36.721
G1 F1800 X-49.705 Y36.681 E72.7665
G1 X-50.658 Y36.504 E72.81486
G1 X-51.454 Y36.25 E72.85655
G1 X-52.095 Y35.96 E72.89165
G1 X-52.7 Y35.6 E72.92677
G1 X-53.53 Y34.943 E72.97958
G1 X-54.137 Y34.317 E73.02308
G1 X-54.566 Y33.759 E73.0582
G1 X-54.929 Y33.156 E73.09331
G1 X-55.222 Y32.516 E73.12843
G1 X-55.456 Y31.822 E73.16497
G1 X-55.638 Y31.013 E73.20634
G1 X-55.721 Y30 E73.25705
G1 X-55.718 Y-30.021 E76.25151
G1 X-55.678 Y-30.724 E76.28664
G1 X-55.559 Y-31.418 E76.32177
G1 X-55.383 Y-32.048 E76.3544
G1 X-55.142 Y-32.709 E76.3895
G1 X-54.828 Y-33.34 E76.42466
G1 X-54.445 Y-33.93 E76.45976
G1 X-53.997 Y-34.473 E76.49488
G1 X-53.505 Y-34.962 E76.52949
G1 X-52.861 Y-35.486 E76.57091
G1 X-52.267 Y-35.865 E76.60606
G1 X-51.635 Y-36.174 E76.64116
G1 X-50.731 Y-36.484 E76.68884
G1 X-49.915 Y-36.653 E76.73041
G1 X-49.002 Y-36.721 E76.77609
G1 X49.033 Y-36.723 E81.66707
G1 X49.736 Y-36.683 E81.7022
G1 X50.43 Y-36.564 E81.73733
G1 X51.15 Y-36.36 E81.77467
G1 X51.914 Y-36.052 E81.81576
G1 X52.533 Y-35.717 E81.85088
G1 X53.111 Y-35.314 E81.88603
G1 X53.722 Y-34.775 E81.92668
G1 X54.271 Y-34.168 E81.96751
G1 X54.681 Y-33.595 E82.00266
G1 X55.023 Y-32.98 E82.03777
G1 X55.367 Y-32.135 E82.08329
G1 X55.589 Y-31.323 E82.12529
G1 X55.696 Y-30.627 E82.16042
G1 X55.724 Y-30.034 E82.19004
G1 X55.723 Y30.033 E85.18679
G1 X55.683 Y30.736 E85.22192
G1 X55.564 Y31.43 E85.25705
G1 X55.36 Y32.15 E85.29438
G1 X55.052 Y32.914 E85.33548
G1 X54.717 Y33.533 E85.3706
G1 X54.314 Y34.111 E85.40575
G1 X53.775 Y34.722 E85.4464
G1 X53.168 Y35.271 E85.48723
G1 X52.595 Y35.681 E85.52238
G1 X51.98 Y36.023 E85.55749
G1 X51.135 Y36.367 E85.60301
G1 X50.323 Y36.589 E85.645
G1 X49.627 Y36.696 E85.68014
G1 X49.034 Y36.724 E85.70975
G1 X-49.002 Y36.721 E90.60079
G0 F3600 X-49.002 Y36.321
G1 F1800 X-49.682 Y36.281 E90.63477
G1 X-50.563 Y36.116 E90.67949
G1 X-51.331 Y35.868 E90.71975
G1 X-51.95 Y35.585 E90.75371
G1 X-52.532 Y35.231 E90.7877
G1 X-53.265 Y34.644 E90.83455
G1 X-53.849 Y34.039 E90.8765
G1 X-54.261 Y33.497 E90.91047
G1 X-54.607 Y32.91 E90.94446
G1 X-54.881 Y32.287 E90.97841
G1 X-55.099 Y31.591 E91.0148
G1 X-55.247 Y30.926 E91.04879
G1 X-55.321 Y30 E91.09514
G1 X-55.318 Y-30.021 E94.0896
G1 X-55.278 Y-30.701 E94.12358
G1 X-55.052 Y-31.791 E94.17912
G1 X-54.766 Y-32.572 E94.22061
G1 X-54.459 Y-33.18 E94.25459
G1 X-54.083 Y-33.747 E94.28853
G1 X-53.642 Y-34.267 E94.32255
G1 X-53.137 Y-34.746 E94.35728
G1 X-52.608 Y-35.175 E94.39126
G1 X-52.032 Y-35.538 E94.42522
G1 X-51.418 Y-35.831 E94.45916
G1 X-50.621 Y-36.099 E94.50111
G1 X-49.834 Y-36.261 E94.5412
G1 X-49.002 Y-36.321 E94.58282
G1 X49.033 Y-36.323 E99.4738
G1 X49.713 Y-36.283 E99.50779
G1 X50.383 Y-36.164 E99.54174
G1 X51.029 Y-35.978 E99.57528
G1 X51.764 Y-35.68 E99.61484
G1 X52.361 Y-35.353 E99.6488
G1 X52.916 Y-34.958 E99.68279
G1 X53.447 Y-34.483 E99.71833
G1 X53.973 Y-33.899 E99.75755
G1 X54.366 Y-33.343 E99.79151
G1 X54.692 Y-32.745 E99.82549
G1 X54.99 Y-31.999 E99.86557
G1 X55.202 Y-31.218 E99.90595
G1 X55.302 Y-30.544 E99.93994
G1 X55.324 Y-30.034 E99.96541
G1 X55.323 Y30.033 E102.96216
G1 X55.283 Y30.713 E102.99615
G1 X55.164 Y31.383 E103.0301
G1 X54.978 Y32.029 E103.06364
G1 X54.68 Y32.764 E103.1032
G1 X54.353 Y33.361 E103.13716
G1 X53.958 Y33.916 E103.17115
G1 X53.483 Y34.447 E103.20669
G1 X52.899 Y34.973 E103.24591
G1 X52.343 Y35.366 E103.27987
G1 X51.745 Y35.692 E103.31385
G1 X50.999 Y35.99 E103.35393
G1 X50.218 Y36.202 E103.39431
G1 X49.544 Y36.302 E103.4283
G1 X49.034 Y36.324 E103.45377
G1 X-49.002 Y36.321 E108.3448
G0 F3600 X-49.002 Y35.921
G1 F1800 X-49.658 Y35.881 E108.37759
G1 X-50.466 Y35.728 E108.41862
G1 X-51.208 Y35.487 E108.45754
G1 X-51.803 Y35.209 E108.49031
G1 X-52.361 Y34.862 E108.52309
G1 X-53.002 Y34.342 E108.56427
G1 X-53.56 Y33.761 E108.60446
G1 X-53.954 Y33.235 E108.63725
G1 X-54.282 Y32.666 E108.67001
G1 X-54.538 Y32.061 E108.70279
G1 X-54.714 Y31.481 E108.73303
G1 X-54.855 Y30.839 E108.76582
G1 X-54.921 Y30 E108.80781
G1 X-54.918 Y-30.021 E111.80227
G1 X-54.878 Y-30.677 E111.83505
G1 X-54.668 Y-31.679 E111.88613
G1 X-54.39 Y-32.434 E111.92627
G1 X-54.09 Y-33.019 E111.95907
G1 X-53.721 Y-33.562 E111.99182
G1 X-53.001 Y-34.344 E112.04486
G1 X-52.356 Y-34.863 E112.08616
G1 X-51.799 Y-35.21 E112.1189
G1 X-51.203 Y-35.487 E112.15169
G1 X-50.508 Y-35.716 E112.1882
G1 X-49.754 Y-35.868 E112.22657
G1 X-49.002 Y-35.921 E112.26418
G1 X49.033 Y-35.923 E117.15517
G1 X49.689 Y-35.883 E117.18795
G1 X50.335 Y-35.764 E117.22073
G1 X51.005 Y-35.557 E117.25571
G1 X51.614 Y-35.309 E117.28852
G1 X52.188 Y-34.99 E117.32128
G1 X52.719 Y-34.603 E117.35406
G1 X53.237 Y-34.121 E117.38936
G1 X53.675 Y-33.632 E117.42211
G1 X54.051 Y-33.093 E117.4549
G1 X54.359 Y-32.512 E117.48771
G1 X54.614 Y-31.862 E117.52254
G1 X54.815 Y-31.113 E117.56123
G1 X54.924 Y-30.343 E117.60003
G1 X54.923 Y30.033 E120.6122
G1 X54.883 Y30.689 E120.64499
G1 X54.764 Y31.335 E120.67776
G1 X54.557 Y32.005 E120.71275
G1 X54.309 Y32.614 E120.74555
G1 X53.99 Y33.188 E120.77831
G1 X53.603 Y33.719 E120.8111
G1 X53.121 Y34.237 E120.8464
G1 X52.632 Y34.675 E120.87915
G1 X52.093 Y35.051 E120.91194
G1 X51.512 Y35.359 E120.94474
G1 X50.862 Y35.614 E120.97958
G1 X50.113 Y35.815 E121.01827
G1 X49.343 Y35.924 E121.05707
G1 X-49.002 Y35.921 E125.96352
G0 F3600 X-49.002 Y35.521
G1 F1800 X-49.633 Y35.481 E125.99506
G1 X-50.371 Y35.34 E126.03255
G1 X-51.083 Y35.106 E126.06994
G1 X-51.654 Y34.835 E126.10147
G1 X-52.187 Y34.494 E126.13304
G1 X-52.739 Y34.039 E126.16873
G1 X-53.271 Y33.483 E126.20712
G1 X-53.647 Y32.975 E126.23865
G1 X-53.955 Y32.423 E126.27019
G1 X-54.295 Y31.525 E126.31809
G1 X-54.464 Y30.754 E126.35747
G1 X-54.521 Y30 E126.3952
G1 X-54.518 Y-30.021 E129.38965
G1 X-54.478 Y-30.652 E129.4212
G1 X-54.284 Y-31.568 E129.46791
G1 X-54.014 Y-32.295 E129.5066
G1 X-53.721 Y-32.855 E129.53813
G1 X-53.36 Y-33.374 E129.56968
G1 X-52.725 Y-34.053 E129.61606
G1 X-52.105 Y-34.551 E129.65573
G1 X-51.566 Y-34.881 E129.68726
G1 X-50.99 Y-35.14 E129.71877
G1 X-50.294 Y-35.351 E129.75505
G1 X-49.675 Y-35.476 E129.78656
G1 X-49.002 Y-35.521 E129.82021
G1 X49.033 Y-35.523 E134.7112
G1 X49.664 Y-35.483 E134.74274
G1 X50.285 Y-35.364 E134.77429
G1 X50.877 Y-35.178 E134.80524
G1 X51.462 Y-34.938 E134.83679
G1 X52.013 Y-34.627 E134.86836
G1 X52.519 Y-34.248 E134.8999
G1 X52.956 Y-33.836 E134.92986
G1 X53.376 Y-33.365 E134.96134
G1 X53.734 Y-32.843 E134.99292
G1 X54.024 Y-32.281 E135.02447
G1 X54.265 Y-31.621 E135.05953
G1 X54.428 Y-31.01 E135.09108
G1 X54.524 Y-30.293 E135.12717
G1 X54.523 Y30.033 E138.13684
G1 X54.483 Y30.664 E138.16839
G1 X54.364 Y31.285 E138.19993
G1 X54.178 Y31.877 E138.23089
G1 X53.938 Y32.462 E138.26244
G1 X53.627 Y33.013 E138.294
G1 X53.248 Y33.519 E138.32555
G1 X52.836 Y33.956 E138.35551
G1 X52.365 Y34.376 E138.38699
G1 X51.843 Y34.734 E138.41857
G1 X51.281 Y35.024 E138.45012
G1 X50.621 Y35.265 E138.48518
G1 X50.01 Y35.428 E138.51673
G1 X49.293 Y35.524 E138.55282
G1 X-49.002 Y35.521 E143.45677
G0 F3600 X-49.002 Y35.121
G1 F1800 X-49.607 Y35.081 E143.48702
G1 X-50.275 Y34.95 E143.52099
G1 X-50.958 Y34.725 E143.55686
G1 X-51.504 Y34.461 E143.58712
G1 X-52.01 Y34.127 E143.61737
G1 X-52.563 Y33.646 E143.65393
G1 X-52.981 Y33.207 E143.68417
G1 X-53.337 Y32.716 E143.71443
G1 X-53.626 Y32.183 E143.74468
G1 X-53.914 Y31.405 E143.78607
G1 X-54.072 Y30.669 E143.82362
G1 X-54.121 Y30 E143.85709
G1 X-54.118 Y-30.021 E146.85155
G1 X-54.078 Y-30.626 E146.8818
G1 X-53.9 Y-31.457 E146.9242
G1 X-53.638 Y-32.155 E146.9614
G1 X-53.353 Y-32.69 E146.99164
G1 X-53 Y-33.183 E147.02189
G1 X-52.448 Y-33.764 E147.06187
G1 X-51.855 Y-34.237 E147.09971
G1 X-51.335 Y-34.55 E147.12999
G1 X-50.779 Y-34.791 E147.16023
G1 X-50.191 Y-34.965 E147.19082
G1 X-49.596 Y-35.082 E147.22107
G1 X-49.002 Y-35.121 E147.25077
G1 X49.033 Y-35.123 E152.14176
G1 X49.638 Y-35.083 E152.17201
G1 X50.608 Y-34.858 E152.22169
G1 X51.31 Y-34.567 E152.2596
G1 X51.835 Y-34.264 E152.28984
G1 X52.585 Y-33.653 E152.3381
G1 X53.077 Y-33.098 E152.37511
G1 X53.416 Y-32.596 E152.40533
G1 X53.686 Y-32.053 E152.43558
G1 X53.886 Y-31.494 E152.4652
G1 X54.04 Y-30.908 E152.49543
G1 X54.124 Y-30.034 E152.53923
