;FLAVOR:Marlin
;TIME:1608
;Filament used: 3.09855m
;Layer height: 0.4
;MINX:-35.077
;MINY:-28.642
;MINZ:0.3
;MAXX:35.078
;MAXY:29.112
;MAXZ:34.7
;Generated with Cura_SteamEngine 5.2.1
M140 S60
M105
M190 S60
M104 S200
M105
M109 S200
M82 ;absolute extrusion mode
G28 ;Home
G1 Z15.0 F6000 ;Move the platform down 15mm
;Prime the extruder
G92 E0
G1 F200 E3
G92 E0
M141 S28
G92 E0
G92 E0
G1 F1500 E-6.5
;LAYER_COUNT:87
;LAYER:0
M107
G0 F3600 X7.453 Y-.671 Z0.3
;TYPE:SKIRT
G1 F1500 E0
G1 F1800 X7.386 Y-1.458 E0.03941
G1 X7.411 Y-2.542 E0.0935
G1 X7.542 Y-3.559 E0.14466
G1 X7.723 Y-4.328 E0.18407
G1 X8.053 Y-5.271 E0.23392
G1 X8.451 Y-6.106 E0.28007
G1 X8.861 Y-6.781 E0.31947
G1 X9.277 Y-7.347 E0.35451
G1 X9.96 Y-8.127 E0.40624
G1 X12.88 Y-11.045 E0.61219
G1 X13.741 Y-11.798 E0.66925
G1 X14.511 Y-12.327 E0.71586
G1 X15.203 Y-12.707 E0.75525
G1 X15.93 Y-13.017 E0.79468
G1 X15.931 Y-20.322 E1.15912
G1 X15.971 Y-21.11 E1.19849
G1 X16.091 Y-21.891 E1.23791
G1 X16.25 Y-22.541 E1.2713
G1 X16.49 Y-23.293 E1.31068
G1 X16.805 Y-24.018 E1.35011
G1 X17.192 Y-24.706 E1.3895
G1 X17.646 Y-25.352 E1.42889
G1 X18.159 Y-25.957 E1.46846
G1 X18.817 Y-26.602 E1.51443
G1 X19.434 Y-27.095 E1.55383
G1 X20.098 Y-27.523 E1.59325
G1 X20.801 Y-27.882 E1.63263
G1 X21.95 Y-28.302 E1.69366
G1 X22.875 Y-28.516 E1.74103
G1 X23.658 Y-28.616 E1.78041
G1 X24.246 Y-28.639 E1.80977
G1 X26.779 Y-28.641 E1.93614
G1 X27.568 Y-28.602 E1.97555
G1 X28.348 Y-28.483 E2.01491
G1 X29.36 Y-28.213 E2.06717
G1 X30.225 Y-27.875 E2.1135
G1 X30.929 Y-27.516 E2.15293
G1 X31.592 Y-27.087 E2.19233
G1 X32.208 Y-26.594 E2.23169
G1 X32.693 Y-26.129 E2.26521
G1 X33.225 Y-25.545 E2.30462
G1 X33.694 Y-24.91 E2.34401
G1 X34.097 Y-24.231 E2.3834
G1 X34.429 Y-23.514 E2.42282
G1 X34.674 Y-22.828 E2.45916
G1 X34.886 Y-22.067 E2.49857
G1 X35.021 Y-21.289 E2.53797
G1 X35.077 Y-20.352 E2.5848
G1 X35.078 Y-2.487 E3.47609
G1 X35.038 Y-1.699 E3.51545
G1 X34.903 Y-.844 E3.55864
G1 X34.69 Y0.137 E3.60872
G1 X34.52 Y0.851 E3.64534
G1 X34.204 Y2.017 E3.70561
G1 X33.649 Y3.817 E3.79958
G1 X32.911 Y5.808 E3.90552
G1 X32.059 Y7.758 E4.01168
G1 X31.11 Y9.644 E4.11702
G1 X30.05 Y11.483 E4.22291
G1 X28.893 Y13.255 E4.3285
G1 X27.643 Y14.956 E4.43381
G1 X26.287 Y16.599 E4.54009
G1 X24.863 Y18.145 E4.64495
G1 X23.341 Y19.621 E4.75073
G1 X21.747 Y21.002 E4.85595
G1 X20.069 Y22.301 E4.96182
G1 X18.328 Y23.5 E5.06728
G1 X16.522 Y24.599 E5.17275
G1 X14.653 Y25.602 E5.27858
G1 X12.738 Y26.494 E5.38397
G1 X10.762 Y27.284 E5.49014
G1 X8.759 Y27.959 E5.5956
G1 X6.728 Y28.518 E5.70069
G1 X4.868 Y28.921 E5.79564
G1 X4.089 Y29.049 E5.83503
G1 X3.284 Y29.111 E5.87531
G1 X2.315 Y29.105 E5.92365
G1 X1.279 Y28.992 E5.97564
G1 X0.277 Y28.775 E6.02679
G1 X-0.002 Y28.685 E6.04142
G1 X-.309 Y28.783 E6.0575
G1 X-1.279 Y28.991 E6.10699
G1 X-2.286 Y29.103 E6.15754
G1 X-3.325 Y29.112 E6.20938
G1 X-4.344 Y29.016 E6.26044
G1 X-4.865 Y28.922 E6.28685
G1 X-6.736 Y28.517 E6.38236
G1 X-8.758 Y27.96 E6.48699
G1 X-10.767 Y27.283 E6.59276
G1 X-12.764 Y26.483 E6.70009
G1 X-14.672 Y25.593 E6.80513
G1 X-16.523 Y24.599 E6.90995
G1 X-18.337 Y23.495 E7.01589
G1 X-20.069 Y22.302 E7.12081
G1 X-21.745 Y21.004 E7.22657
G1 X-23.355 Y19.608 E7.33289
G1 X-24.873 Y18.133 E7.43848
G1 X-26.303 Y16.582 E7.54373
G1 X-27.647 Y14.951 E7.64917
G1 X-28.899 Y13.247 E7.75466
G1 X-30.054 Y11.476 E7.86015
G1 X-31.12 Y9.625 E7.96672
G1 X-32.069 Y7.736 E8.07218
G1 X-32.912 Y5.804 E8.17735
G1 X-33.65 Y3.813 E8.28328
G1 X-34.204 Y2.017 E8.37705
G1 X-34.519 Y0.849 E8.43741
G1 X-34.727 Y-0.027 E8.48232
G1 X-34.902 Y-.839 E8.52377
G1 X-35.029 Y-1.618 E8.56314
G1 X-35.077 Y-2.482 E8.60631
G1 X-35.076 Y-20.351 E9.4978
G1 X-35.036 Y-21.14 E9.53722
G1 X-34.916 Y-21.921 E9.57664
G1 X-34.637 Y-22.958 E9.63021
G1 X-34.294 Y-23.825 E9.67673
G1 X-33.931 Y-24.527 E9.71616
G1 X-33.499 Y-25.188 E9.75555
G1 X-32.682 Y-26.148 E9.81845
G1 X-31.999 Y-26.774 E9.86467
G1 X-31.365 Y-27.246 E9.9041
G1 X-30.687 Y-27.651 E9.9435
G1 X-29.972 Y-27.985 E9.98287
G1 X-29.35 Y-28.215 E10.01596
G1 X-28.492 Y-28.453 E10.06038
G1 X-27.713 Y-28.587 E10.09982
G1 X-26.768 Y-28.642 E10.14704
G1 X-24.213 Y-28.636 E10.27451
G1 X-23.424 Y-28.594 E10.31393
G1 X-22.644 Y-28.473 E10.35331
G1 X-21.847 Y-28.271 E10.39433
G1 X-20.993 Y-27.965 E10.43959
G1 X-20.28 Y-27.625 E10.479
G1 X-19.605 Y-27.215 E10.5184
G1 X-18.975 Y-26.738 E10.55782
G1 X-18.146 Y-25.943 E10.61513
G1 X-17.538 Y-25.209 E10.66268
G1 X-17.099 Y-24.552 E10.7021
G1 X-16.728 Y-23.855 E10.74149
G1 X-16.43 Y-23.124 E10.78088
G1 X-16.225 Y-22.463 E10.8154
G1 X-16.036 Y-21.596 E10.85967
G1 X-15.931 Y-20.681 E10.90562
G1 X-15.931 Y-13.043 E11.28668
G1 X-14.889 Y-12.546 E11.34428
G1 X-14.215 Y-12.136 E11.38364
G1 X-13.648 Y-11.717 E11.41881
G1 X-12.874 Y-11.039 E11.47015
G1 X-9.957 Y-8.122 E11.67596
G1 X-9.208 Y-7.268 E11.73263
G1 X-8.678 Y-6.499 E11.77922
G1 X-8.299 Y-5.807 E11.81859
G1 X-8.001 Y-5.122 E11.85586
G1 X-7.739 Y-4.378 E11.89521
G1 X-7.553 Y-3.61 E11.93463
G1 X-7.453 Y-2.951 E11.96789
G1 X-7.386 Y-2.164 E12.00729
G1 X-7.411 Y-1.076 E12.06159
G1 X-7.543 Y-0.062 E12.1126
G1 X-7.723 Y0.707 E12.152
G1 X-8.05 Y1.64 E12.20133
G1 X-8.445 Y2.474 E12.24737
G1 X-8.854 Y3.15 E12.28679
G1 X-9.051 Y3.423 E12.30358
G1 X-8.623 Y4.234 E12.34933
G1 X-8.235 Y4.858 E12.38599
G1 X-7.793 Y5.46 E12.42325
G1 X-7.319 Y6.015 E12.45966
G1 X-6.793 Y6.545 E12.49692
G1 X-6.239 Y7.026 E12.53352
G1 X-5.633 Y7.476 E12.57118
G1 X-5.013 Y7.871 E12.60785
G1 X-4.372 Y8.213 E12.6441
G1 X-3.67 Y8.524 E12.68241
G1 X-3.003 Y8.763 E12.71775
G1 X-1.808 Y9.092 E12.77959
G1 X-1.162 Y9.306 E12.81354
G1 X-1.013 Y9.283 E12.82106
G1 X0.019 Y9.232 E12.87261
G1 X1.038 Y9.286 E12.92352
G1 X1.19 Y9.309 E12.93119
G1 X1.816 Y9.089 E12.9643
G1 X2.987 Y8.768 E13.02487
G1 X3.679 Y8.521 E13.06153
G1 X4.368 Y8.215 E13.09914
G1 X5.016 Y7.869 E13.13579
G1 X5.651 Y7.464 E13.17337
G1 X6.233 Y7.031 E13.20956
G1 X6.796 Y6.542 E13.24676
G1 X7.32 Y6.014 E13.28387
G1 X7.798 Y5.455 E13.32057
G1 X8.236 Y4.856 E13.35759
G1 X8.621 Y4.238 E13.39392
G1 X9.052 Y3.42 E13.44004
G1 X8.678 Y2.876 E13.47298
G1 X8.298 Y2.184 E13.51237
G1 X8.001 Y1.5 E13.54957
G1 X7.739 Y0.756 E13.58892
G1 X7.553 Y-0.012 E13.62835
G1 X7.453 Y-.671 E13.6616
G0 F3600 X7.862 Y-.572
G1 F1800 X7.786 Y-1.492 E13.70765
G1 X7.81 Y-2.517 E13.75881
G1 X7.94 Y-3.508 E13.80867
G1 X8.118 Y-4.256 E13.84703
G1 X8.425 Y-5.123 E13.89292
G1 X8.812 Y-5.934 E13.93775
G1 X9.502 Y-6.998 E14.00102
G1 X10.243 Y-7.844 E14.05713
G1 X13.163 Y-10.762 E14.26308
G1 X13.984 Y-11.48 E14.31749
G1 X14.737 Y-11.997 E14.36306
G1 X15.756 Y-12.516 E14.42011
G1 X16.33 Y-12.735 E14.45076
G1 X16.331 Y-20.322 E14.82928
G1 X16.371 Y-21.09 E14.86765
G1 X16.594 Y-22.306 E14.92933
G1 X16.872 Y-23.171 E14.97465
G1 X17.181 Y-23.875 E15.01301
G1 X17.562 Y-24.544 E15.05142
G1 X18.011 Y-25.169 E15.08981
G1 X18.464 Y-25.696 E15.12449
G1 X19.097 Y-26.316 E15.16869
G1 X19.7 Y-26.794 E15.20708
G1 X20.349 Y-27.206 E15.24543
G1 X21.038 Y-27.55 E15.28385
G1 X22.067 Y-27.919 E15.33839
G1 X22.965 Y-28.126 E15.38437
G1 X23.728 Y-28.22 E15.42272
G1 X24.246 Y-28.239 E15.44858
G1 X26.779 Y-28.241 E15.57495
G1 X27.547 Y-28.202 E15.61332
G1 X28.307 Y-28.083 E15.6517
G1 X29.238 Y-27.831 E15.69982
G1 X30.08 Y-27.502 E15.74492
G1 X30.763 Y-27.149 E15.78327
G1 X31.407 Y-26.728 E15.82166
G1 X32.32 Y-25.946 E15.88163
G1 X32.928 Y-25.276 E15.92677
G1 X33.383 Y-24.655 E15.96518
G1 X33.771 Y-23.991 E16.00355
G1 X34.253 Y-22.85 E16.06534
G1 X34.5 Y-21.96 E16.11142
G1 X34.628 Y-21.201 E16.14982
G1 X34.677 Y-20.352 E16.19225
G1 X34.678 Y-2.487 E17.08354
G1 X34.638 Y-1.719 E17.12191
G1 X34.512 Y-.929 E17.16182
G1 X34.301 Y0.044 E17.21149
G1 X34.131 Y0.758 E17.24811
G1 X33.894 Y1.647 E17.29401
G1 X33.268 Y3.694 E17.4008
G1 X32.537 Y5.666 E17.50573
G1 X31.7 Y7.582 E17.61004
G1 X30.757 Y9.457 E17.71475
G1 X29.71 Y11.273 E17.81933
G1 X28.566 Y13.025 E17.92372
G1 X27.322 Y14.718 E18.02854
G1 X25.994 Y16.328 E18.13266
G1 X24.581 Y17.861 E18.23667
G1 X23.075 Y19.321 E18.34132
G1 X21.483 Y20.701 E18.44643
G1 X19.831 Y21.98 E18.55066
G1 X18.119 Y23.159 E18.65437
G1 X16.311 Y24.259 E18.75995
G1 X14.472 Y25.245 E18.86406
G1 X12.578 Y26.127 E18.96829
G1 X10.629 Y26.907 E19.07303
G1 X8.653 Y27.573 E19.17706
G1 X6.626 Y28.131 E19.28195
G1 X4.784 Y28.53 E19.37598
G1 X4.024 Y28.654 E19.41439
G1 X3.087 Y28.711 E19.46123
G1 X2.318 Y28.705 E19.4996
G1 X1.334 Y28.595 E19.54899
G1 X0.362 Y28.383 E19.59863
G1 X-0.002 Y28.265 E19.61772
G1 X-.431 Y28.402 E19.64018
G1 X-1.35 Y28.597 E19.68705
G1 X-2.33 Y28.705 E19.73624
G1 X-3.315 Y28.713 E19.78539
G1 X-4.444 Y28.604 E19.84197
G1 X-6.638 Y28.129 E19.95397
G1 X-8.651 Y27.574 E20.05815
G1 X-10.633 Y26.906 E20.16249
G1 X-12.589 Y26.123 E20.26761
G1 X-14.493 Y25.235 E20.37242
G1 X-16.326 Y24.25 E20.47624
G1 X-18.124 Y23.156 E20.58124
G1 X-19.835 Y21.977 E20.6849
G1 X-21.481 Y20.702 E20.78878
G1 X-23.087 Y19.311 E20.89478
G1 X-24.583 Y17.857 E20.99886
G1 X-26.008 Y16.311 E21.10375
G1 X-27.333 Y14.703 E21.2077
G1 X-28.566 Y13.025 E21.31159
G1 X-29.723 Y11.251 E21.41726
G1 X-30.767 Y9.439 E21.52159
G1 X-31.699 Y7.583 E21.6252
G1 X-32.544 Y5.647 E21.73059
G1 X-33.269 Y3.689 E21.83476
G1 X-33.898 Y1.632 E21.94207
G1 X-34.13 Y0.756 E21.98728
G1 X-34.336 Y-.111 E22.03174
G1 X-34.511 Y-.923 E22.07318
G1 X-34.634 Y-1.682 E22.11154
G1 X-34.677 Y-2.482 E22.15151
G1 X-34.676 Y-20.351 E23.043
G1 X-34.636 Y-21.12 E23.08142
G1 X-34.516 Y-21.879 E23.11975
G1 X-34.256 Y-22.835 E23.16918
G1 X-33.921 Y-23.678 E23.21444
G1 X-33.565 Y-24.359 E23.25278
G1 X-33.14 Y-25.001 E23.29119
G1 X-32.395 Y-25.87 E23.34829
G1 X-31.729 Y-26.479 E23.39332
G1 X-31.11 Y-26.935 E23.43168
G1 X-30.447 Y-27.325 E23.47005
G1 X-29.747 Y-27.644 E23.50843
G1 X-29.126 Y-27.862 E23.54126
G1 X-28.385 Y-28.067 E23.57962
G1 X-27.626 Y-28.194 E23.61802
G1 X-26.769 Y-28.242 E23.66084
G1 X-24.214 Y-28.236 E23.78831
G1 X-23.446 Y-28.194 E23.82668
G1 X-22.686 Y-28.073 E23.86507
G1 X-21.958 Y-27.886 E23.90257
G1 X-21.128 Y-27.588 E23.94657
G1 X-20.435 Y-27.254 E23.98495
G1 X-19.781 Y-26.85 E24.0233
G1 X-19.171 Y-26.38 E24.06172
G1 X-18.435 Y-25.667 E24.11285
G1 X-17.847 Y-24.954 E24.15895
G1 X-17.422 Y-24.313 E24.19732
G1 X-17.065 Y-23.631 E24.23573
G1 X-16.782 Y-22.916 E24.27409
G1 X-16.59 Y-22.263 E24.30805
G1 X-16.427 Y-21.511 E24.34644
G1 X-16.331 Y-20.638 E24.39025
G1 X-16.331 Y-12.745 E24.78404
G1 X-15.756 Y-12.516 E24.81492
G1 X-15.062 Y-12.185 E24.85328
G1 X-13.999 Y-11.494 E24.91653
G1 X-13.156 Y-10.757 E24.97239
G1 X-10.239 Y-7.84 E25.1782
G1 X-9.525 Y-7.024 E25.2323
G1 X-9.008 Y-6.273 E25.27779
G1 X-8.641 Y-5.597 E25.31616
G1 X-8.372 Y-4.971 E25.35015
G1 X-8.117 Y-4.245 E25.38854
G1 X-7.862 Y-3.05 E25.4495
G1 X-7.786 Y-2.13 E25.49556
G1 X-7.81 Y-1.105 E25.54671
G1 X-7.94 Y-.114 E25.59658
G1 X-8.119 Y0.634 E25.63495
G1 X-8.421 Y1.491 E25.68028
G1 X-8.807 Y2.302 E25.72509
G1 X-9.208 Y2.959 E25.76349
G1 X-9.501 Y3.359 E25.78823
G1 X-9.333 Y3.745 E25.80923
G1 X-8.969 Y4.437 E25.84824
G1 X-8.567 Y5.081 E25.88612
G1 X-8.107 Y5.709 E25.92495
G1 X-7.609 Y6.291 E25.96317
G1 X-7.07 Y6.834 E26.00134
G1 X-6.478 Y7.348 E26.04045
G1 X-5.874 Y7.796 E26.07797
G1 X-5.222 Y8.211 E26.11653
G1 X-4.533 Y8.58 E26.15552
G1 X-3.828 Y8.892 E26.19399
G1 X-3.114 Y9.148 E26.23183
G1 X-1.914 Y9.478 E26.29392
G1 X-1.197 Y9.716 E26.33161
G1 X-.953 Y9.679 E26.34392
G1 X0.024 Y9.632 E26.39272
G1 X1.016 Y9.686 E26.44228
G1 X1.222 Y9.718 E26.45269
G1 X1.922 Y9.474 E26.48967
G1 X3.121 Y9.145 E26.5517
G1 X3.825 Y8.894 E26.58899
G1 X4.546 Y8.574 E26.62834
G1 X5.22 Y8.213 E26.66649
G1 X5.867 Y7.801 E26.70476
G1 X6.493 Y7.336 E26.74366
G1 X7.067 Y6.837 E26.78161
G1 X7.606 Y6.294 E26.81978
G1 X8.122 Y5.69 E26.85941
G1 X8.558 Y5.094 E26.89625
G1 X8.972 Y4.43 E26.93529
G1 X9.338 Y3.734 E26.97452
G1 X9.501 Y3.359 E26.99492
G1 X9.008 Y2.649 E27.03804
G1 X8.641 Y1.973 E27.07642
G1 X8.372 Y1.349 E27.11032
G1 X8.117 Y0.623 E27.14871
G1 X7.862 Y-.572 E27.20967
G0 F3600 X8.258 Y-.628
G1 F1800 X8.185 Y-1.525 E27.25457
G1 X8.208 Y-2.493 E27.30288
G1 X8.337 Y-3.455 E27.3513
G1 X8.514 Y-4.182 E27.38863
G1 X8.796 Y-4.975 E27.43062
G1 X9.174 Y-5.761 E27.47413
G1 X9.821 Y-6.756 E27.53335
G1 X10.526 Y-7.561 E27.58673
G1 X13.446 Y-10.479 E27.79268
G1 X14.228 Y-11.165 E27.84458
G1 X14.964 Y-11.667 E27.88903
G1 X16.005 Y-12.195 E27.94726
G1 X16.73 Y-12.453 E27.98566
G1 X16.731 Y-20.321 E28.37819
G1 X16.771 Y-21.068 E28.41551
G1 X16.981 Y-22.206 E28.47325
G1 X17.253 Y-23.049 E28.51744
G1 X17.557 Y-23.732 E28.55474
G1 X17.933 Y-24.379 E28.59207
G1 X18.375 Y-24.983 E28.62941
G1 X18.842 Y-25.507 E28.66443
G1 X19.377 Y-26.029 E28.70172
G1 X19.966 Y-26.491 E28.73907
G1 X20.6 Y-26.888 E28.77639
G1 X21.273 Y-27.215 E28.81372
G1 X22.185 Y-27.537 E28.86197
G1 X23.055 Y-27.736 E28.9065
G1 X23.922 Y-27.839 E28.95006
G1 X26.779 Y-27.841 E29.09259
G1 X27.526 Y-27.802 E29.12991
G1 X28.265 Y-27.683 E29.16725
G1 X29.117 Y-27.449 E29.21133
G1 X29.934 Y-27.129 E29.25511
G1 X30.597 Y-26.783 E29.29242
G1 X31.22 Y-26.368 E29.32977
G1 X32.041 Y-25.659 E29.38389
G1 X32.631 Y-25.007 E29.42776
G1 X33.071 Y-24.402 E29.46508
G1 X33.443 Y-23.753 E29.5024
G1 X33.875 Y-22.717 E29.5584
G1 X34.114 Y-21.853 E29.60312
G1 X34.235 Y-21.114 E29.64048
G1 X34.277 Y-20.352 E29.67856
G1 X34.278 Y-2.487 E30.56984
G1 X34.238 Y-1.74 E30.60717
G1 X34.121 Y-1.013 E30.6439
G1 X33.912 Y-0.049 E30.69311
G1 X33.742 Y0.665 E30.72973
G1 X33.508 Y1.543 E30.77506
G1 X32.889 Y3.565 E30.88056
G1 X32.169 Y5.508 E30.98394
G1 X31.334 Y7.421 E31.08808
G1 X30.41 Y9.257 E31.19062
G1 X29.366 Y11.068 E31.29491
G1 X28.233 Y12.803 E31.39829
G1 X27.015 Y14.461 E31.50093
G1 X25.691 Y16.065 E31.60469
G1 X24.292 Y17.585 E31.70776
G1 X22.798 Y19.033 E31.81156
G1 X21.23 Y20.391 E31.91505
G1 X19.605 Y21.649 E32.01757
G1 X17.878 Y22.839 E32.12221
G1 X16.123 Y23.907 E32.2247
G1 X14.306 Y24.881 E32.32756
G1 X12.409 Y25.764 E32.43195
G1 X10.495 Y26.53 E32.5348
G1 X8.538 Y27.189 E32.63782
G1 X6.527 Y27.742 E32.74188
G1 X4.699 Y28.139 E32.8352
G1 X3.96 Y28.258 E32.87255
G1 X3.069 Y28.311 E32.91708
G1 X2.321 Y28.304 E32.9544
G1 X1.395 Y28.199 E33.00089
G1 X0.447 Y27.992 E33.0493
G1 X-0.002 Y27.846 E33.07286
G1 X-.552 Y28.02 E33.10164
G1 X-1.421 Y28.203 E33.14594
G1 X-2.374 Y28.307 E33.19377
G1 X-3.305 Y28.312 E33.24022
G1 X-4.391 Y28.206 E33.29466
G1 X-6.532 Y27.743 E33.40394
G1 X-8.543 Y27.188 E33.50802
G1 X-10.482 Y26.535 E33.6101
G1 X-12.45 Y25.747 E33.71586
G1 X-14.305 Y24.882 E33.81797
G1 X-16.137 Y23.898 E33.92172
G1 X-17.903 Y22.823 E34.02487
G1 X-19.597 Y21.656 E34.12749
G1 X-21.228 Y20.392 E34.23044
G1 X-22.811 Y19.021 E34.33492
G1 X-24.301 Y17.573 E34.43857
G1 X-25.705 Y16.05 E34.54192
G1 X-27.027 Y14.446 E34.64562
G1 X-28.232 Y12.804 E34.74723
G1 X-29.374 Y11.055 E34.85144
G1 X-30.412 Y9.252 E34.95524
G1 X-31.347 Y7.392 E35.0591
G1 X-32.163 Y5.52 E35.16098
G1 X-32.895 Y3.546 E35.26601
G1 X-33.512 Y1.529 E35.37125
G1 X-33.696 Y0.842 E35.40673
G1 X-33.945 Y-.195 E35.45993
G1 X-34.12 Y-1.007 E35.50138
G1 X-34.238 Y-1.746 E35.53871
G1 X-34.277 Y-2.482 E35.57548
G1 X-34.276 Y-20.351 E36.46697
G1 X-34.236 Y-21.098 E36.50429
G1 X-34.116 Y-21.837 E36.54164
G1 X-33.875 Y-22.711 E36.58687
G1 X-33.549 Y-23.53 E36.63085
G1 X-33.2 Y-24.191 E36.66814
G1 X-32.782 Y-24.812 E36.70549
G1 X-32.106 Y-25.594 E36.75706
G1 X-31.459 Y-26.182 E36.80068
G1 X-30.855 Y-26.624 E36.83802
G1 X-30.207 Y-26.998 E36.87535
G1 X-29.146 Y-27.443 E36.93275
G1 X-28.278 Y-27.681 E36.97765
G1 X-27.54 Y-27.801 E37.01495
G1 X-26.77 Y-27.842 E37.05342
G1 X-24.215 Y-27.836 E37.18089
G1 X-23.468 Y-27.794 E37.21822
G1 X-22.729 Y-27.673 E37.25558
G1 X-22.067 Y-27.501 E37.2897
G1 X-21.264 Y-27.211 E37.3323
G1 X-20.591 Y-26.883 E37.36965
G1 X-19.958 Y-26.486 E37.40693
G1 X-19.37 Y-26.023 E37.44427
G1 X-18.724 Y-25.39 E37.48939
G1 X-18.156 Y-24.699 E37.53401
G1 X-17.745 Y-24.074 E37.57133
G1 X-17.404 Y-23.408 E37.60866
G1 X-17.005 Y-22.295 E37.66765
G1 X-16.819 Y-21.426 E37.71199
G1 X-16.731 Y-20.321 E37.76729
G1 X-16.731 Y-12.437 E38.16062
G1 X-16.048 Y-12.213 E38.19648
G1 X-15.235 Y-11.823 E38.24147
G1 X-14.241 Y-11.175 E38.30067
G1 X-13.439 Y-10.474 E38.35381
G1 X-10.522 Y-7.557 E38.55962
