;FLAVOR:Marlin
;TIME:515
;Filament used: 0.25874m
;Layer height: 0.1
;MINX:-12.075
;MINY:-14.75
;MINZ:0.3
;MAXX:12.075
;MAXY:9.9
;MAXZ:7.5
;Generated with Cura_SteamEngine 5.2.1
M140 S60
M105
M190 S60
M104 S200
M105
M109 S200
M82 ;absolute extrusion mode
G28 ;Home
G1 Z15.0 F6000 ;Move the platform down 15mm
;Prime the extruder
G92 E0
G1 F200 E3
G92 E0
M141 S28
G92 E0
G92 E0
G1 F1500 E-6.5
;LAYER_COUNT:73
;LAYER:0
M107
G0 F3600 X-3.841 Y9.899 Z0.3
;TYPE:SKIRT
G1 F1500 E0
G1 F1800 X-4.63 Y9.859 E0.03941
G1 X-5.41 Y9.739 E0.07879
G1 X-6.175 Y9.541 E0.11821
G1 X-6.915 Y9.267 E0.15758
G1 X-7.509 Y8.987 E0.19034
G1 X-8.2 Y8.603 E0.22978
G1 X-8.848 Y8.152 E0.26917
G1 X-9.447 Y7.637 E0.30858
G1 X-9.99 Y7.064 E0.34796
G1 X-10.699 Y6.12 E0.40686
G1 X-11.204 Y5.254 E0.45688
G1 X-11.531 Y4.535 E0.49628
G1 X-11.783 Y3.787 E0.53566
G1 X-11.958 Y3.017 E0.57506
G1 X-12.055 Y2.233 E0.61447
G1 X-12.075 Y1.672 E0.64248
G1 X-12.075 Y-6.523 E1.05133
G1 X-12.035 Y-7.312 E1.09074
G1 X-11.916 Y-8.092 E1.13011
G1 X-11.718 Y-8.857 E1.16953
G1 X-11.372 Y-9.781 E1.21875
G1 X-10.952 Y-10.623 E1.2657
G1 X-10.53 Y-11.291 E1.30512
G1 X-10.042 Y-11.912 E1.34452
G1 X-9.494 Y-12.481 E1.38393
G1 X-8.892 Y-12.991 E1.4233
G1 X-8.241 Y-13.438 E1.46269
G1 X-7.473 Y-13.865 E1.50653
G1 X-6.598 Y-14.247 E1.55417
G1 X-5.846 Y-14.488 E1.59356
G1 X-5.073 Y-14.652 E1.63299
G1 X-4.168 Y-14.75 E1.6784
G1 X3.841 Y-14.749 E2.07797
G1 X4.63 Y-14.709 E2.11739
G1 X5.41 Y-14.589 E2.15676
G1 X6.175 Y-14.391 E2.19618
G1 X6.915 Y-14.117 E2.23555
G1 X7.509 Y-13.837 E2.26831
G1 X8.2 Y-13.453 E2.30775
G1 X8.848 Y-13.002 E2.34714
G1 X9.447 Y-12.487 E2.38655
G1 X9.99 Y-11.914 E2.42593
G1 X10.699 Y-10.97 E2.48483
G1 X11.204 Y-10.104 E2.53485
G1 X11.531 Y-9.385 E2.57426
G1 X11.783 Y-8.637 E2.61363
G1 X11.958 Y-7.867 E2.65303
G1 X12.055 Y-7.083 E2.69244
G1 X12.075 Y-6.522 E2.72045
G1 X12.075 Y1.673 E3.1293
G1 X12.035 Y2.462 E3.16871
G1 X11.916 Y3.242 E3.20808
G1 X11.718 Y4.007 E3.2475
G1 X11.372 Y4.931 E3.29672
G1 X10.952 Y5.773 E3.34367
G1 X10.53 Y6.441 E3.38309
G1 X10.042 Y7.062 E3.42249
G1 X9.494 Y7.631 E3.4619
G1 X8.892 Y8.141 E3.50127
G1 X8.241 Y8.588 E3.54066
G1 X7.473 Y9.015 E3.5845
G1 X6.598 Y9.397 E3.63214
G1 X5.846 Y9.638 E3.67153
G1 X5.073 Y9.802 E3.71096
G1 X4.168 Y9.9 E3.75637
G1 X-3.841 Y9.899 E4.15594
G0 F3600 X-3.841 Y9.499
G1 F1800 X-4.609 Y9.459 E4.19431
G1 X-5.369 Y9.339 E4.2327
G1 X-6.112 Y9.142 E4.27105
G1 X-7.203 Y8.701 E4.32975
G1 X-8.005 Y8.253 E4.37559
G1 X-8.634 Y7.811 E4.41394
G1 X-9.214 Y7.306 E4.45231
G1 X-9.738 Y6.743 E4.49068
G1 X-10.369 Y5.892 E4.54353
G1 X-10.858 Y5.052 E4.59202
G1 X-11.173 Y4.351 E4.63037
G1 X-11.414 Y3.62 E4.66877
G1 X-11.578 Y2.869 E4.70712
G1 X-11.675 Y1.986 E4.75144
G1 X-11.675 Y-6.523 E5.17595
G1 X-11.635 Y-7.291 E5.21432
G1 X-11.516 Y-8.051 E5.2527
G1 X-11.318 Y-8.794 E5.29106
G1 X-11.002 Y-9.628 E5.33555
G1 X-10.593 Y-10.444 E5.38109
G1 X-10.18 Y-11.093 E5.41947
G1 X-9.701 Y-11.695 E5.45785
G1 X-9.162 Y-12.244 E5.49624
G1 X-8.569 Y-12.734 E5.53461
G1 X-7.929 Y-13.16 E5.57297
G1 X-7.274 Y-13.516 E5.61016
G1 X-6.438 Y-13.88 E5.65565
G1 X-5.704 Y-14.112 E5.69406
G1 X-4.951 Y-14.266 E5.7324
G1 X-3.841 Y-14.35 E5.78794
G1 X3.841 Y-14.349 E6.1712
G1 X4.609 Y-14.309 E6.20956
G1 X5.369 Y-14.189 E6.24795
G1 X6.112 Y-13.992 E6.2863
G1 X7.203 Y-13.551 E6.34501
G1 X8.005 Y-13.103 E6.39084
G1 X8.634 Y-12.661 E6.42919
G1 X9.214 Y-12.156 E6.46756
G1 X9.738 Y-11.593 E6.50593
G1 X10.369 Y-10.742 E6.55879
G1 X10.858 Y-9.902 E6.60728
G1 X11.173 Y-9.201 E6.64562
G1 X11.414 Y-8.47 E6.68402
G1 X11.578 Y-7.719 E6.72237
G1 X11.675 Y-6.836 E6.76669
G1 X11.675 Y1.673 E7.19121
G1 X11.635 Y2.441 E7.22957
G1 X11.516 Y3.201 E7.26795
G1 X11.318 Y3.944 E7.30631
G1 X11.002 Y4.778 E7.35081
G1 X10.593 Y5.594 E7.39635
G1 X10.18 Y6.243 E7.43473
G1 X9.701 Y6.845 E7.47311
G1 X9.162 Y7.394 E7.51149
G1 X8.569 Y7.884 E7.54987
G1 X7.929 Y8.31 E7.58823
G1 X7.274 Y8.666 E7.62542
G1 X6.438 Y9.03 E7.67091
G1 X5.704 Y9.262 E7.70931
G1 X4.951 Y9.416 E7.74766
G1 X3.841 Y9.5 E7.8032
G1 X-3.841 Y9.499 E8.18645
G0 F3600 X-3.841 Y9.099
G1 F1800 X-4.588 Y9.059 E8.22377
G1 X-5.326 Y8.939 E8.26108
G1 X-6.048 Y8.742 E8.29841
G1 X-7.032 Y8.339 E8.35146
G1 X-7.81 Y7.903 E8.39596
G1 X-8.42 Y7.471 E8.43325
G1 X-8.98 Y6.975 E8.47057
G1 X-9.484 Y6.423 E8.50786
G1 X-10.042 Y5.662 E8.55494
G1 X-10.511 Y4.851 E8.60168
G1 X-10.815 Y4.168 E8.63898
G1 X-11.044 Y3.456 E8.67629
G1 X-11.196 Y2.723 E8.71364
G1 X-11.275 Y1.672 E8.76622
G1 X-11.275 Y-6.523 E9.17507
G1 X-11.235 Y-7.27 E9.21239
G1 X-11.116 Y-8.008 E9.24969
G1 X-10.918 Y-8.73 E9.28704
G1 X-10.632 Y-9.475 E9.32685
G1 X-10.235 Y-10.265 E9.37096
G1 X-9.83 Y-10.894 E9.40829
G1 X-9.36 Y-11.476 E9.44561
G1 X-8.831 Y-12.004 E9.4829
G1 X-8.248 Y-12.473 E9.52023
G1 X-7.619 Y-12.877 E9.55752
G1 X-6.965 Y-13.215 E9.59425
G1 X-6.278 Y-13.512 E9.63159
G1 X-5.564 Y-13.735 E9.66891
G1 X-4.83 Y-13.88 E9.70624
G1 X-3.841 Y-13.95 E9.7557
G1 X3.841 Y-13.949 E10.13896
G1 X4.588 Y-13.909 E10.17628
G1 X5.326 Y-13.789 E10.21358
G1 X6.048 Y-13.592 E10.25092
G1 X7.032 Y-13.189 E10.30397
G1 X7.81 Y-12.753 E10.34846
G1 X8.42 Y-12.321 E10.38575
G1 X8.98 Y-11.825 E10.42308
G1 X9.484 Y-11.273 E10.46037
G1 X10.042 Y-10.512 E10.50745
G1 X10.511 Y-9.701 E10.55419
G1 X10.815 Y-9.018 E10.59148
G1 X11.044 Y-8.306 E10.6288
G1 X11.196 Y-7.573 E10.66615
G1 X11.275 Y-6.522 E10.71873
G1 X11.275 Y1.673 E11.12758
G1 X11.235 Y2.42 E11.1649
G1 X11.116 Y3.158 E11.20219
G1 X10.918 Y3.88 E11.23954
G1 X10.632 Y4.625 E11.27936
G1 X10.235 Y5.415 E11.32347
G1 X9.83 Y6.044 E11.36079
G1 X9.36 Y6.626 E11.39811
G1 X8.831 Y7.154 E11.4354
G1 X8.248 Y7.623 E11.47273
G1 X7.619 Y8.027 E11.51003
G1 X6.965 Y8.365 E11.54676
G1 X6.278 Y8.662 E11.5841
G1 X5.564 Y8.885 E11.62141
G1 X4.83 Y9.03 E11.65874
G1 X3.841 Y9.1 E11.70821
G1 X-3.841 Y9.099 E12.09146
G0 F3600 X-3.841 Y8.699
G1 F1800 X-4.566 Y8.659 E12.12769
G1 X-5.283 Y8.539 E12.16396
G1 X-5.982 Y8.342 E12.20019
G1 X-6.86 Y7.977 E12.24763
G1 X-7.614 Y7.554 E12.29076
G1 X-8.204 Y7.131 E12.32698
G1 X-8.744 Y6.645 E12.36322
G1 X-9.228 Y6.104 E12.39944
G1 X-9.715 Y5.429 E12.44096
G1 X-10.164 Y4.651 E12.48578
G1 X-10.456 Y3.986 E12.52201
G1 X-10.673 Y3.292 E12.55829
G1 X-10.812 Y2.58 E12.59448
G1 X-10.875 Y1.672 E12.63989
G1 X-10.875 Y-6.523 E13.04874
G1 X-10.835 Y-7.248 E13.08497
G1 X-10.716 Y-7.965 E13.12123
G1 X-10.518 Y-8.664 E13.15747
G1 X-10.262 Y-9.322 E13.1927
G1 X-9.878 Y-10.085 E13.23531
G1 X-9.481 Y-10.693 E13.27154
G1 X-9.02 Y-11.255 E13.30781
G1 X-8.501 Y-11.762 E13.344
G1 X-7.928 Y-12.209 E13.38026
G1 X-6.971 Y-12.777 E13.43578
G1 X-6.119 Y-13.145 E13.48208
G1 X-5.425 Y-13.357 E13.51829
G1 X-4.711 Y-13.493 E13.55455
G1 X-3.841 Y-13.55 E13.59805
G1 X3.841 Y-13.549 E13.9813
G1 X4.566 Y-13.509 E14.01753
G1 X5.283 Y-13.389 E14.0538
G1 X5.982 Y-13.192 E14.09003
G1 X6.86 Y-12.827 E14.13747
G1 X7.614 Y-12.404 E14.1806
G1 X8.204 Y-11.981 E14.21682
G1 X8.744 Y-11.495 E14.25306
G1 X9.228 Y-10.954 E14.28928
G1 X9.715 Y-10.279 E14.3308
G1 X10.164 Y-9.501 E14.37562
G1 X10.456 Y-8.836 E14.41185
G1 X10.673 Y-8.142 E14.44813
G1 X10.812 Y-7.43 E14.48432
G1 X10.875 Y-6.522 E14.52973
G1 X10.875 Y1.673 E14.93858
G1 X10.835 Y2.398 E14.97481
G1 X10.716 Y3.115 E15.01107
G1 X10.518 Y3.814 E15.04731
G1 X10.262 Y4.472 E15.08254
G1 X9.878 Y5.235 E15.12515
G1 X9.481 Y5.843 E15.16138
G1 X9.02 Y6.405 E15.19764
G1 X8.501 Y6.912 E15.23384
G1 X7.928 Y7.359 E15.2701
G1 X6.971 Y7.927 E15.32562
G1 X6.119 Y8.295 E15.37192
G1 X5.425 Y8.507 E15.40812
G1 X4.711 Y8.643 E15.44439
G1 X3.841 Y8.7 E15.48788
G1 X-3.841 Y8.699 E15.87114
G0 F3600 X-3.841 Y8.299
G1 F1800 X-4.544 Y8.259 E15.90627
G1 X-5.237 Y8.139 E15.94136
G1 X-5.913 Y7.942 E15.97649
G1 X-6.691 Y7.615 E16.01859
G1 X-7.417 Y7.205 E16.06019
G1 X-7.987 Y6.792 E16.09531
G1 X-8.507 Y6.317 E16.13044
G1 X-8.969 Y5.786 E16.16556
G1 X-9.389 Y5.196 E16.20169
G1 X-9.817 Y4.451 E16.24455
G1 X-10.097 Y3.805 E16.27968
G1 X-10.301 Y3.131 E16.31481
G1 X-10.427 Y2.439 E16.34991
G1 X-10.475 Y1.672 E16.38825
G1 X-10.475 Y-6.523 E16.7971
G1 X-10.435 Y-7.226 E16.83223
G1 X-10.316 Y-7.92 E16.86735
G1 X-10.118 Y-8.595 E16.90245
G1 X-9.838 Y-9.276 E16.93918
G1 X-9.52 Y-9.904 E16.9743
G1 X-9.133 Y-10.492 E17.00942
G1 X-8.681 Y-11.032 E17.04456
G1 X-8.172 Y-11.518 E17.07967
G1 X-7.61 Y-11.942 E17.11479
G1 X-6.781 Y-12.425 E17.16266
G1 X-5.961 Y-12.777 E17.20718
G1 X-5.287 Y-12.979 E17.24228
G1 X-4.594 Y-13.104 E17.27741
G1 X-3.841 Y-13.15 E17.31505
G1 X3.841 Y-13.149 E17.69831
G1 X4.544 Y-13.109 E17.73343
G1 X5.237 Y-12.989 E17.76852
G1 X5.913 Y-12.792 E17.80365
G1 X6.691 Y-12.465 E17.84576
G1 X7.417 Y-12.055 E17.88735
G1 X7.987 Y-11.642 E17.92247
G1 X8.507 Y-11.167 E17.95761
G1 X8.969 Y-10.636 E17.99272
G1 X9.389 Y-10.046 E18.02885
G1 X9.817 Y-9.301 E18.07172
G1 X10.097 Y-8.655 E18.10685
G1 X10.301 Y-7.981 E18.14198
G1 X10.427 Y-7.289 E18.17707
G1 X10.475 Y-6.522 E18.21541
G1 X10.475 Y1.673 E18.62426
G1 X10.435 Y2.376 E18.65939
G1 X10.316 Y3.07 E18.69452
G1 X10.118 Y3.745 E18.72961
G1 X9.838 Y4.426 E18.76635
G1 X9.52 Y5.054 E18.80147
G1 X9.133 Y5.642 E18.83659
G1 X8.681 Y6.182 E18.87172
G1 X8.172 Y6.668 E18.90683
G1 X7.61 Y7.092 E18.94195
G1 X6.781 Y7.575 E18.98982
G1 X5.961 Y7.927 E19.03434
G1 X5.287 Y8.129 E19.06944
G1 X4.594 Y8.254 E19.10458
G1 X3.841 Y8.3 E19.14221
G1 X-3.841 Y8.299 E19.52547
G0 F3600 X-3.841 Y7.899
G1 F1800 X-4.52 Y7.859 E19.5594
G1 X-5.191 Y7.74 E19.5934
G1 X-5.842 Y7.542 E19.62735
G1 X-6.522 Y7.252 E19.66423
G1 X-7.22 Y6.856 E19.70427
G1 X-7.769 Y6.453 E19.73825
G1 X-8.267 Y5.989 E19.7722
G1 X-8.707 Y5.47 E19.80615
G1 X-9.132 Y4.843 E19.84394
G1 X-9.47 Y4.252 E19.87791
G1 X-9.736 Y3.625 E19.91189
G1 X-9.928 Y2.972 E19.94584
G1 X-10.041 Y2.3 E19.97984
G1 X-10.075 Y1.672 E20.01122
G1 X-10.075 Y-6.523 E20.42007
G1 X-10.035 Y-7.203 E20.45405
G1 X-9.916 Y-7.873 E20.488
G1 X-9.719 Y-8.525 E20.52198
G1 X-9.472 Y-9.116 E20.55394
G1 X-9.163 Y-9.723 E20.58792
G1 X-8.785 Y-10.289 E20.62188
G1 X-8.343 Y-10.807 E20.65585
G1 X-7.844 Y-11.27 E20.68981
G1 X-7.294 Y-11.671 E20.72377
G1 X-6.585 Y-12.074 E20.76446
G1 X-5.803 Y-12.408 E20.80688
G1 X-5.15 Y-12.601 E20.84085
G1 X-4.479 Y-12.715 E20.87481
G1 X-3.841 Y-12.75 E20.90668
G1 X3.841 Y-12.749 E21.28994
G1 X4.52 Y-12.709 E21.32387
G1 X5.191 Y-12.59 E21.35787
G1 X5.842 Y-12.392 E21.39182
G1 X6.522 Y-12.102 E21.4287
G1 X7.22 Y-11.706 E21.46874
G1 X7.769 Y-11.303 E21.50272
G1 X8.267 Y-10.839 E21.53668
G1 X8.707 Y-10.32 E21.57062
G1 X9.132 Y-9.693 E21.60841
G1 X9.47 Y-9.102 E21.64238
G1 X9.736 Y-8.475 E21.67636
G1 X9.928 Y-7.822 E21.71032
G1 X10.041 Y-7.15 E21.74431
G1 X10.075 Y-6.522 E21.77569
G1 X10.075 Y1.673 E22.18454
G1 X10.035 Y2.353 E22.21852
G1 X9.916 Y3.023 E22.25247
G1 X9.719 Y3.675 E22.28645
G1 X9.472 Y4.266 E22.31841
G1 X9.163 Y4.873 E22.35239
G1 X8.785 Y5.439 E22.38635
G1 X8.343 Y5.957 E22.42032
G1 X7.844 Y6.42 E22.45428
G1 X7.294 Y6.821 E22.48824
G1 X6.585 Y7.224 E22.52893
G1 X5.803 Y7.558 E22.57135
G1 X5.15 Y7.751 E22.60532
G1 X4.479 Y7.865 E22.63928
G1 X3.841 Y7.9 E22.67116
G1 X-3.841 Y7.899 E23.05441
G0 F3600 X-3.841 Y7.499
G1 F1800 X-4.496 Y7.459 E23.08715
G1 X-5.142 Y7.34 E23.11992
G1 X-5.769 Y7.143 E23.15271
G1 X-6.451 Y6.833 E23.19009
G1 X-7.022 Y6.508 E23.22286
G1 X-7.549 Y6.116 E23.25563
G1 X-8.025 Y5.663 E23.28842
G1 X-8.689 Y4.815 E23.34215
G1 X-9.122 Y4.053 E23.38587
G1 X-9.375 Y3.447 E23.41864
G1 X-9.553 Y2.814 E23.45144
G1 X-9.675 Y2.014 E23.49182
G1 X-9.675 Y-6.523 E23.91773
G1 X-9.635 Y-7.179 E23.95052
G1 X-9.516 Y-7.825 E23.98329
G1 X-9.183 Y-8.802 E24.03479
G1 X-8.806 Y-9.54 E24.07613
G1 X-8.438 Y-10.085 E24.10894
G1 X-8.006 Y-10.58 E24.14172
G1 X-7.518 Y-11.019 E24.17446
G1 X-6.98 Y-11.396 E24.20724
G1 X-6.251 Y-11.783 E24.24842
G1 X-5.646 Y-12.04 E24.28121
G1 X-5.015 Y-12.221 E24.31396
G1 X-4.366 Y-12.325 E24.34675
G1 X-3.841 Y-12.35 E24.37297
G1 X3.841 Y-12.349 E24.75623
G1 X4.496 Y-12.309 E24.78897
G1 X5.142 Y-12.19 E24.82174
G1 X5.769 Y-11.993 E24.85453
G1 X6.451 Y-11.683 E24.89191
G1 X7.022 Y-11.358 E24.92468
G1 X7.549 Y-10.966 E24.95745
G1 X8.025 Y-10.513 E24.99024
G1 X8.689 Y-9.665 E25.04397
G1 X9.122 Y-8.903 E25.08769
G1 X9.375 Y-8.297 E25.12046
G1 X9.553 Y-7.664 E25.15326
G1 X9.675 Y-6.864 E25.19364
G1 X9.675 Y1.673 E25.61955
G1 X9.635 Y2.329 E25.65234
G1 X9.516 Y2.975 E25.68511
G1 X9.183 Y3.952 E25.7366
G1 X8.806 Y4.69 E25.77795
G1 X8.438 Y5.235 E25.81076
G1 X8.006 Y5.73 E25.84354
G1 X7.518 Y6.169 E25.87628
G1 X6.98 Y6.546 E25.90906
G1 X6.251 Y6.933 E25.95024
G1 X5.646 Y7.19 E25.98303
G1 X5.015 Y7.371 E26.01578
G1 X4.366 Y7.475 E26.04857
G1 X3.841 Y7.5 E26.07479
G1 X-3.841 Y7.499 E26.45805
G0 F3600 X-3.841 Y7.099
G1 F1800 X-4.472 Y7.059 E26.48959
G1 X-5.092 Y6.94 E26.52109
G1 X-5.693 Y6.743 E26.55264
G1 X-6.275 Y6.474 E26.58463
G1 X-6.823 Y6.16 E26.61614
G1 X-7.328 Y5.779 E26.6477
G1 X-7.781 Y5.337 E26.67928
G1 X-8.36 Y4.585 E26.72663
G1 X-8.773 Y3.855 E26.76847
G1 X-9.013 Y3.27 E26.80002
G1 X-9.176 Y2.66 E26.83152
G1 X-9.275 Y1.938 E26.86788
G1 X-9.275 Y-6.523 E27.29
G1 X-9.235 Y-7.154 E27.32154
G1 X-9.116 Y-7.775 E27.35309
G1 X-8.814 Y-8.65 E27.39927
G1 X-8.449 Y-9.357 E27.43896
G1 X-8.091 Y-9.878 E27.4705
G1 X-7.671 Y-10.35 E27.50202
G1 X-7.194 Y-10.765 E27.53357
G1 X-6.668 Y-11.117 E27.56514
G1 X-6.072 Y-11.425 E27.59861
G1 X-5.49 Y-11.671 E27.63014
G1 X-4.881 Y-11.841 E27.66168
G1 X-4.14 Y-11.95 E27.69905
G1 X3.841 Y-11.949 E28.09722
G1 X4.472 Y-11.909 E28.12877
G1 X5.092 Y-11.79 E28.16026
G1 X5.693 Y-11.593 E28.19182
G1 X6.275 Y-11.324 E28.2238
G1 X6.823 Y-11.01 E28.25531
G1 X7.328 Y-10.629 E28.28687
G1 X7.781 Y-10.187 E28.31845
G1 X8.36 Y-9.435 E28.3658
G1 X8.773 Y-8.705 E28.40764
G1 X9.013 Y-8.12 E28.43919
G1 X9.176 Y-7.51 E28.47069
G1 X9.275 Y-6.788 E28.50705
G1 X9.275 Y1.673 E28.92917
G1 X9.235 Y2.304 E28.96071
G1 X9.116 Y2.925 E28.99226
G1 X8.814 Y3.8 E29.03844
G1 X8.449 Y4.507 E29.07814
G1 X8.091 Y5.028 E29.10967
G1 X7.671 Y5.5 E29.14119
G1 X7.194 Y5.915 E29.17274
G1 X6.668 Y6.267 E29.20431
G1 X6.072 Y6.575 E29.23778
G1 X5.49 Y6.821 E29.26931
G1 X4.881 Y6.991 E29.30085
G1 X4.14 Y7.1 E29.33822
G1 X-3.841 Y7.099 E29.73639
G0 F3600 X-3.841 Y6.699
G1 F1800 X-4.446 Y6.659 E29.76664
G1 X-5.04 Y6.54 E29.79687
G1 X-5.966 Y6.191 E29.84624
G1 X-6.624 Y5.812 E29.88412
G1 X-7.105 Y5.443 E29.91437
G1 X-7.533 Y5.014 E29.9446
G1 X-8.033 Y4.355 E29.98587
G1 X-8.424 Y3.658 E30.02574
G1 X-8.649 Y3.095 E30.05599
G1 X-8.798 Y2.508 E30.0862
G1 X-8.875 Y1.672 E30.12809
G1 X-8.875 Y-6.523 E30.53694
G1 X-8.835 Y-7.128 E30.56719
G1 X-8.716 Y-7.722 E30.59741
G1 X-8.444 Y-8.497 E30.63839
G1 X-8.093 Y-9.173 E30.67639
G1 X-7.746 Y-9.67 E30.70663
G1 X-7.336 Y-10.117 E30.73689
G1 X-6.871 Y-10.507 E30.76717
G1 X-6.077 Y-10.99 E30.81354
G1 X-5.335 Y-11.301 E30.85367
G1 X-4.749 Y-11.46 E30.88397
G1 X-4.073 Y-11.55 E30.91799
G1 X3.841 Y-11.549 E31.31282
G1 X4.446 Y-11.509 E31.34307
G1 X5.04 Y-11.39 E31.37329
G1 X5.966 Y-11.041 E31.42266
G1 X6.624 Y-10.662 E31.46055
G1 X7.105 Y-10.293 E31.49079
G1 X7.533 Y-9.864 E31.52103
G1 X8.033 Y-9.205 E31.5623
G1 X8.424 Y-8.508 E31.60217
G1 X8.649 Y-7.945 E31.63242
G1 X8.798 Y-7.358 E31.66263
G1 X8.875 Y-6.522 E31.70452
G1 X8.875 Y1.673 E32.11337
G1 X8.835 Y2.278 E32.14361
G1 X8.716 Y2.872 E32.17384
G1 X8.444 Y3.647 E32.21482
G1 X8.093 Y4.323 E32.25282
G1 X7.746 Y4.82 E32.28306
G1 X7.336 Y5.267 E32.31332
G1 X6.871 Y5.657 E32.3436
G1 X6.077 Y6.14 E32.38996
G1 X5.335 Y6.451 E32.4301
G1 X4.749 Y6.61 E32.46039
G1 X4.073 Y6.7 E32.49442
G1 X-3.841 Y6.699 E32.88925
G0 F3600 X-3.841 Y6.299
G1 F1800 X-4.418 Y6.259 E32.91811
G1 X-4.985 Y6.14 E32.94701
G1 X-5.796 Y5.829 E32.99034
G1 X-6.423 Y5.465 E33.02651
G1 X-6.879 Y5.108 E33.05541
G1 X-7.282 Y4.692 E33.0843
G1 X-7.707 Y4.121 E33.11981
G1 X-8.074 Y3.462 E33.15745
G1 X-8.285 Y2.922 E33.18637
G1 X-8.418 Y2.359 E33.21523
G1 X-8.475 Y1.672 E33.24962
G1 X-8.475 Y-6.523 E33.65847
G1 X-8.435 Y-7.101 E33.68738
G1 X-8.316 Y-7.668 E33.71628
G1 X-8.074 Y-8.346 E33.7522
G1 X-7.737 Y-8.989 E33.78842
G1 X-7.401 Y-9.46 E33.81728
G1 X-7.003 Y-9.881 E33.84619
G1 X-6.551 Y-10.244 E33.87511
G1 X-5.882 Y-10.64 E33.91389
G1 X-5.18 Y-10.931 E33.95181
G1 X-4.62 Y-11.077 E33.98068
