;FLAVOR:Marlin
;TIME:1855
;Filament used: 0.970306m
;Layer height: 0.1
;MINX:-21.568
;MINY:-14.407
;MINZ:0.3
;MAXX:21.608
;MAXY:14.071
;MAXZ:15.9
;Generated with Cura_SteamEngine 5.2.1
M140 S60
M105
M190 S60
M104 S200
M105
M109 S200
M82 ;absolute extrusion mode
G28 ;Home
G1 Z15.0 F6000 ;Move the platform down 15mm
;Prime the extruder
G92 E0
G1 F200 E3
G92 E0
M141 S28
G92 E0
G92 E0
G1 F1500 E-6.5
;LAYER_COUNT:157
;LAYER:0
M107
G0 F3600 X-1.328 Y11.588 Z0.3
;TYPE:SKIRT
G1 F1500 E0
G1 F1800 X-1.701 Y11.838 E0.0224
G1 X-2.397 Y12.21 E0.06177
G1 X-3.128 Y12.509 E0.10118
G1 X-3.885 Y12.733 E0.14056
G1 X-4.661 Y12.879 E0.17996
G1 X-5.285 Y12.939 E0.21123
G1 X-6.988 Y13.033 E0.29632
G1 X-7.79 Y13.235 E0.33759
G1 X-8.572 Y13.346 E0.37699
G1 X-9.271 Y13.377 E0.4119
G1 X-10.011 Y13.377 E0.44882
G1 X-10.651 Y13.345 E0.48079
G1 X-11.204 Y13.442 E0.5088
G1 X-12.164 Y13.501 E0.55678
G1 X-12.904 Y13.501 E0.5937
G1 X-13.693 Y13.461 E0.63311
G1 X-14.473 Y13.342 E0.67248
G1 X-15.238 Y13.144 E0.7119
G1 X-15.978 Y12.87 E0.75127
G1 X-16.687 Y12.522 E0.79067
G1 X-17.491 Y12.01 E0.83823
G1 X-18.092 Y11.573 E0.8753
G1 X-18.706 Y11.076 E0.91471
G1 X-19.268 Y10.521 E0.95412
G1 X-19.77 Y9.911 E0.99353
G1 X-20.207 Y9.254 E1.0329
G1 X-20.576 Y8.556 E1.07229
G1 X-20.875 Y7.817 E1.11206
G1 X-21.141 Y7.049 E1.15261
G1 X-21.362 Y6.29 E1.19205
G1 X-21.504 Y5.514 E1.23141
G1 X-21.568 Y4.727 E1.2708
G1 X-21.551 Y3.937 E1.31022
G1 X-21.455 Y3.153 E1.34963
G1 X-21.274 Y2.364 E1.39001
G1 X-20.771 Y0.594 E1.48182
G1 X-20.517 Y-.154 E1.52123
G1 X-20.431 Y-.343 E1.53159
G1 X-20.405 Y-.559 E1.54244
G1 X-20.233 Y-1.33 E1.58185
G1 X-19.984 Y-2.079 E1.62123
G1 X-19.66 Y-2.8 E1.66067
G1 X-19.287 Y-3.445 E1.69784
G1 X-19.278 Y-3.673 E1.70922
G1 X-19.167 Y-4.454 E1.74858
G1 X-18.928 Y-5.378 E1.79619
G1 X-18.634 Y-6.282 E1.84362
G1 X-18.352 Y-7.02 E1.88303
G1 X-17.997 Y-7.725 E1.92241
G1 X-17.572 Y-8.391 E1.96183
G1 X-17.082 Y-9.011 E2.00126
G1 X-16.532 Y-9.577 E2.04063
G1 X-15.8 Y-10.181 E2.08798
G1 X-15.029 Y-10.741 E2.13552
G1 X-14.367 Y-11.172 E2.17493
G1 X-13.665 Y-11.534 E2.21433
G1 X-12.931 Y-11.823 E2.25369
G1 X-12.17 Y-12.037 E2.29313
G1 X-11.392 Y-12.172 E2.33252
G1 X-10.445 Y-12.23 E2.37986
G1 X-9.495 Y-12.23 E2.42725
G1 X-8.706 Y-12.19 E2.46667
G1 X-7.926 Y-12.071 E2.50603
G1 X-7.161 Y-11.873 E2.54546
G1 X-6.274 Y-11.56 E2.59238
G1 X-5.462 Y-11.725 E2.63372
G1 X-4.681 Y-11.843 E2.67313
G1 X-3.893 Y-11.882 E2.71249
G1 X-3.104 Y-11.841 E2.75191
G1 X-2.324 Y-11.72 E2.79129
G1 X-1.731 Y-11.566 E2.82185
G1 X-1.206 Y-12.117 E2.85982
G1 X-.607 Y-12.63 E2.89917
G1 X0.042 Y-13.08 E2.93857
G1 X0.677 Y-13.442 E2.97503
G1 X1.387 Y-13.787 E3.01442
G1 X2.129 Y-14.058 E3.05383
G1 X2.894 Y-14.253 E3.09321
G1 X3.675 Y-14.369 E3.13261
G1 X4.432 Y-14.406 E3.17042
G1 X13.52 Y-14.407 E3.62382
G1 X14.309 Y-14.367 E3.66323
G1 X15.089 Y-14.248 E3.7026
G1 X15.854 Y-14.05 E3.74202
G1 X16.595 Y-13.776 E3.78144
G1 X17.534 Y-13.303 E3.83389
G1 X18.295 Y-12.807 E3.87921
G1 X18.91 Y-12.311 E3.91863
G1 X19.471 Y-11.756 E3.958
G1 X19.973 Y-11.146 E3.99741
G1 X20.411 Y-10.489 E4.03681
G1 X20.974 Y-9.362 E4.09966
G1 X21.287 Y-8.472 E4.14673
G1 X21.473 Y-7.705 E4.1861
G1 X21.58 Y-6.922 E4.22553
G1 X21.608 Y-6.257 E4.25873
G1 X21.607 Y5.763 E4.85841
G1 X21.567 Y6.551 E4.89778
G1 X21.419 Y7.493 E4.94535
G1 X21.186 Y8.369 E4.99058
G1 X20.907 Y9.107 E5.02994
G1 X20.554 Y9.814 E5.06936
G1 X19.963 Y10.731 E5.12379
G1 X19.343 Y11.493 E5.1728
G1 X18.785 Y12.052 E5.21221
G1 X18.174 Y12.552 E5.25159
G1 X17.515 Y12.988 E5.29102
G1 X16.815 Y13.354 E5.33042
G1 X16.082 Y13.648 E5.36983
G1 X15.323 Y13.866 E5.40922
G1 X14.546 Y14.007 E5.44862
G1 X13.543 Y14.071 E5.49876
G1 X4.433 Y14.064 E5.95326
G1 X3.644 Y14.023 E5.99268
G1 X2.864 Y13.903 E6.03205
G1 X2.1 Y13.705 E6.07143
G1 X1.359 Y13.43 E6.11086
G1 X0.461 Y12.981 E6.16095
G1 X-.29 Y12.495 E6.20558
G1 X-.906 Y12.002 E6.24494
G1 X-1.328 Y11.588 E6.27443
G0 F3600 X-1.278 Y11.072
G1 F1800 X-1.924 Y11.505 E6.31323
G1 X-2.604 Y11.865 E6.35162
G1 X-3.318 Y12.152 E6.39001
G1 X-4.057 Y12.363 E6.42835
G1 X-4.956 Y12.521 E6.47389
G1 X-7.075 Y12.637 E6.57977
G1 X-7.216 Y12.686 E6.58721
G1 X-7.965 Y12.861 E6.62559
G1 X-8.728 Y12.957 E6.66396
G1 X-9.271 Y12.977 E6.69106
G1 X-10.011 Y12.977 E6.72798
G1 X-10.662 Y12.943 E6.76051
G1 X-11.353 Y13.056 E6.79544
G1 X-12.164 Y13.101 E6.83596
G1 X-12.904 Y13.101 E6.87288
G1 X-13.672 Y13.061 E6.91125
G1 X-14.432 Y12.942 E6.94963
G1 X-15.175 Y12.744 E6.98799
G1 X-15.894 Y12.47 E7.02638
G1 X-16.58 Y12.123 E7.06473
G1 X-17.256 Y11.686 E7.10489
G1 X-17.857 Y11.249 E7.14196
G1 X-18.455 Y10.765 E7.18034
G1 X-18.999 Y10.222 E7.21869
G1 X-19.484 Y9.625 E7.25706
G1 X-19.904 Y8.98 E7.29546
G1 X-20.255 Y8.296 E7.33382
G1 X-20.497 Y7.686 E7.36656
G1 X-20.763 Y6.918 E7.40711
G1 X-20.977 Y6.179 E7.44549
G1 X-21.113 Y5.422 E7.48386
G1 X-21.169 Y4.655 E7.52223
G1 X-21.146 Y3.886 E7.56061
G1 X-21.043 Y3.124 E7.59898
G1 X-20.889 Y2.473 E7.63235
G1 X-20.386 Y0.703 E7.72415
G1 X-20.138 Y-0.025 E7.76252
G1 X-20.04 Y-.236 E7.77413
G1 X-20.007 Y-.512 E7.788
G1 X-19.836 Y-1.262 E7.82638
G1 X-19.589 Y-1.99 E7.86473
G1 X-19.267 Y-2.688 E7.90308
G1 X-18.892 Y-3.32 E7.93974
G1 X-18.872 Y-3.716 E7.95952
G1 X-18.754 Y-4.476 E7.9979
G1 X-18.547 Y-5.255 E8.03811
G1 X-18.253 Y-6.159 E8.08553
G1 X-17.978 Y-6.877 E8.12389
G1 X-17.629 Y-7.562 E8.16225
G1 X-17.211 Y-8.208 E8.20064
G1 X-16.728 Y-8.807 E8.23902
G1 X-16.186 Y-9.352 E8.27737
G1 X-15.565 Y-9.857 E8.3173
G1 X-14.794 Y-10.417 E8.36485
G1 X-14.149 Y-10.836 E8.40322
G1 X-13.464 Y-11.186 E8.4416
G1 X-12.746 Y-11.463 E8.47999
G1 X-12.004 Y-11.664 E8.51834
G1 X-11.244 Y-11.787 E8.55675
G1 X-10.445 Y-11.83 E8.59667
G1 X-9.495 Y-11.83 E8.64407
G1 X-8.727 Y-11.79 E8.68244
G1 X-7.967 Y-11.671 E8.72081
G1 X-7.224 Y-11.473 E8.75918
G1 X-6.335 Y-11.139 E8.80656
G1 X-5.382 Y-11.333 E8.85508
G1 X-4.622 Y-11.447 E8.89342
G1 X-3.853 Y-11.482 E8.93182
G1 X-3.085 Y-11.436 E8.97021
G1 X-2.326 Y-11.312 E9.00858
G1 X-1.582 Y-11.108 E9.04706
G1 X-1.396 Y-11.344 E9.06206
G1 X-.858 Y-11.895 E9.10048
G1 X-.267 Y-12.386 E9.13881
G1 X0.71 Y-13.015 E9.19678
G1 X1.562 Y-13.426 E9.24397
G1 X2.285 Y-13.688 E9.28234
G1 X3.032 Y-13.872 E9.32072
G1 X3.794 Y-13.978 E9.3591
G1 X4.432 Y-14.006 E9.39096
G1 X13.52 Y-14.007 E9.84437
G1 X14.288 Y-13.967 E9.88273
G1 X15.048 Y-13.848 E9.92111
G1 X15.791 Y-13.65 E9.95947
G1 X16.51 Y-13.376 E9.99786
G1 X17.337 Y-12.955 E10.04416
G1 X18.076 Y-12.472 E10.0882
G1 X18.673 Y-11.986 E10.12661
G1 X19.216 Y-11.441 E10.16499
G1 X19.699 Y-10.843 E10.20334
G1 X20.118 Y-10.198 E10.24172
G1 X20.607 Y-9.203 E10.29703
G1 X20.909 Y-8.34 E10.34264
G1 X21.087 Y-7.591 E10.38105
G1 X21.186 Y-6.829 E10.41939
G1 X21.208 Y-6.257 E10.44795
G1 X21.207 Y5.763 E11.04763
G1 X21.167 Y6.531 E11.08599
G1 X21.027 Y7.412 E11.1305
G1 X20.799 Y8.265 E11.17455
G1 X20.524 Y8.984 E11.21295
G1 X20.176 Y9.67 E11.25133
G1 X19.634 Y10.502 E11.30087
G1 X19.032 Y11.24 E11.34839
G1 X18.487 Y11.783 E11.38677
G1 X17.888 Y12.265 E11.42513
G1 X17.242 Y12.683 E11.46351
G1 X16.557 Y13.032 E11.50187
G1 X15.839 Y13.308 E11.54024
G1 X15.096 Y13.508 E11.57863
G1 X14.336 Y13.629 E11.61703
G1 X13.543 Y13.671 E11.65664
G1 X4.433 Y13.664 E12.11114
G1 X3.665 Y13.623 E12.14951
G1 X2.906 Y13.503 E12.18785
G1 X2.162 Y13.305 E12.22626
G1 X1.444 Y13.031 E12.2646
G1 X0.656 Y12.631 E12.30869
G1 X-0.072 Y12.159 E12.35198
G1 X-.671 Y11.676 E12.39037
G1 X-1.278 Y11.072 E12.43309
G0 F3600 X-.961 Y10.819
G1 F1800 X-1.187 Y10.532 E12.45131
G1 X-2.146 Y11.172 E12.50883
G1 X-2.809 Y11.519 E12.54617
G1 X-3.506 Y11.793 E12.58353
G1 X-4.227 Y11.991 E12.62083
G1 X-5.329 Y12.14 E12.67631
G1 X-7.147 Y12.237 E12.76714
G1 X-7.406 Y12.324 E12.78077
G1 X-8.136 Y12.484 E12.81806
G1 X-8.98 Y12.577 E12.86042
G1 X-10.011 Y12.577 E12.91186
G1 X-10.689 Y12.541 E12.94573
G1 X-10.759 Y12.559 E12.94934
G1 X-11.499 Y12.669 E12.98666
G1 X-12.164 Y12.701 E13.01988
G1 X-12.904 Y12.701 E13.05679
G1 X-13.651 Y12.661 E13.09412
G1 X-14.389 Y12.542 E13.13141
G1 X-15.111 Y12.344 E13.16876
G1 X-15.807 Y12.071 E13.20606
G1 X-16.47 Y11.724 E13.24339
G1 X-17.021 Y11.363 E13.27626
G1 X-17.622 Y10.926 E13.31333
G1 X-18.202 Y10.454 E13.35064
G1 X-18.729 Y9.923 E13.38796
G1 X-19.197 Y9.339 E13.4253
G1 X-19.599 Y8.708 E13.46263
G1 X-19.932 Y8.038 E13.49995
G1 X-20.119 Y7.555 E13.52579
G1 X-20.385 Y6.787 E13.56634
G1 X-20.592 Y6.068 E13.60367
G1 X-20.721 Y5.331 E13.641
G1 X-20.77 Y4.585 E13.6783
G1 X-20.74 Y3.837 E13.71564
G1 X-20.63 Y3.097 E13.75297
G1 X-20.504 Y2.583 E13.77937
G1 X-20.001 Y0.813 E13.87117
G1 X-19.759 Y0.105 E13.9085
G1 X-19.65 Y-.128 E13.92134
G1 X-19.609 Y-.463 E13.93817
G1 X-19.44 Y-1.192 E13.97551
G1 X-19.194 Y-1.899 E14.01285
G1 X-18.874 Y-2.575 E14.05017
G1 X-18.499 Y-3.188 E14.08602
G1 X-18.465 Y-3.757 E14.11446
G1 X-18.341 Y-4.495 E14.15179
G1 X-18.167 Y-5.131 E14.18469
G1 X-17.873 Y-6.035 E14.23211
G1 X-17.604 Y-6.733 E14.26943
G1 X-17.262 Y-7.398 E14.30674
G1 X-16.851 Y-8.023 E14.34406
G1 X-16.375 Y-8.601 E14.38142
G1 X-15.841 Y-9.124 E14.41871
G1 X-15.33 Y-9.534 E14.45139
G1 X-14.559 Y-10.094 E14.49893
G1 X-13.931 Y-10.5 E14.53624
G1 X-13.263 Y-10.838 E14.57359
G1 X-12.563 Y-11.102 E14.61092
G1 X-11.839 Y-11.29 E14.64824
G1 X-11.099 Y-11.399 E14.68555
G1 X-10.445 Y-11.43 E14.71822
G1 X-9.495 Y-11.43 E14.76561
G1 X-8.748 Y-11.39 E14.80293
G1 X-8.01 Y-11.271 E14.84023
G1 X-6.94 Y-10.947 E14.89601
G1 X-6.37 Y-10.723 E14.92656
G1 X-5.302 Y-10.941 E14.98094
G1 X-4.562 Y-11.051 E15.01827
G1 X-3.815 Y-11.081 E15.05556
G1 X-3.069 Y-11.032 E15.09286
G1 X-2.332 Y-10.903 E15.13019
G1 X-1.441 Y-10.646 E15.17645
G1 X-1.041 Y-11.141 E15.20821
G1 X-.511 Y-11.67 E15.24556
G1 X0.072 Y-12.138 E15.28286
G1 X0.912 Y-12.669 E15.33244
G1 X1.736 Y-13.066 E15.37807
G1 X2.441 Y-13.317 E15.41541
G1 X3.168 Y-13.491 E15.4527
G1 X3.91 Y-13.586 E15.49002
G1 X4.432 Y-13.606 E15.51609
G1 X13.52 Y-13.607 E15.96949
G1 X14.267 Y-13.567 E16.00681
G1 X15.006 Y-13.448 E16.04415
G1 X15.727 Y-13.25 E16.08146
G1 X16.424 Y-12.977 E16.1188
G1 X17.143 Y-12.605 E16.15919
G1 X17.857 Y-12.137 E16.20178
G1 X18.435 Y-11.662 E16.23911
G1 X18.959 Y-11.128 E16.27643
G1 X19.423 Y-10.542 E16.31372
G1 X19.822 Y-9.909 E16.35105
G1 X20.24 Y-9.043 E16.39903
G1 X20.531 Y-8.207 E16.44319
G1 X20.701 Y-7.479 E16.48049
G1 X20.808 Y-6.605 E16.52442
G1 X20.807 Y5.763 E17.14146
G1 X20.767 Y6.51 E17.17878
G1 X20.636 Y7.333 E17.22036
G1 X20.412 Y8.161 E17.26315
G1 X20.142 Y8.859 E17.30049
G1 X19.799 Y9.524 E17.33782
G1 X19.306 Y10.274 E17.3826
G1 X18.722 Y10.987 E17.42858
G1 X18.189 Y11.512 E17.4659
G1 X17.603 Y11.977 E17.50322
G1 X16.971 Y12.377 E17.54054
G1 X16.3 Y12.708 E17.57787
G1 X15.598 Y12.965 E17.61516
G1 X14.872 Y13.145 E17.65248
G1 X14.13 Y13.247 E17.68985
G1 X13.544 Y13.271 E17.71911
G1 X4.434 Y13.264 E18.17361
G1 X3.687 Y13.223 E18.21093
G1 X2.948 Y13.103 E18.24828
G1 X2.227 Y12.905 E18.28559
G1 X1.531 Y12.631 E18.3229
G1 X0.851 Y12.28 E18.36108
G1 X0.146 Y11.823 E18.403
G1 X-.434 Y11.35 E18.44034
G1 X-.961 Y10.819 E18.47766
G0 F3600 X-.704 Y10.506
G1 F1800 X-1.129 Y9.962 E18.5121
G1 X-1.764 Y10.437 E18.55166
G1 X-2.369 Y10.839 E18.5879
G1 X-3.014 Y11.173 E18.62414
G1 X-3.692 Y11.433 E18.66037
G1 X-4.394 Y11.617 E18.69657
G1 X-5.352 Y11.741 E18.74477
G1 X-7.238 Y11.845 E18.839
G1 X-7.594 Y11.96 E18.85767
G1 X-8.305 Y12.106 E18.89388
G1 X-9.271 Y12.177 E18.9422
G1 X-10.011 Y12.177 E18.97912
G1 X-10.737 Y12.137 E19.0154
G1 X-10.922 Y12.183 E19.02491
G1 X-11.642 Y12.28 E19.06115
G1 X-12.164 Y12.301 E19.08722
G1 X-12.904 Y12.301 E19.12414
G1 X-13.629 Y12.261 E19.16036
G1 X-14.346 Y12.142 E19.19662
G1 X-15.045 Y11.944 E19.23287
G1 X-15.718 Y11.671 E19.2691
G1 X-16.357 Y11.326 E19.30533
G1 X-16.785 Y11.039 E19.33104
G1 X-17.386 Y10.602 E19.36811
G1 X-17.949 Y10.143 E19.40435
G1 X-18.459 Y9.625 E19.44062
G1 X-18.908 Y9.054 E19.47686
G1 X-19.292 Y8.438 E19.51307
G1 X-19.648 Y7.695 E19.55418
G1 X-20.008 Y6.656 E19.60904
G1 X-20.207 Y5.958 E19.64525
G1 X-20.329 Y5.242 E19.68148
G1 X-20.371 Y4.516 E19.71776
G1 X-20.333 Y3.791 E19.75398
G1 X-20.199 Y2.97 E19.79549
G1 X-19.617 Y0.922 E19.90171
G1 X-19.38 Y0.235 E19.93796
G1 X-19.261 Y-0.015 E19.95178
G1 X-19.212 Y-.415 E19.97188
G1 X-19.044 Y-1.121 E20.00809
G1 X-18.8 Y-1.805 E20.04432
G1 X-18.482 Y-2.459 E20.0806
G1 X-18.108 Y-3.051 E20.11554
G1 X-18.058 Y-3.795 E20.15274
G1 X-17.927 Y-4.51 E20.189
G1 X-17.786 Y-5.007 E20.21478
G1 X-17.492 Y-5.911 E20.2622
G1 X-17.23 Y-6.589 E20.29847
G1 X-16.895 Y-7.233 E20.33468
G1 X-16.491 Y-7.837 E20.37094
G1 X-16.023 Y-8.392 E20.40716
G1 X-15.497 Y-8.893 E20.4434
G1 X-15.095 Y-9.21 E20.46894
G1 X-14.324 Y-9.77 E20.51648
G1 X-13.713 Y-10.164 E20.55275
G1 X-13.063 Y-10.488 E20.58898
G1 X-12.382 Y-10.739 E20.62519
G1 X-11.677 Y-10.914 E20.66143
G1 X-10.957 Y-11.01 E20.69767
G1 X-10.445 Y-11.03 E20.72324
G1 X-9.495 Y-11.03 E20.77063
G1 X-8.77 Y-10.99 E20.80686
G1 X-8.053 Y-10.871 E20.84312
G1 X-7.086 Y-10.575 E20.89357
G1 X-6.405 Y-10.308 E20.93006
G1 X-5.222 Y-10.549 E20.9903
G1 X-4.504 Y-10.655 E21.02651
G1 X-3.778 Y-10.681 E21.06275
G1 X-3.054 Y-10.627 E21.09897
G1 X-2.34 Y-10.494 E21.1352
G1 X-1.644 Y-10.283 E21.17149
G1 X-1.306 Y-10.138 E21.18984
G1 X-1.15 Y-10.376 E21.20403
G1 X-.687 Y-10.936 E21.24029
G1 X-.165 Y-11.441 E21.27652
G1 X0.409 Y-11.886 E21.31276
G1 X1.119 Y-12.324 E21.35438
G1 X1.91 Y-12.705 E21.39818
G1 X2.595 Y-12.945 E21.43439
G1 X3.303 Y-13.109 E21.47065
G1 X4.135 Y-13.206 E21.51244
G1 X13.52 Y-13.207 E21.98066
G1 X14.246 Y-13.167 E22.01693
G1 X14.962 Y-13.048 E22.05314
G1 X15.661 Y-12.85 E22.08939
G1 X16.334 Y-12.577 E22.12562
G1 X16.948 Y-12.255 E22.16021
G1 X17.637 Y-11.802 E22.20135
G1 X18.196 Y-11.338 E22.23759
G1 X18.701 Y-10.816 E22.27383
G1 X19.145 Y-10.241 E22.31007
G1 X19.524 Y-9.622 E22.34628
G1 X19.874 Y-8.88 E22.38721
G1 X20.153 Y-8.076 E22.42967
G1 X20.314 Y-7.368 E22.4659
G1 X20.408 Y-6.55 E22.50698
G1 X20.407 Y5.763 E23.12127
G1 X20.367 Y6.488 E23.1575
G1 X20.244 Y7.252 E23.19611
G1 X20.026 Y8.057 E23.23771
G1 X19.76 Y8.733 E23.27396
G1 X19.421 Y9.376 E23.31022
G1 X18.976 Y10.046 E23.35035
G1 X18.412 Y10.733 E23.39469
G1 X17.892 Y11.24 E23.43093
G1 X17.32 Y11.688 E23.46718
G1 X16.702 Y12.069 E23.5034
G1 X16.046 Y12.381 E23.53964
G1 X15.359 Y12.618 E23.57589
G1 X14.651 Y12.778 E23.61211
G1 X13.83 Y12.871 E23.65333
G1 X4.434 Y12.864 E24.1221
G1 X3.709 Y12.823 E24.15833
G1 X2.992 Y12.703 E24.19459
G1 X2.293 Y12.506 E24.23083
G1 X1.621 Y12.232 E24.26703
G1 X1.044 Y11.93 E24.29952
G1 X0.364 Y11.487 E24.34001
G1 X-.197 Y11.026 E24.37624
G1 X-.704 Y10.506 E24.41247
G0 F3600 X-.445 Y10.193
G1 F1800 X-.819 Y9.708 E24.44303
G1 X-1.047 Y9.361 E24.46374
G1 X-1.349 Y9.627 E24.48382
G1 X-2.003 Y10.116 E24.52456
G1 X-2.59 Y10.505 E24.55969
G1 X-3.217 Y10.825 E24.59481
G1 X-3.877 Y11.072 E24.62997
G1 X-4.56 Y11.242 E24.66508
G1 X-5.374 Y11.342 E24.706
G1 X-7.128 Y11.439 E24.79364
G1 X-7.274 Y11.439 E24.80093
G1 X-7.779 Y11.595 E24.82729
G1 X-8.471 Y11.725 E24.86242
G1 X-9.271 Y11.777 E24.90242
G1 X-10.011 Y11.777 E24.93934
G1 X-10.777 Y11.733 E24.97762
G1 X-11.082 Y11.806 E24.99326
G1 X-11.882 Y11.901 E25.03346
G1 X-12.904 Y11.901 E25.08444
G1 X-13.607 Y11.861 E25.11957
G1 X-14.301 Y11.742 E25.1547
G1 X-14.976 Y11.544 E25.1898
G1 X-15.625 Y11.272 E25.2249
G1 X-16.331 Y10.876 E25.26529
G1 X-17.151 Y10.279 E25.31589
G1 X-17.696 Y9.833 E25.35103
G1 X-18.187 Y9.328 E25.38617
G1 X-18.618 Y8.771 E25.4213
G1 X-18.982 Y8.169 E25.4564
G1 X-19.364 Y7.293 E25.50408
G1 X-19.63 Y6.525 E25.54463
G1 X-19.822 Y5.848 E25.57974
G1 X-19.936 Y5.153 E25.61487
G1 X-19.971 Y4.45 E25.64999
G1 X-19.926 Y3.748 E25.68508
G1 X-19.735 Y2.801 E25.73328
G1 X-19.232 Y1.031 E25.82508
G1 X-19.001 Y0.366 E25.86021
G1 X-18.872 Y0.097 E25.87509
G1 X-18.814 Y-.365 E25.89832
G1 X-18.648 Y-1.049 E25.93344
G1 X-18.406 Y-1.71 E25.96855
G1 X-18.09 Y-2.339 E26.00367
G1 X-17.702 Y-2.933 E26.03907
G1 X-17.708 Y-3.13 E26.0489
G1 X-17.649 Y-3.831 E26.084
G1 X-17.494 Y-4.614 E26.12382
G1 X-17.112 Y-5.788 E26.18541
G1 X-16.857 Y-6.444 E26.22053
G1 X-16.529 Y-7.066 E26.25561
G1 X-16.132 Y-7.648 E26.29076
G1 X-15.672 Y-8.181 E26.32588
