;FLAVOR:Marlin
;TIME:512
;Filament used: 0.259658m
;Layer height: 0.1
;MINX:-12.076
;MINY:-14.751
;MINZ:0.3
;MAXX:12.076
;MAXY:9.901
;MAXZ:7.5
;Generated with Cura_SteamEngine 5.2.1
M140 S60
M105
M190 S60
M104 S200
M105
M109 S200
M82 ;absolute extrusion mode
G28 ;Home
G1 Z15.0 F6000 ;Move the platform down 15mm
;Prime the extruder
G92 E0
G1 F200 E3
G92 E0
M141 S28
G92 E0
G92 E0
G1 F1500 E-6.5
;LAYER_COUNT:73
;LAYER:0
M107
G0 F3600 X-3.753 Y9.9 Z0.3
;TYPE:SKIRT
G1 F1500 E0
G1 F1800 X-4.542 Y9.86 E0.03941
G1 X-5.322 Y9.74 E0.07879
G1 X-5.996 Y9.578 E0.11337
G1 X-6.849 Y9.293 E0.15824
G1 X-7.569 Y8.969 E0.19763
G1 X-8.253 Y8.574 E0.23704
G1 X-8.893 Y8.111 E0.27644
G1 X-9.623 Y7.456 E0.32538
G1 X-10.248 Y6.765 E0.37186
G1 X-10.715 Y6.129 E0.41122
G1 X-11.116 Y5.449 E0.45061
G1 X-11.446 Y4.731 E0.49003
G1 X-11.745 Y3.856 E0.53617
G1 X-11.953 Y2.958 E0.58215
G1 X-12.053 Y2.175 E0.62153
G1 X-12.076 Y1.58 E0.65124
G1 X-12.075 Y-6.429 E1.05081
G1 X-12.035 Y-7.218 E1.09023
G1 X-11.915 Y-7.998 E1.1296
G1 X-11.751 Y-8.679 E1.16454
G1 X-11.465 Y-9.532 E1.20943
G1 X-11.14 Y-10.251 E1.24879
G1 X-10.744 Y-10.934 E1.28818
G1 X-10.281 Y-11.574 E1.32759
G1 X-9.63 Y-12.299 E1.3762
G1 X-8.94 Y-12.923 E1.42262
G1 X-8.304 Y-13.39 E1.46198
G1 X-7.624 Y-13.791 E1.50137
G1 X-6.906 Y-14.121 E1.54079
G1 X-6.025 Y-14.422 E1.58724
G1 X-5.125 Y-14.63 E1.63332
G1 X-4.341 Y-14.729 E1.67275
G1 X-3.754 Y-14.751 E1.70205
G1 X3.753 Y-14.75 E2.07658
G1 X4.542 Y-14.71 E2.11599
G1 X5.322 Y-14.59 E2.15537
G1 X5.996 Y-14.428 E2.18995
G1 X6.849 Y-14.143 E2.23482
G1 X7.569 Y-13.819 E2.27421
G1 X8.253 Y-13.424 E2.31362
G1 X8.893 Y-12.961 E2.35302
G1 X9.623 Y-12.306 E2.40196
G1 X10.248 Y-11.615 E2.44844
G1 X10.715 Y-10.979 E2.48781
G1 X11.116 Y-10.299 E2.52719
G1 X11.446 Y-9.581 E2.56661
G1 X11.745 Y-8.706 E2.61275
G1 X11.953 Y-7.808 E2.65873
G1 X12.053 Y-7.025 E2.69811
G1 X12.076 Y-6.43 E2.72782
G1 X12.075 Y1.579 E3.12739
G1 X12.035 Y2.368 E3.16681
G1 X11.915 Y3.148 E3.20618
G1 X11.751 Y3.829 E3.24112
G1 X11.465 Y4.682 E3.28601
G1 X11.14 Y5.401 E3.32537
G1 X10.744 Y6.084 E3.36476
G1 X10.281 Y6.724 E3.40417
G1 X9.63 Y7.449 E3.45278
G1 X8.94 Y8.073 E3.4992
G1 X8.304 Y8.54 E3.53856
G1 X7.624 Y8.941 E3.57795
G1 X6.906 Y9.271 E3.61737
G1 X6.025 Y9.572 E3.66382
G1 X5.125 Y9.78 E3.7099
G1 X4.341 Y9.879 E3.74933
G1 X3.754 Y9.901 E3.77863
G1 X-3.753 Y9.9 E4.15316
G0 F3600 X-3.753 Y9.5
G1 F1800 X-4.521 Y9.46 E4.19153
G1 X-5.281 Y9.34 E4.22991
G1 X-5.993 Y9.158 E4.26658
G1 X-6.722 Y8.913 E4.30495
G1 X-7.422 Y8.595 E4.3433
G1 X-8.086 Y8.205 E4.38172
G1 X-8.705 Y7.749 E4.42008
G1 X-9.348 Y7.166 E4.46338
G1 X-9.95 Y6.497 E4.50828
G1 X-10.403 Y5.875 E4.54667
G1 X-10.789 Y5.21 E4.58503
G1 X-11.104 Y4.508 E4.62342
G1 X-11.362 Y3.738 E4.66394
G1 X-11.563 Y2.868 E4.70848
G1 X-11.657 Y2.105 E4.74684
G1 X-11.676 Y1.58 E4.77305
G1 X-11.675 Y-6.429 E5.17262
G1 X-11.635 Y-7.197 E5.21098
G1 X-11.515 Y-7.957 E5.24937
G1 X-11.331 Y-8.675 E5.28635
G1 X-11.086 Y-9.404 E5.32472
G1 X-10.766 Y-10.104 E5.36312
G1 X-10.376 Y-10.767 E5.40149
G1 X-9.919 Y-11.385 E5.43984
G1 X-9.342 Y-12.023 E5.48276
G1 X-8.672 Y-12.625 E5.52769
G1 X-8.05 Y-13.078 E5.56608
G1 X-7.385 Y-13.464 E5.60444
G1 X-6.683 Y-13.779 E5.64283
G1 X-5.906 Y-14.039 E5.68371
G1 X-5.035 Y-14.24 E5.7283
G1 X-4.271 Y-14.333 E5.7667
G1 X-3.754 Y-14.351 E5.79251
G1 X3.753 Y-14.35 E6.16704
G1 X4.521 Y-14.31 E6.2054
G1 X5.281 Y-14.19 E6.24379
G1 X5.993 Y-14.008 E6.28045
G1 X6.722 Y-13.763 E6.31882
G1 X7.422 Y-13.445 E6.35718
G1 X8.086 Y-13.055 E6.3956
G1 X8.705 Y-12.599 E6.43396
G1 X9.348 Y-12.016 E6.47726
G1 X9.95 Y-11.347 E6.52216
G1 X10.403 Y-10.725 E6.56055
G1 X10.789 Y-10.06 E6.59891
G1 X11.104 Y-9.358 E6.6373
G1 X11.362 Y-8.588 E6.67781
G1 X11.563 Y-7.718 E6.72236
G1 X11.657 Y-6.955 E6.76071
G1 X11.676 Y-6.43 E6.78692
G1 X11.675 Y1.579 E7.18649
G1 X11.635 Y2.347 E7.22486
G1 X11.515 Y3.107 E7.26325
G1 X11.331 Y3.825 E7.30023
G1 X11.086 Y4.554 E7.3386
G1 X10.766 Y5.254 E7.37699
G1 X10.376 Y5.917 E7.41537
G1 X9.919 Y6.535 E7.45372
G1 X9.342 Y7.173 E7.49663
G1 X8.672 Y7.775 E7.54157
G1 X8.05 Y8.228 E7.57996
G1 X7.385 Y8.614 E7.61832
G1 X6.683 Y8.929 E7.65671
G1 X5.906 Y9.189 E7.69759
G1 X5.035 Y9.39 E7.74218
G1 X4.271 Y9.483 E7.78058
G1 X3.754 Y9.501 E7.80639
G1 X-3.753 Y9.5 E8.18091
G0 F3600 X-3.753 Y9.1
G1 F1800 X-4.5 Y9.06 E8.21824
G1 X-5.238 Y8.94 E8.25554
G1 X-5.886 Y8.772 E8.28894
G1 X-6.595 Y8.534 E8.32625
G1 X-7.274 Y8.221 E8.36355
G1 X-7.917 Y7.837 E8.40091
G1 X-8.514 Y7.387 E8.43821
G1 X-9.071 Y6.877 E8.47589
G1 X-9.653 Y6.229 E8.51934
G1 X-10.09 Y5.623 E8.55662
G1 X-10.461 Y4.973 E8.59396
G1 X-10.76 Y4.287 E8.63129
G1 X-10.981 Y3.618 E8.66644
G1 X-11.173 Y2.778 E8.70943
G1 X-11.276 Y1.909 E8.75309
G1 X-11.275 Y-6.429 E9.16907
G1 X-11.235 Y-7.176 E9.20639
G1 X-11.115 Y-7.914 E9.2437
G1 X-10.945 Y-8.568 E9.27741
G1 X-10.706 Y-9.276 E9.31469
G1 X-10.393 Y-9.956 E9.35204
G1 X-10.008 Y-10.597 E9.38934
G1 X-9.558 Y-11.195 E9.42668
G1 X-9.05 Y-11.748 E9.46414
G1 X-8.404 Y-12.328 E9.50746
G1 X-7.798 Y-12.765 E9.54473
G1 X-7.148 Y-13.136 E9.58207
G1 X-6.462 Y-13.435 E9.6194
G1 X-5.786 Y-13.658 E9.65492
G1 X-4.945 Y-13.849 E9.69794
G1 X-4.083 Y-13.951 E9.74125
G1 X3.753 Y-13.95 E10.13219
G1 X4.5 Y-13.91 E10.16951
G1 X5.238 Y-13.79 E10.20681
G1 X5.886 Y-13.622 E10.24021
G1 X6.595 Y-13.384 E10.27752
G1 X7.274 Y-13.071 E10.31482
G1 X7.917 Y-12.687 E10.35219
G1 X8.514 Y-12.237 E10.38949
G1 X9.071 Y-11.727 E10.42716
G1 X9.653 Y-11.079 E10.47062
G1 X10.09 Y-10.473 E10.50789
G1 X10.461 Y-9.823 E10.54523
G1 X10.76 Y-9.137 E10.58256
G1 X10.981 Y-8.468 E10.61772
G1 X11.173 Y-7.628 E10.6607
G1 X11.276 Y-6.759 E10.70436
G1 X11.275 Y1.579 E11.12035
G1 X11.235 Y2.326 E11.15767
G1 X11.115 Y3.064 E11.19497
G1 X10.945 Y3.718 E11.22868
G1 X10.706 Y4.426 E11.26596
G1 X10.393 Y5.106 E11.30331
G1 X10.008 Y5.747 E11.34061
G1 X9.558 Y6.345 E11.37795
G1 X9.05 Y6.898 E11.41542
G1 X8.404 Y7.478 E11.45873
G1 X7.798 Y7.915 E11.496
G1 X7.148 Y8.286 E11.53334
G1 X6.462 Y8.585 E11.57068
G1 X5.786 Y8.808 E11.60619
G1 X4.945 Y8.999 E11.64922
G1 X4.083 Y9.101 E11.69252
G1 X-3.753 Y9.1 E12.08346
G0 F3600 X-3.753 Y8.7
G1 F1800 X-4.478 Y8.66 E12.11969
G1 X-5.628 Y8.438 E12.17812
G1 X-6.467 Y8.154 E12.22231
G1 X-7.125 Y7.847 E12.25854
G1 X-7.746 Y7.47 E12.29478
G1 X-8.321 Y7.026 E12.33102
G1 X-8.87 Y6.503 E12.36885
G1 X-9.354 Y5.962 E12.40507
G1 X-9.777 Y5.371 E12.44133
G1 X-10.131 Y4.737 E12.47755
G1 X-10.414 Y4.068 E12.51379
G1 X-10.621 Y3.397 E12.54883
G1 X-10.782 Y2.689 E12.58505
G1 X-10.876 Y1.872 E12.62608
G1 X-10.875 Y-6.429 E13.04022
G1 X-10.835 Y-7.154 E13.07644
G1 X-10.611 Y-8.308 E13.13509
G1 X-10.327 Y-9.148 E13.17933
G1 X-10.019 Y-9.806 E13.21558
G1 X-9.641 Y-10.426 E13.2518
G1 X-9.197 Y-11.001 E13.28805
G1 X-8.678 Y-11.545 E13.32556
G1 X-8.137 Y-12.029 E13.36177
G1 X-7.546 Y-12.452 E13.39803
G1 X-6.912 Y-12.806 E13.43426
G1 X-6.243 Y-13.089 E13.4705
G1 X-5.565 Y-13.298 E13.5059
G1 X-4.856 Y-13.458 E13.54216
G1 X-4.038 Y-13.551 E13.58323
G1 X3.753 Y-13.55 E13.97193
G1 X4.478 Y-13.51 E14.00815
G1 X5.628 Y-13.288 E14.06658
G1 X6.467 Y-13.004 E14.11078
G1 X7.125 Y-12.697 E14.147
G1 X7.746 Y-12.32 E14.18324
G1 X8.321 Y-11.876 E14.21949
G1 X8.87 Y-11.353 E14.25732
G1 X9.354 Y-10.812 E14.29353
G1 X9.777 Y-10.221 E14.32979
G1 X10.131 Y-9.587 E14.36602
G1 X10.414 Y-8.918 E14.40226
G1 X10.621 Y-8.247 E14.43729
G1 X10.782 Y-7.539 E14.47352
G1 X10.876 Y-6.722 E14.51455
G1 X10.875 Y1.579 E14.92868
G1 X10.835 Y2.304 E14.96491
G1 X10.611 Y3.458 E15.02356
G1 X10.327 Y4.298 E15.0678
G1 X10.019 Y4.956 E15.10404
G1 X9.641 Y5.576 E15.14027
G1 X9.197 Y6.151 E15.17651
G1 X8.678 Y6.695 E15.21402
G1 X8.137 Y7.179 E15.25024
G1 X7.546 Y7.602 E15.2865
G1 X6.912 Y7.956 E15.32272
G1 X6.243 Y8.239 E15.35897
G1 X5.565 Y8.448 E15.39436
G1 X4.856 Y8.608 E15.43062
G1 X4.038 Y8.701 E15.4717
G1 X-3.753 Y8.7 E15.86039
G0 F3600 X-3.753 Y8.3
G1 F1800 X-4.456 Y8.26 E15.89552
G1 X-5.523 Y8.051 E15.94976
G1 X-6.338 Y7.775 E15.99269
G1 X-6.975 Y7.474 E16.02784
G1 X-7.573 Y7.103 E16.06295
G1 X-8.125 Y6.666 E16.09808
G1 X-8.587 Y6.22 E16.13011
G1 X-9.056 Y5.695 E16.16524
G1 X-9.462 Y5.12 E16.20035
G1 X-9.8 Y4.502 E16.2355
G1 X-10.202 Y3.442 E16.29205
G1 X-10.392 Y2.601 E16.33507
G1 X-10.476 Y1.58 E16.38618
G1 X-10.475 Y-6.429 E16.78575
G1 X-10.435 Y-7.132 E16.82088
G1 X-10.225 Y-8.206 E16.87548
G1 X-9.947 Y-9.019 E16.91834
G1 X-9.646 Y-9.655 E16.95345
G1 X-9.274 Y-10.253 E16.98858
G1 X-8.837 Y-10.805 E17.02371
G1 X-8.395 Y-11.262 E17.05543
G1 X-7.87 Y-11.731 E17.09055
G1 X-7.295 Y-12.137 E17.12567
G1 X-6.677 Y-12.475 E17.16081
G1 X-5.611 Y-12.878 E17.21766
G1 X-4.768 Y-13.068 E17.26078
G1 X-3.754 Y-13.151 E17.31153
G1 X3.753 Y-13.15 E17.68606
G1 X4.456 Y-13.11 E17.72119
G1 X5.523 Y-12.901 E17.77543
G1 X6.338 Y-12.625 E17.81836
G1 X6.975 Y-12.324 E17.85351
G1 X7.573 Y-11.953 E17.88862
G1 X8.125 Y-11.516 E17.92375
G1 X8.587 Y-11.07 E17.95578
G1 X9.056 Y-10.545 E17.99091
G1 X9.462 Y-9.97 E18.02602
G1 X9.8 Y-9.352 E18.06117
G1 X10.202 Y-8.292 E18.11772
G1 X10.392 Y-7.451 E18.16074
G1 X10.476 Y-6.43 E18.21185
G1 X10.475 Y1.579 E18.61142
G1 X10.435 Y2.282 E18.64655
G1 X10.225 Y3.356 E18.70115
G1 X9.947 Y4.169 E18.74401
G1 X9.646 Y4.805 E18.77912
G1 X9.274 Y5.403 E18.81425
G1 X8.837 Y5.955 E18.84938
G1 X8.395 Y6.412 E18.8811
G1 X7.87 Y6.881 E18.91622
G1 X7.295 Y7.287 E18.95134
G1 X6.677 Y7.625 E18.98648
G1 X5.611 Y8.028 E19.04333
G1 X4.768 Y8.218 E19.08645
G1 X3.754 Y8.301 E19.1372
G1 X-3.753 Y8.3 E19.51173
G0 F3600 X-3.753 Y7.9
G1 F1800 X-4.432 Y7.86 E19.54566
G1 X-5.418 Y7.666 E19.5958
G1 X-6.209 Y7.396 E19.6375
G1 X-6.823 Y7.101 E19.67148
G1 X-7.398 Y6.737 E19.70543
G1 X-8.199 Y6.055 E19.75792
G1 X-8.757 Y5.428 E19.79979
G1 X-9.146 Y4.87 E19.83373
G1 X-9.468 Y4.27 E19.8677
G1 X-9.819 Y3.324 E19.91804
G1 X-10.001 Y2.513 E19.95951
G1 X-10.076 Y1.58 E20.00621
G1 X-10.075 Y-6.429 E20.40578
G1 X-10.035 Y-7.108 E20.43971
G1 X-9.839 Y-8.102 E20.49026
G1 X-9.568 Y-8.889 E20.53178
G1 X-9.273 Y-9.503 E20.56577
G1 X-8.908 Y-10.077 E20.59971
G1 X-8.23 Y-10.874 E20.65191
G1 X-7.603 Y-11.432 E20.69378
G1 X-7.045 Y-11.821 E20.72772
G1 X-6.445 Y-12.143 E20.76169
G1 X-5.494 Y-12.496 E20.8123
G1 X-4.681 Y-12.677 E20.85385
G1 X-3.754 Y-12.751 E20.90025
G1 X3.753 Y-12.75 E21.27478
G1 X4.432 Y-12.71 E21.30871
G1 X5.418 Y-12.516 E21.35885
G1 X6.209 Y-12.246 E21.40054
G1 X6.823 Y-11.951 E21.43453
G1 X7.398 Y-11.587 E21.46848
G1 X8.199 Y-10.905 E21.52097
G1 X8.757 Y-10.278 E21.56284
G1 X9.146 Y-9.72 E21.59678
G1 X9.468 Y-9.12 E21.63075
G1 X9.819 Y-8.174 E21.68109
G1 X10.001 Y-7.363 E21.72256
G1 X10.076 Y-6.43 E21.76925
G1 X10.075 Y1.579 E22.16882
G1 X10.035 Y2.258 E22.20276
G1 X9.839 Y3.252 E22.2533
G1 X9.568 Y4.039 E22.29483
G1 X9.273 Y4.653 E22.32882
G1 X8.908 Y5.227 E22.36275
G1 X8.23 Y6.024 E22.41496
G1 X7.603 Y6.582 E22.45683
G1 X7.045 Y6.971 E22.49077
G1 X6.445 Y7.293 E22.52474
G1 X5.494 Y7.646 E22.57535
G1 X4.681 Y7.827 E22.6169
G1 X3.754 Y7.901 E22.6633
G1 X-3.753 Y7.9 E23.03782
G0 F3600 X-3.753 Y7.5
G1 F1800 X-4.408 Y7.46 E23.07056
G1 X-5.316 Y7.279 E23.11675
G1 X-6.078 Y7.017 E23.15695
G1 X-6.669 Y6.729 E23.18975
G1 X-7.22 Y6.371 E23.22254
G1 X-7.922 Y5.766 E23.26877
G1 X-8.457 Y5.162 E23.30902
G1 X-8.829 Y4.621 E23.34178
G1 X-9.133 Y4.039 E23.37454
G1 X-9.436 Y3.208 E23.41867
G1 X-9.61 Y2.426 E23.45864
G1 X-9.676 Y1.58 E23.50097
G1 X-9.675 Y-6.429 E23.90054
G1 X-9.635 Y-7.084 E23.93328
G1 X-9.453 Y-7.997 E23.97973
G1 X-9.19 Y-8.758 E24.0199
G1 X-8.901 Y-9.349 E24.05272
G1 X-8.543 Y-9.899 E24.08546
G1 X-7.941 Y-10.597 E24.13144
G1 X-7.337 Y-11.132 E24.1717
G1 X-6.796 Y-11.504 E24.20446
G1 X-6.214 Y-11.808 E24.23721
G1 X-5.376 Y-12.113 E24.2817
G1 X-4.594 Y-12.285 E24.32165
G1 X-3.754 Y-12.351 E24.36369
G1 X3.753 Y-12.35 E24.73821
G1 X4.408 Y-12.31 E24.77095
G1 X5.316 Y-12.129 E24.81714
G1 X6.078 Y-11.867 E24.85735
G1 X6.669 Y-11.579 E24.89015
G1 X7.22 Y-11.221 E24.92293
G1 X7.922 Y-10.616 E24.96916
G1 X8.457 Y-10.012 E25.00942
G1 X8.829 Y-9.471 E25.04217
G1 X9.133 Y-8.889 E25.07493
G1 X9.436 Y-8.058 E25.11906
G1 X9.61 Y-7.276 E25.15903
G1 X9.676 Y-6.43 E25.20136
G1 X9.675 Y1.579 E25.60093
G1 X9.635 Y2.234 E25.63367
G1 X9.453 Y3.147 E25.68012
G1 X9.19 Y3.908 E25.72029
G1 X8.901 Y4.499 E25.75311
G1 X8.543 Y5.049 E25.78585
G1 X7.941 Y5.747 E25.83184
G1 X7.337 Y6.282 E25.87209
G1 X6.796 Y6.654 E25.90485
G1 X6.214 Y6.958 E25.93761
G1 X5.376 Y7.263 E25.9821
G1 X4.594 Y7.435 E26.02204
G1 X3.754 Y7.501 E26.06408
G1 X-3.753 Y7.5 E26.43861
G0 F3600 X-3.753 Y7.1
G1 F1800 X-4.384 Y7.06 E26.47015
G1 X-5.214 Y6.892 E26.5124
G1 X-5.947 Y6.638 E26.5511
G1 X-6.513 Y6.357 E26.58263
G1 X-7.04 Y6.006 E26.61422
G1 X-7.647 Y5.477 E26.65439
G1 X-8.156 Y4.897 E26.69289
G1 X-8.511 Y4.374 E26.72442
G1 X-8.797 Y3.81 E26.75597
G1 X-9.055 Y3.087 E26.79427
G1 X-9.218 Y2.34 E26.83242
G1 X-9.276 Y1.58 E26.87044
G1 X-9.275 Y-6.429 E27.27001
G1 X-9.235 Y-7.059 E27.30151
G1 X-9.066 Y-7.894 E27.34401
G1 X-8.811 Y-8.627 E27.38273
G1 X-8.529 Y-9.193 E27.41428
G1 X-8.178 Y-9.719 E27.44583
G1 X-7.651 Y-10.322 E27.48578
G1 X-7.072 Y-10.831 E27.52424
G1 X-6.549 Y-11.186 E27.55578
G1 X-5.985 Y-11.472 E27.58733
G1 X-5.257 Y-11.73 E27.62586
G1 X-4.508 Y-11.894 E27.66411
G1 X-3.754 Y-11.951 E27.70184
G1 X3.753 Y-11.95 E28.07636
G1 X4.384 Y-11.91 E28.10791
G1 X5.214 Y-11.742 E28.15016
G1 X5.947 Y-11.488 E28.18886
G1 X6.513 Y-11.207 E28.22038
G1 X7.04 Y-10.856 E28.25197
G1 X7.647 Y-10.327 E28.29214
G1 X8.156 Y-9.747 E28.33064
G1 X8.511 Y-9.224 E28.36218
G1 X8.797 Y-8.66 E28.39373
G1 X9.055 Y-7.937 E28.43203
G1 X9.218 Y-7.19 E28.47017
G1 X9.276 Y-6.43 E28.5082
G1 X9.275 Y1.579 E28.90777
G1 X9.235 Y2.209 E28.93926
G1 X9.066 Y3.044 E28.98177
G1 X8.811 Y3.777 E29.02049
G1 X8.529 Y4.343 E29.05203
G1 X8.178 Y4.869 E29.08358
G1 X7.651 Y5.472 E29.12354
G1 X7.072 Y5.981 E29.162
G1 X6.549 Y6.336 E29.19353
G1 X5.985 Y6.622 E29.22508
G1 X5.257 Y6.88 E29.26362
G1 X4.508 Y7.044 E29.30187
G1 X3.754 Y7.101 E29.33959
G1 X-3.753 Y7.1 E29.71412
G0 F3600 X-3.753 Y6.7
G1 F1800 X-4.358 Y6.66 E29.74437
G1 X-5.113 Y6.506 E29.78281
G1 X-5.815 Y6.259 E29.81994
G1 X-6.356 Y5.985 E29.85019
G1 X-6.856 Y5.643 E29.88042
G1 X-7.371 Y5.186 E29.91477
G1 X-7.855 Y4.633 E29.95143
G1 X-8.191 Y4.128 E29.98169
G1 X-8.458 Y3.584 E30.01193
G1 X-8.673 Y2.965 E30.04462
G1 X-8.826 Y2.254 E30.0809
G1 X-8.876 Y1.58 E30.11462
G1 X-8.875 Y-6.429 E30.51419
G1 X-8.835 Y-7.034 E30.54444
G1 X-8.68 Y-7.791 E30.58299
G1 X-8.433 Y-8.494 E30.62017
G1 X-8.158 Y-9.035 E30.65044
G1 X-7.815 Y-9.535 E30.68069
G1 X-7.36 Y-10.047 E30.71487
G1 X-6.808 Y-10.53 E30.75146
G1 X-6.303 Y-10.866 E30.78172
G1 X-5.759 Y-11.133 E30.81195
G1 X-5.136 Y-11.349 E30.84485
G1 X-4.424 Y-11.502 E30.88118
G1 X-3.754 Y-11.551 E30.9147
G1 X3.753 Y-11.55 E31.28923
G1 X4.358 Y-11.51 E31.31947
G1 X5.113 Y-11.356 E31.35792
G1 X5.815 Y-11.109 E31.39504
G1 X6.356 Y-10.835 E31.4253
G1 X6.856 Y-10.493 E31.45552
G1 X7.371 Y-10.036 E31.48987
G1 X7.855 Y-9.483 E31.52654
G1 X8.191 Y-8.978 E31.5568
G1 X8.458 Y-8.434 E31.58703
G1 X8.673 Y-7.815 E31.61972
G1 X8.826 Y-7.104 E31.65601
G1 X8.876 Y-6.43 E31.68973
G1 X8.875 Y1.579 E32.0893
G1 X8.835 Y2.184 E32.11955
G1 X8.68 Y2.941 E32.1581
G1 X8.433 Y3.644 E32.19527
G1 X8.158 Y4.185 E32.22555
G1 X7.815 Y4.685 E32.2558
G1 X7.36 Y5.197 E32.28997
G1 X6.808 Y5.68 E32.32656
G1 X6.303 Y6.016 E32.35683
G1 X5.759 Y6.283 E32.38706
G1 X5.136 Y6.499 E32.41996
G1 X4.424 Y6.652 E32.45629
G1 X3.754 Y6.701 E32.4898
G1 X-3.753 Y6.7 E32.86433
G0 F3600 X-3.753 Y6.3
G1 F1800 X-4.33 Y6.26 E32.89319
G1 X-5.012 Y6.119 E32.92793
G1 X-5.682 Y5.881 E32.9634
G1 X-6.196 Y5.615 E32.99228
G1 X-6.669 Y5.28 E33.02119
G1 X-7.173 Y4.806 E33.05571
G1 X-7.553 Y4.369 E33.0846
G1 X-7.87 Y3.884 E33.11351
G1 X-8.117 Y3.36 E33.14241
G1 X-8.314 Y2.737 E33.17501
G1 X-8.434 Y2.17 E33.20393
G1 X-8.476 Y1.58 E33.23344
G1 X-8.475 Y-6.429 E33.63301
G1 X-8.435 Y-7.006 E33.66186
G1 X-8.292 Y-7.69 E33.69672
G1 X-8.055 Y-8.361 E33.73223
G1 X-7.787 Y-8.875 E33.76115
G1 X-7.452 Y-9.347 E33.79002
G1 X-6.981 Y-9.848 E33.82433
G1 X-6.544 Y-10.228 E33.85322
G1 X-6.059 Y-10.545 E33.88213
G1 X-5.535 Y-10.792 E33.91103
G1 X-4.907 Y-10.99 E33.94388
