;FLAVOR:Marlin
;TIME:3521
;Filament used: 5.80139m
;Layer height: 0.4
;MINX:-57.365
;MINY:-40.189
;MINZ:0.3
;MAXX:52.498
;MAXY:39.935
;MAXZ:41.1
;Generated with Cura_SteamEngine 5.2.1
M140 S60
M105
M190 S60
M104 S200
M105
M109 S200
M82 ;absolute extrusion mode
G28 ;Home
G1 Z15.0 F6000 ;Move the platform down 15mm
;Prime the extruder
G92 E0
G1 F200 E3
G92 E0
M141 S28
G92 E0
G92 E0
G1 F1500 E-6.5
;LAYER_COUNT:103
;LAYER:0
M107
G0 F3600 X-10.741 Y-34.361 Z0.3
;TYPE:SKIRT
G1 F1500 E0
G1 F1800 X-9.991 Y-34.626 E0.03968
G1 X-9.267 Y-34.928 E0.07882
G1 X-7.943 Y-35.531 E0.1514
G1 X-7.026 Y-35.929 E0.20128
G1 X-6.134 Y-36.287 E0.24923
G1 X-5.533 Y-36.498 E0.28101
G1 X-4.17 Y-36.914 E0.3521
G1 X-3.147 Y-37.628 E0.41434
G1 X-2.498 Y-38.034 E0.45254
G1 X-1.977 Y-38.333 E0.48251
G1 X-1.411 Y-38.629 E0.51437
G1 X-.756 Y-38.933 E0.5504
G1 X-0.032 Y-39.23 E0.58944
G1 X0.647 Y-39.473 E0.62542
G1 X1.435 Y-39.714 E0.66653
G1 X2.566 Y-39.97 E0.72438
G1 X3.525 Y-40.113 E0.77276
G1 X4.311 Y-40.189 E0.81215
G1 X5.352 Y-40.169 E0.8641
G1 X6.293 Y-40.087 E0.91122
G1 X7.075 Y-39.978 E0.95061
G1 X7.841 Y-39.802 E0.98983
G1 X8.639 Y-39.56 E1.03143
G1 X9.31 Y-39.317 E1.06703
G1 X10.038 Y-39.011 E1.10643
G1 X10.731 Y-38.633 E1.14581
G1 X11.143 Y-38.361 E1.17044
G1 X11.615 Y-38.692 E1.19921
G1 X12.304 Y-39.077 E1.23858
G1 X13.029 Y-39.391 E1.278
G1 X13.782 Y-39.63 E1.31741
G1 X14.555 Y-39.792 E1.35682
G1 X15.457 Y-39.88 E1.40203
G1 X18.459 Y-39.998 E1.55192
G1 X19.248 Y-39.989 E1.59128
G1 X20.033 Y-39.9 E1.6307
G1 X20.805 Y-39.733 E1.6701
G1 X20.967 Y-39.68 E1.67861
G1 X21.308 Y-39.651 E1.69568
G1 X22.084 Y-39.506 E1.73507
G1 X22.842 Y-39.283 E1.77449
G1 X23.601 Y-38.969 E1.81547
G1 X24.056 Y-38.873 E1.83866
G1 X24.808 Y-38.632 E1.87806
G1 X25.532 Y-38.317 E1.91745
G1 X25.845 Y-38.141 E1.93537
G1 X26.354 Y-38.045 E1.96121
G1 X27.111 Y-37.821 E2.0006
G1 X27.842 Y-37.522 E2.04
G1 X28.901 Y-36.934 E2.10043
G1 X29.716 Y-36.348 E2.15051
G1 X31.847 Y-36.348 E2.25683
G1 X32.636 Y-36.308 E2.29624
G1 X33.416 Y-36.189 E2.3356
G1 X34.181 Y-35.991 E2.37503
G1 X34.921 Y-35.717 E2.4144
G1 X35.63 Y-35.369 E2.4538
G1 X36.438 Y-34.854 E2.5016
G1 X38.28 Y-33.513 E2.61527
G1 X38.894 Y-33.016 E2.65468
G1 X39.455 Y-32.46 E2.69409
G1 X39.956 Y-31.85 E2.73347
G1 X40.394 Y-31.193 E2.77287
G1 X40.762 Y-30.495 E2.81223
G1 X41.106 Y-29.622 E2.85905
G1 X41.752 Y-27.64 E2.96305
G1 X42.288 Y-27.25 E2.99612
G1 X42.903 Y-26.754 E3.03554
G1 X43.465 Y-26.199 E3.07494
G1 X43.967 Y-25.59 E3.11432
G1 X44.405 Y-24.933 E3.15371
G1 X44.774 Y-24.235 E3.1931
G1 X45.122 Y-23.352 E3.24045
G1 X45.459 Y-22.316 E3.2948
G1 X45.665 Y-21.553 E3.33423
G1 X45.793 Y-20.774 E3.37362
G1 X45.842 Y-19.986 E3.41301
G1 X45.81 Y-19.197 E3.4524
G1 X45.699 Y-18.415 E3.49181
G1 X45.509 Y-17.649 E3.53118
G1 X45.27 Y-16.979 E3.56667
G1 X45.382 Y-16.568 E3.58793
G1 X45.654 Y-15.877 E3.62497
G1 X46.444 Y-13.449 E3.75236
G1 X46.65 Y-12.687 E3.79174
G1 X46.778 Y-11.908 E3.83113
G1 X46.824 Y-11.175 E3.86777
G1 X48.421 Y-10.018 E3.96615
G1 X49.037 Y-9.523 E4.00558
G1 X49.599 Y-8.969 E4.04495
G1 X50.102 Y-8.36 E4.08436
G1 X50.54 Y-7.703 E4.12375
G1 X50.911 Y-7.006 E4.16314
G1 X51.287 Y-6.037 E4.215
G1 X52.14 Y-3.318 E4.35717
G1 X52.338 Y-2.553 E4.39659
G1 X52.458 Y-1.773 E4.43596
G1 X52.498 Y-.984 E4.47538
G1 X52.458 Y-.195 E4.51479
G1 X52.339 Y0.585 E4.55416
G1 X52.136 Y1.366 E4.59442
G1 X52.051 Y1.636 E4.60854
G1 X52.133 Y2.142 E4.63411
G1 X52.182 Y2.931 E4.67355
G1 X52.15 Y3.72 E4.71295
G1 X52.039 Y4.501 E4.7523
G1 X51.799 Y5.427 E4.80003
G1 X51.002 Y7.876 E4.92852
G1 X50.72 Y8.613 E4.96788
G1 X50.562 Y8.928 E4.98547
G1 X50.821 Y9.418 E5.01312
G1 X51.163 Y10.264 E5.05864
G1 X51.583 Y11.743 E5.13535
G1 X51.759 Y12.513 E5.17475
G1 X51.858 Y13.296 E5.21413
G1 X51.876 Y14.086 E5.25355
G1 X51.815 Y14.873 E5.29293
G1 X51.674 Y15.65 E5.33233
G1 X51.495 Y16.291 E5.36553
G1 X51.21 Y17.165 E5.4114
G1 X50.927 Y17.903 E5.45083
G1 X50.572 Y18.608 E5.49021
G1 X50.146 Y19.273 E5.52961
G1 X49.656 Y19.892 E5.569
G1 X49.106 Y20.459 E5.60841
G1 X48.387 Y21.051 E5.65487
G1 X47.643 Y21.593 E5.7008
G1 X46.982 Y22.026 E5.74022
G1 X46.28 Y22.389 E5.77965
G1 X45.546 Y22.679 E5.81902
G1 X44.786 Y22.893 E5.85841
G1 X44.008 Y23.03 E5.89783
G1 X42.913 Y23.097 E5.95256
G1 X42.175 Y23.541 E5.99553
G1 X41.461 Y23.877 E6.0349
G1 X40.716 Y24.139 E6.0743
G1 X39.518 Y24.399 E6.13546
G1 X38.617 Y24.48 E6.18059
G1 X37.828 Y24.471 E6.21995
G1 X37.043 Y24.382 E6.25937
G1 X36.271 Y24.214 E6.29878
G1 X35.521 Y23.969 E6.33815
G1 X34.798 Y23.65 E6.37757
G1 X34.112 Y23.259 E6.41697
G1 X33.343 Y22.712 E6.46405
G1 X31.923 Y23.399 E6.54275
G1 X32.038 Y23.725 E6.55999
G1 X32.227 Y24.492 E6.59941
G1 X32.336 Y25.274 E6.6388
G1 X32.366 Y26.063 E6.67819
G1 X32.316 Y26.851 E6.71758
G1 X32.187 Y27.63 E6.75697
G1 X31.98 Y28.392 E6.79637
G1 X31.696 Y29.129 E6.83577
G1 X31.34 Y29.834 E6.87518
G1 X30.914 Y30.499 E6.91458
G1 X30.423 Y31.117 E6.95396
G1 X29.872 Y31.683 E6.99336
G1 X29.18 Y32.255 E7.03816
G1 X28.505 Y32.7 E7.07849
G1 X27.805 Y33.065 E7.11788
G1 X27.071 Y33.358 E7.15731
G1 X26.312 Y33.575 E7.19669
G1 X25.535 Y33.714 E7.23607
G1 X25.303 Y33.729 E7.24767
G1 X24.477 Y34.214 E7.29546
G1 X23.759 Y34.543 E7.33486
G1 X23.012 Y34.797 E7.37422
G1 X22.659 Y34.878 E7.39229
G1 X22.024 Y35.129 E7.42636
G1 X21.264 Y35.343 E7.46575
G1 X20.486 Y35.479 E7.50515
G1 X19.939 Y35.519 E7.53251
G1 X18.821 Y36.264 E7.59954
G1 X18.143 Y36.668 E7.63892
G1 X17.427 Y37.002 E7.67833
G1 X16.681 Y37.261 E7.71773
G1 X15.913 Y37.444 E7.75712
G1 X15.239 Y37.538 E7.79107
G1 X12.636 Y37.787 E7.92153
G1 X12.523 Y37.832 E7.9276
G1 X11.763 Y38.045 E7.96697
G1 X10.985 Y38.181 E8.00638
G1 X10.619 Y38.203 E8.02467
G1 X10.083 Y38.355 E8.05246
G1 X9.641 Y38.454 E8.07506
G1 X8.906 Y38.744 E8.11448
G1 X8.146 Y38.958 E8.15387
G1 X7.368 Y39.095 E8.19329
G1 X6.595 Y39.151 E8.23195
G1 X6.236 Y39.252 E8.25056
G1 X5.458 Y39.388 E8.28996
G1 X5.207 Y39.445 E8.3028
G1 X4.447 Y39.659 E8.34219
G1 X3.669 Y39.795 E8.3816
G1 X2.881 Y39.851 E8.42101
G1 X2.224 Y39.837 E8.45379
G1 X-.263 Y39.679 E8.57812
G1 X-3.637 Y39.919 E8.74688
G1 X-4.426 Y39.935 E8.78625
G1 X-5.39 Y39.846 E8.83455
G1 X-7.908 Y39.454 E8.96168
G1 X-8.681 Y39.293 E9.00108
G1 X-9.031 Y39.182 E9.01939
G1 X-9.76 Y39.093 E9.05603
G1 X-10.53 Y38.917 E9.09544
G1 X-11.279 Y38.665 E9.13487
G1 X-12.038 Y38.316 E9.17654
G1 X-12.238 Y38.264 E9.18685
G1 X-12.978 Y37.99 E9.22622
G1 X-13.687 Y37.642 E9.26563
G1 X-14.358 Y37.224 E9.30507
G1 X-14.982 Y36.741 E9.34443
G1 X-15.055 Y36.673 E9.34941
G1 X-15.634 Y36.313 E9.38343
G1 X-16.112 Y35.943 E9.41358
G1 X-16.378 Y35.874 E9.42729
G1 X-17.118 Y35.6 E9.46666
G1 X-17.827 Y35.252 E9.50606
G1 X-18.498 Y34.834 E9.54551
G1 X-18.687 Y34.686 E9.55748
G1 X-19.264 Y34.403 E9.58954
G1 X-19.935 Y33.985 E9.62899
G1 X-20.543 Y33.514 E9.66736
G1 X-20.779 Y33.416 E9.6801
G1 X-21.473 Y33.04 E9.71948
G1 X-22.125 Y32.595 E9.75887
G1 X-22.73 Y32.086 E9.79831
G1 X-23.167 Y31.644 E9.82932
G1 X-23.3 Y31.57 E9.83691
G1 X-23.972 Y31.155 E9.87632
G1 X-24.598 Y30.673 E9.91573
G1 X-25.2 Y30.175 E9.95471
G1 X-26.969 Y28.742 E10.06829
G1 X-27.556 Y28.214 E10.10768
G1 X-27.719 Y28.035 E10.11976
G1 X-28.111 Y27.736 E10.14436
G1 X-28.688 Y27.196 E10.18378
G1 X-29.207 Y26.601 E10.22317
G1 X-29.663 Y25.956 E10.26258
G1 X-30.054 Y25.262 E10.30232
G1 X-30.182 Y25.057 E10.31438
G1 X-30.531 Y24.348 E10.35381
G1 X-30.806 Y23.608 E10.39319
G1 X-31.005 Y22.844 E10.43258
G1 X-31.125 Y22.063 E10.472
G1 X-31.166 Y21.274 E10.51142
G1 X-31.127 Y20.486 E10.55078
G1 X-31.051 Y19.994 E10.57562
G1 X-32.371 Y20.191 E10.6422
G1 X-33.124 Y20.267 E10.67996
G1 X-33.689 Y20.296 E10.70818
G1 X-34.205 Y20.296 E10.73393
G1 X-34.632 Y20.491 E10.75735
G1 X-35.367 Y20.78 E10.79675
G1 X-36.127 Y20.993 E10.83613
G1 X-36.895 Y21.14 E10.87514
G1 X-37.85 Y21.239 E10.92304
G1 X-38.69 Y21.238 E10.96495
G1 X-39.2 Y21.21 E10.99043
G1 X-39.985 Y21.127 E11.02981
G1 X-41.03 Y20.888 E11.08329
G1 X-41.827 Y20.647 E11.12483
G1 X-42.517 Y20.403 E11.16135
G1 X-44.098 Y19.778 E11.24616
G1 X-45.033 Y19.34 E11.29767
G1 X-45.951 Y18.833 E11.34999
G1 X-46.677 Y18.372 E11.3929
G1 X-47.123 Y18.066 E11.41988
G1 X-47.769 Y17.59 E11.45992
G1 X-48.613 Y16.87 E11.51526
G1 X-49.246 Y16.247 E11.55957
G1 X-49.635 Y15.836 E11.58781
G1 X-50.04 Y15.375 E11.61842
G1 X-50.424 Y14.901 E11.64886
G1 X-50.817 Y14.376 E11.68157
G1 X-51.433 Y13.415 E11.73852
G1 X-51.866 Y12.615 E11.78391
G1 X-52.184 Y11.954 E11.8205
G1 X-52.455 Y11.317 E11.85504
G1 X-52.757 Y11.092 E11.87383
G1 X-53.366 Y10.589 E11.91323
G1 X-53.824 Y10.133 E11.94548
G1 X-54.311 Y9.606 E11.98128
G1 X-54.816 Y8.999 E12.02067
G1 X-55.258 Y8.345 E12.06005
G1 X-55.504 Y7.907 E12.08511
G1 X-55.812 Y7.314 E12.11845
G1 X-56.252 Y6.295 E12.17383
G1 X-56.541 Y5.469 E12.21749
G1 X-56.781 Y4.637 E12.26069
G1 X-57.032 Y3.543 E12.31668
G1 X-57.158 Y2.858 E12.35143
G1 X-57.255 Y2.149 E12.38713
G1 X-57.339 Y1.14 E12.43765
G1 X-57.365 Y0.351 E12.47703
G1 X-57.306 Y-.468 E12.518
G1 X-57.131 Y-1.872 E12.58859
G1 X-56.998 Y-2.83 E12.63684
G1 X-56.663 Y-4.485 E12.72108
G1 X-56.512 Y-5.114 E12.75335
G1 X-56.385 Y-5.773 E12.78684
G1 X-56.24 Y-6.388 E12.81836
G1 X-56.133 Y-6.772 E12.83825
G1 X-56.018 Y-7.28 E12.86423
G1 X-55.805 Y-8.04 E12.90361
G1 X-55.589 Y-8.607 E12.93388
G1 X-55.366 Y-9.131 E12.96229
G1 X-54.952 Y-9.964 E13.0087
G1 X-54.46 Y-10.82 E13.05796
G1 X-53.857 Y-11.717 E13.11188
G1 X-53.085 Y-12.711 E13.17467
G1 X-52.488 Y-13.413 E13.22065
G1 X-52.608 Y-14.414 E13.27095
G1 X-52.663 Y-15.201 E13.31031
G1 X-52.637 Y-15.991 E13.34974
G1 X-52.532 Y-16.773 E13.3891
G1 X-52.375 Y-17.45 E13.42378
G1 X-52.145 Y-18.271 E13.46631
G1 X-51.894 Y-19.02 E13.50572
G1 X-51.568 Y-19.739 E13.54511
G1 X-51.171 Y-20.422 E13.58452
G1 X-50.707 Y-21.061 E13.62392
G1 X-50.181 Y-21.65 E13.66332
G1 X-49.583 Y-22.196 E13.70372
G1 X-49.047 Y-22.636 E13.73831
G1 X-48.412 Y-23.105 E13.7777
G1 X-47.733 Y-23.508 E13.81709
G1 X-47.017 Y-23.84 E13.85647
G1 X-46.27 Y-24.098 E13.89589
G1 X-45.386 Y-24.307 E13.94121
G1 X-44.476 Y-24.419 E13.98696
G1 X-43.688 Y-24.475 E14.02637
G1 X-42.57 Y-24.418 E14.08222
G1 X-42.142 Y-24.365 E14.10373
G1 X-41.318 Y-24.833 E14.15101
G1 X-40.595 Y-25.151 E14.19042
G1 X-39.844 Y-25.394 E14.2298
G1 X-38.969 Y-25.583 E14.27446
G1 X-38.104 Y-25.677 E14.31787
G1 X-37.315 Y-25.722 E14.35729
G1 X-36.527 Y-25.687 E14.39665
G1 X-35.745 Y-25.573 E14.43607
G1 X-34.979 Y-25.38 E14.47548
G1 X-34.237 Y-25.111 E14.51486
G1 X-33.715 Y-24.859 E14.54378
G1 X-33.274 Y-25.319 E14.57557
G1 X-32.868 Y-25.713 E14.6038
G1 X-32.41 Y-26.126 E14.63456
G1 X-31.692 Y-26.709 E14.68071
G1 X-30.821 Y-27.269 E14.73237
G1 X-30.056 Y-27.702 E14.77622
G1 X-29.284 Y-28.083 E14.81917
G1 X-28.473 Y-28.427 E14.86312
G1 X-27.217 Y-28.879 E14.92972
G1 X-26.682 Y-29.053 E14.95779
G1 X-25.875 Y-29.34 E15.00052
G1 X-25.235 Y-29.557 E15.03423
G1 X-24.481 Y-29.794 E15.07367
G1 X-23.182 Y-30.249 E15.14233
G1 X-22.452 Y-30.486 E15.18063
G1 X-21.187 Y-30.92 E15.24735
G1 X-18.14 Y-31.993 E15.40851
G1 X-16.457 Y-32.554 E15.49702
G1 X-14.884 Y-33.094 E15.57999
G1 X-13.409 Y-33.57 E15.65732
G1 X-12.321 Y-33.893 E15.71394
G1 X-11.406 Y-34.154 E15.76141
G1 X-10.741 Y-34.361 E15.79616
G0 F3600 X-10.6 Y-33.986
G1 F1800 X-9.853 Y-34.251 E15.8357
G1 X-9.101 Y-34.564 E15.87634
G1 X-7.784 Y-35.164 E15.94854
G1 X-6.65 Y-35.653 E16.01015
G1 X-5.987 Y-35.916 E16.04574
G1 X-5.416 Y-36.115 E16.07591
G1 X-3.997 Y-36.548 E16.14992
G1 X-3.058 Y-37.203 E16.20704
G1 X-2.286 Y-37.695 E16.25271
G1 X-1.791 Y-37.978 E16.28116
G1 X-1.225 Y-38.274 E16.31303
G1 X-.605 Y-38.563 E16.34715
G1 X0.119 Y-38.86 E16.38619
G1 X0.764 Y-39.09 E16.42036
G1 X1.552 Y-39.331 E16.46147
G1 X2.625 Y-39.574 E16.51636
G1 X3.584 Y-39.717 E16.56473
G1 X4.349 Y-39.791 E16.60307
G1 X5.317 Y-39.77 E16.65138
G1 X6.258 Y-39.688 E16.6985
G1 X7.53 Y-39.478 E16.76282
G1 X8.503 Y-39.184 E16.81353
G1 X9.174 Y-38.941 E16.84914
G1 X9.882 Y-38.642 E16.88748
G1 X10.556 Y-38.271 E16.92586
G1 X11.154 Y-37.863 E16.96198
G1 X11.39 Y-38.056 E16.97719
G1 X12.033 Y-38.477 E17.01554
G1 X12.717 Y-38.83 E17.05394
G1 X13.433 Y-39.11 E17.09229
G1 X14.175 Y-39.314 E17.13068
G1 X14.934 Y-39.439 E17.16906
G1 X15.472 Y-39.48 E17.19598
G1 X18.474 Y-39.598 E17.34587
G1 X19.243 Y-39.589 E17.38423
G1 X20.007 Y-39.499 E17.42261
G1 X20.758 Y-39.331 E17.46101
G1 X20.894 Y-39.285 E17.46817
G1 X21.294 Y-39.25 E17.4882
G1 X22.049 Y-39.103 E17.52658
G1 X22.785 Y-38.878 E17.56497
G1 X23.468 Y-38.59 E17.60195
G1 X24.011 Y-38.471 E17.62969
G1 X24.741 Y-38.229 E17.66806
G1 X25.443 Y-37.914 E17.70644
G1 X25.687 Y-37.766 E17.72068
G1 X26.318 Y-37.642 E17.75276
G1 X27.053 Y-37.417 E17.79111
G1 X27.762 Y-37.117 E17.82952
G1 X28.695 Y-36.59 E17.88298
G1 X29.586 Y-35.948 E17.93777
G1 X31.847 Y-35.948 E18.05057
G1 X32.615 Y-35.908 E18.08894
G1 X33.375 Y-35.789 E18.12732
G1 X34.118 Y-35.591 E18.16568
G1 X34.837 Y-35.317 E18.20407
G1 X35.523 Y-34.97 E18.24242
G1 X36.202 Y-34.531 E18.28276
G1 X38.044 Y-33.19 E18.39643
G1 X38.642 Y-32.705 E18.43485
G1 X39.186 Y-32.161 E18.47323
G1 X39.67 Y-31.564 E18.51157
G1 X40.09 Y-30.92 E18.54993
G1 X40.441 Y-30.235 E18.58833
G1 X40.725 Y-29.498 E18.62773
G1 X41.41 Y-27.394 E18.73813
G1 X42.053 Y-26.927 E18.77777
G1 X42.651 Y-26.443 E18.81615
G1 X43.196 Y-25.9 E18.85454
G1 X43.681 Y-25.303 E18.89291
G1 X44.102 Y-24.659 E18.9313
G1 X44.454 Y-23.975 E18.96968
G1 X44.742 Y-23.228 E19.00962
G1 X45.079 Y-22.192 E19.06397
G1 X45.279 Y-21.449 E19.10236
G1 X45.4 Y-20.69 E19.1407
G1 X45.442 Y-19.922 E19.17908
G1 X45.404 Y-19.154 E19.21744
G1 X45.286 Y-18.393 E19.25586
G1 X45.091 Y-17.65 E19.29418
G1 X44.844 Y-16.996 E19.32906
G1 X44.987 Y-16.497 E19.35496
G1 X45.274 Y-15.754 E19.39469
G1 X46.064 Y-13.326 E19.52208
G1 X46.264 Y-12.583 E19.56047
G1 X46.385 Y-11.823 E19.59886
G1 X46.432 Y-10.967 E19.64163
G1 X48.187 Y-9.695 E19.74977
G1 X48.785 Y-9.211 E19.78815
G1 X49.33 Y-8.669 E19.8265
G1 X49.816 Y-8.073 E19.86486
G1 X50.238 Y-7.429 E19.90328
G1 X50.59 Y-6.746 E19.94161
G1 X50.906 Y-5.917 E19.98587
G1 X51.759 Y-3.198 E20.12804
G1 X51.95 Y-2.453 E20.16641
G1 X52.064 Y-1.692 E20.2048
G1 X52.098 Y-.924 E20.24316
G1 X52.052 Y-.156 E20.28154
G1 X51.926 Y0.603 E20.31992
G1 X51.754 Y1.246 E20.35313
G1 X51.641 Y1.604 E20.37186
G1 X51.74 Y2.227 E20.40333
G1 X51.782 Y2.995 E20.44171
G1 X51.744 Y3.763 E20.48007
G1 X51.626 Y4.523 E20.51844
G1 X51.419 Y5.303 E20.5587
G1 X50.622 Y7.752 E20.68719
G1 X50.346 Y8.47 E20.72557
G1 X50.114 Y8.925 E20.75105
G1 X50.5 Y9.678 E20.79326
G1 X50.867 Y10.686 E20.84678
G1 X51.198 Y11.852 E20.90725
G1 X51.369 Y12.602 E20.94563
G1 X51.462 Y13.366 E20.98403
G1 X51.474 Y14.135 E21.0224
G1 X51.407 Y14.901 E21.06076
G1 X51.261 Y15.656 E21.09912
G1 X51.114 Y16.167 E21.12565
G1 X50.829 Y17.041 E21.17152
G1 X50.553 Y17.759 E21.20989
G1 X50.204 Y18.444 E21.24825
G1 X49.786 Y19.09 E21.28663
G1 X49.303 Y19.688 E21.32498
G1 X48.76 Y20.233 E21.36337
G1 X48.151 Y20.728 E21.40252
G1 X47.407 Y21.27 E21.44844
G1 X46.763 Y21.69 E21.4868
G1 X46.078 Y22.041 E21.5252
G1 X45.361 Y22.319 E21.56357
G1 X44.619 Y22.521 E21.60193
G1 X43.86 Y22.645 E21.6403
G1 X43.05 Y22.689 E21.68077
G1 X42.778 Y22.689 E21.69434
G1 X42.612 Y22.813 E21.70468
G1 X41.952 Y23.206 E21.743
G1 X41.253 Y23.529 E21.78142
G1 X40.525 Y23.777 E21.81979
G1 X39.457 Y24.003 E21.87425
G1 X38.582 Y24.081 E21.91808
G1 X37.813 Y24.069 E21.95645
G1 X37.049 Y23.977 E21.99484
G1 X36.299 Y23.807 E22.03321
G1 X35.571 Y23.559 E22.07158
G1 X34.872 Y23.238 E22.10995
G1 X34.21 Y22.845 E22.14836
G1 X33.593 Y22.386 E22.18673
G1 X33.403 Y22.211 E22.19961
G1 X33.003 Y22.432 E22.22241
G1 X32.169 Y22.836 E22.26865
G1 X31.404 Y23.158 E22.31006
G1 X31.506 Y23.395 E22.32293
G1 X31.736 Y24.129 E22.3613
G1 X31.887 Y24.883 E22.39967
G1 X31.96 Y25.649 E22.43806
G1 X31.953 Y26.418 E22.47642
G1 X31.866 Y27.182 E22.51479
G1 X31.7 Y27.933 E22.55316
G1 X31.458 Y28.663 E22.59153
G1 X31.14 Y29.364 E22.62993
G1 X30.752 Y30.028 E22.6683
G1 X30.297 Y30.648 E22.70667
G1 X29.78 Y31.217 E22.74502
G1 X28.943 Y31.932 E22.79994
G1 X28.285 Y32.365 E22.83924
G1 X27.602 Y32.718 E22.8776
G1 X26.885 Y32.999 E22.91602
G1 X26.144 Y33.203 E22.95436
