;FLAVOR:Marlin
;TIME:97
;Filament used: 0.0693119m
;Layer height: 0.1
;MINX:-7.975
;MINY:-13.943
;MINZ:0.3
;MAXX:8.301
;MAXY:13.943
;MAXZ:1.5
;Generated with Cura_SteamEngine 5.2.1
M140 S60
M105
M190 S60
M104 S200
M105
M109 S200
M82 ;absolute extrusion mode
G28 ;Home
G1 Z15.0 F6000 ;Move the platform down 15mm
;Prime the extruder
G92 E0
G1 F200 E3
G92 E0
M141 S28
G92 E0
G92 E0
G1 F1500 E-6.5
;LAYER_COUNT:13
;LAYER:0
M107
G0 F3600 X-7.975 Y-6.143 Z0.3
;TYPE:SKIRT
G1 F1500 E0
G1 F1800 X-7.935 Y-6.932 E0.03941
G1 X-7.816 Y-7.712 E0.07878
G1 X-7.618 Y-8.477 E0.1182
G1 X-7.344 Y-9.217 E0.15757
G1 X-6.996 Y-9.926 E0.19697
G1 X-6.578 Y-10.597 E0.23641
G1 X-6.095 Y-11.221 E0.27578
G1 X-5.552 Y-11.794 E0.31517
G1 X-4.953 Y-12.309 E0.35458
G1 X-4.305 Y-12.76 E0.39397
G1 X-3.614 Y-13.144 E0.43341
G1 X-2.889 Y-13.456 E0.47278
G1 X-2.136 Y-13.693 E0.51217
G1 X-1.362 Y-13.852 E0.55159
G1 X-.48 Y-13.943 E0.59582
G1 X0.501 Y-13.943 E0.64477
G1 X1.29 Y-13.903 E0.68418
G1 X2.07 Y-13.784 E0.72355
G1 X2.835 Y-13.586 E0.76297
G1 X3.575 Y-13.312 E0.80234
G1 X4.284 Y-12.964 E0.84174
G1 X4.955 Y-12.546 E0.88118
G1 X5.579 Y-12.063 E0.92055
G1 X6.152 Y-11.52 E0.95993
G1 X6.667 Y-10.921 E0.99934
G1 X7.118 Y-10.273 E1.03873
G1 X7.502 Y-9.582 E1.07817
G1 X7.814 Y-8.857 E1.11755
G1 X8.051 Y-8.104 E1.15693
G1 X8.21 Y-7.33 E1.19636
G1 X8.301 Y-6.448 E1.24059
G1 X8.301 Y6.143 E1.86876
G1 X8.261 Y6.932 E1.90817
G1 X8.142 Y7.712 E1.94754
G1 X7.944 Y8.477 E1.98696
G1 X7.67 Y9.217 E2.02633
G1 X7.322 Y9.926 E2.06573
G1 X6.904 Y10.597 E2.10517
G1 X6.421 Y11.221 E2.14454
G1 X5.878 Y11.794 E2.18393
G1 X5.279 Y12.309 E2.22334
G1 X4.631 Y12.76 E2.26273
G1 X3.94 Y13.144 E2.30216
G1 X3.215 Y13.456 E2.34154
G1 X2.462 Y13.693 E2.38093
G1 X1.688 Y13.852 E2.42035
G1 X0.806 Y13.943 E2.46458
G1 X-.175 Y13.943 E2.51353
G1 X-.964 Y13.903 E2.55294
G1 X-1.744 Y13.784 E2.59231
G1 X-2.509 Y13.586 E2.63173
G1 X-3.249 Y13.312 E2.6711
G1 X-3.958 Y12.964 E2.7105
G1 X-4.629 Y12.546 E2.74994
G1 X-5.253 Y12.063 E2.78931
G1 X-5.826 Y11.52 E2.82869
G1 X-6.341 Y10.921 E2.8681
G1 X-6.792 Y10.273 E2.90749
G1 X-7.176 Y9.582 E2.94693
G1 X-7.488 Y8.857 E2.98631
G1 X-7.725 Y8.104 E3.02569
G1 X-7.884 Y7.33 E3.06512
G1 X-7.975 Y6.448 E3.10935
G1 X-7.975 Y-6.143 E3.73752
G0 F3600 X-7.575 Y-6.143
G1 F1800 X-7.535 Y-6.911 E3.77589
G1 X-7.416 Y-7.671 E3.81427
G1 X-7.218 Y-8.414 E3.85263
G1 X-6.944 Y-9.133 E3.89102
G1 X-6.597 Y-9.819 E3.92937
G1 X-6.181 Y-10.466 E3.96774
G1 X-5.7 Y-11.066 E4.00611
G1 X-5.159 Y-11.613 E4.04449
G1 X-4.564 Y-12.101 E4.08288
G1 X-3.922 Y-12.524 E4.12124
G1 X-3.239 Y-12.879 E4.15964
G1 X-2.524 Y-13.16 E4.19797
G1 X-1.782 Y-13.366 E4.23639
G1 X-1.024 Y-13.494 E4.27474
G1 X-.175 Y-13.543 E4.31717
G1 X0.501 Y-13.543 E4.3509
G1 X1.269 Y-13.503 E4.38926
G1 X2.029 Y-13.384 E4.42764
G1 X2.772 Y-13.186 E4.466
G1 X3.491 Y-12.912 E4.50439
G1 X4.177 Y-12.565 E4.54275
G1 X4.824 Y-12.149 E4.58112
G1 X5.424 Y-11.668 E4.61949
G1 X5.971 Y-11.127 E4.65787
G1 X6.459 Y-10.532 E4.69626
G1 X6.882 Y-9.89 E4.73462
G1 X7.237 Y-9.207 E4.77302
G1 X7.518 Y-8.492 E4.81135
G1 X7.724 Y-7.75 E4.84977
G1 X7.852 Y-6.992 E4.88812
G1 X7.901 Y-6.143 E4.93055
G1 X7.901 Y6.143 E5.5435
G1 X7.861 Y6.911 E5.58187
G1 X7.742 Y7.671 E5.62024
G1 X7.544 Y8.414 E5.65861
G1 X7.27 Y9.133 E5.69699
G1 X6.923 Y9.819 E5.73535
G1 X6.507 Y10.466 E5.77372
G1 X6.026 Y11.066 E5.81209
G1 X5.485 Y11.613 E5.85047
G1 X4.89 Y12.101 E5.88886
G1 X4.248 Y12.524 E5.92722
G1 X3.565 Y12.879 E5.96562
G1 X2.85 Y13.16 E6.00395
G1 X2.108 Y13.366 E6.04237
G1 X1.35 Y13.494 E6.08072
G1 X0.501 Y13.543 E6.12315
G1 X-.175 Y13.543 E6.15687
G1 X-.943 Y13.503 E6.19524
G1 X-1.703 Y13.384 E6.23362
G1 X-2.446 Y13.186 E6.27198
G1 X-3.165 Y12.912 E6.31037
G1 X-3.851 Y12.565 E6.34872
G1 X-4.498 Y12.149 E6.3871
G1 X-5.098 Y11.668 E6.42546
G1 X-5.645 Y11.127 E6.46385
G1 X-6.133 Y10.532 E6.50224
G1 X-6.556 Y9.89 E6.5406
G1 X-6.911 Y9.207 E6.579
G1 X-7.192 Y8.492 E6.61733
G1 X-7.398 Y7.75 E6.65574
G1 X-7.526 Y6.992 E6.6941
G1 X-7.575 Y6.143 E6.73652
G1 X-7.575 Y-6.143 E7.34948
G0 F3600 X-7.175 Y-6.143
G1 F1800 X-7.135 Y-6.89 E7.3868
G1 X-7.016 Y-7.628 E7.42409
G1 X-6.818 Y-8.35 E7.46144
G1 X-6.545 Y-9.046 E7.49874
G1 X-6.198 Y-9.709 E7.53607
G1 X-5.783 Y-10.332 E7.57342
G1 X-5.304 Y-10.906 E7.61072
G1 X-4.767 Y-11.427 E7.64805
G1 X-4.177 Y-11.886 E7.68534
G1 X-3.541 Y-12.281 E7.72269
G1 X-2.867 Y-12.605 E7.76
G1 X-2.162 Y-12.855 E7.79732
G1 X-1.434 Y-13.029 E7.83466
G1 X-.692 Y-13.124 E7.87198
G1 X-.175 Y-13.143 E7.8978
G1 X0.501 Y-13.143 E7.93152
G1 X1.248 Y-13.103 E7.96884
G1 X1.986 Y-12.984 E8.00614
G1 X2.708 Y-12.786 E8.04349
G1 X3.404 Y-12.513 E8.08079
G1 X4.067 Y-12.166 E8.11812
G1 X4.69 Y-11.751 E8.15547
G1 X5.264 Y-11.272 E8.19277
G1 X5.785 Y-10.735 E8.23009
G1 X6.244 Y-10.145 E8.26739
G1 X6.639 Y-9.509 E8.30474
G1 X6.963 Y-8.835 E8.34205
G1 X7.213 Y-8.13 E8.37937
G1 X7.387 Y-7.402 E8.41671
G1 X7.482 Y-6.66 E8.45403
G1 X7.501 Y-6.143 E8.47984
G1 X7.501 Y6.143 E9.09279
G1 X7.461 Y6.89 E9.13011
G1 X7.342 Y7.628 E9.16741
G1 X7.144 Y8.35 E9.20476
G1 X6.871 Y9.046 E9.24206
G1 X6.524 Y9.709 E9.27939
G1 X6.109 Y10.332 E9.31674
G1 X5.63 Y10.906 E9.35404
G1 X5.093 Y11.427 E9.39136
G1 X4.503 Y11.886 E9.42866
G1 X3.867 Y12.281 E9.46601
G1 X3.193 Y12.605 E9.50332
G1 X2.488 Y12.855 E9.54064
G1 X1.76 Y13.029 E9.57798
G1 X1.018 Y13.124 E9.6153
G1 X0.501 Y13.143 E9.64111
G1 X-.175 Y13.143 E9.67484
G1 X-.922 Y13.103 E9.71216
G1 X-1.66 Y12.984 E9.74945
G1 X-2.382 Y12.786 E9.7868
G1 X-3.078 Y12.513 E9.8241
G1 X-3.741 Y12.166 E9.86144
G1 X-4.364 Y11.751 E9.89878
G1 X-4.938 Y11.272 E9.93608
G1 X-5.459 Y10.735 E9.97341
G1 X-5.918 Y10.145 E10.0107
G1 X-6.313 Y9.509 E10.04806
G1 X-6.637 Y8.835 E10.08537
G1 X-6.887 Y8.13 E10.12268
G1 X-7.061 Y7.402 E10.16003
G1 X-7.156 Y6.66 E10.19735
G1 X-7.175 Y6.143 E10.22316
G1 X-7.175 Y-6.143 E10.83611
G0 F3600 X-6.775 Y-6.143
G1 F1800 X-6.735 Y-6.868 E10.87233
G1 X-6.616 Y-7.585 E10.9086
G1 X-6.418 Y-8.284 E10.94484
G1 X-6.145 Y-8.957 E10.98107
G1 X-5.8 Y-9.596 E11.0173
G1 X-5.386 Y-10.193 E11.05355
G1 X-4.91 Y-10.741 E11.08976
G1 X-4.376 Y-11.234 E11.12602
G1 X-3.791 Y-11.664 E11.16224
G1 X-3.162 Y-12.028 E11.1985
G1 X-2.497 Y-12.321 E11.23475
G1 X-1.804 Y-12.539 E11.271
G1 X-1.092 Y-12.679 E11.3072
G1 X-.175 Y-12.743 E11.35306
G1 X0.501 Y-12.743 E11.38679
G1 X1.226 Y-12.703 E11.42301
G1 X1.943 Y-12.584 E11.45927
G1 X2.642 Y-12.386 E11.49552
G1 X3.315 Y-12.113 E11.53175
G1 X3.954 Y-11.768 E11.56798
G1 X4.551 Y-11.354 E11.60423
G1 X5.099 Y-10.878 E11.64044
G1 X5.592 Y-10.344 E11.6767
G1 X6.022 Y-9.759 E11.71292
G1 X6.386 Y-9.13 E11.74918
G1 X6.679 Y-8.465 E11.78543
G1 X6.897 Y-7.772 E11.82168
G1 X7.037 Y-7.06 E11.85788
G1 X7.101 Y-6.143 E11.90374
G1 X7.101 Y6.143 E12.51669
G1 X7.061 Y6.868 E12.55292
G1 X6.942 Y7.585 E12.58918
G1 X6.744 Y8.284 E12.62542
G1 X6.471 Y8.957 E12.66166
G1 X6.126 Y9.596 E12.69789
G1 X5.712 Y10.193 E12.73413
G1 X5.236 Y10.741 E12.77034
G1 X4.702 Y11.234 E12.8066
G1 X4.117 Y11.664 E12.84282
G1 X3.488 Y12.028 E12.87908
G1 X2.823 Y12.321 E12.91534
G1 X2.13 Y12.539 E12.95158
G1 X1.418 Y12.679 E12.98778
G1 X0.501 Y12.743 E13.03364
G1 X-.175 Y12.743 E13.06737
G1 X-.9 Y12.703 E13.10359
G1 X-1.617 Y12.584 E13.13985
G1 X-2.316 Y12.386 E13.1761
G1 X-2.989 Y12.113 E13.21233
G1 X-3.628 Y11.768 E13.24856
G1 X-4.225 Y11.354 E13.28481
G1 X-4.773 Y10.878 E13.32102
G1 X-5.266 Y10.344 E13.35728
G1 X-5.696 Y9.759 E13.3935
G1 X-6.06 Y9.13 E13.42976
G1 X-6.353 Y8.465 E13.46601
G1 X-6.571 Y7.772 E13.50226
G1 X-6.711 Y7.06 E13.53846
G1 X-6.775 Y6.143 E13.58432
G1 X-6.775 Y-6.143 E14.19727
G0 F3600 X-6.375 Y-6.143
G1 F1800 X-6.335 Y-6.846 E14.2324
G1 X-6.216 Y-7.54 E14.26753
G1 X-6.018 Y-8.215 E14.30263
G1 X-5.746 Y-8.864 E14.33773
G1 X-5.401 Y-9.478 E14.37287
G1 X-4.99 Y-10.049 E14.40797
G1 X-4.516 Y-10.57 E14.44311
G1 X-3.986 Y-11.034 E14.47825
G1 X-3.407 Y-11.434 E14.51336
G1 X-2.786 Y-11.766 E14.54849
G1 X-2.132 Y-12.026 E14.58361
G1 X-1.452 Y-12.21 E14.61875
G1 X-.756 Y-12.316 E14.65388
G1 X-.175 Y-12.343 E14.68289
G1 X0.501 Y-12.343 E14.71662
G1 X1.204 Y-12.303 E14.75175
G1 X1.898 Y-12.184 E14.78688
G1 X2.573 Y-11.986 E14.82197
G1 X3.222 Y-11.714 E14.85708
G1 X3.836 Y-11.369 E14.89222
G1 X4.407 Y-10.958 E14.92732
G1 X4.928 Y-10.484 E14.96246
G1 X5.392 Y-9.954 E14.9976
G1 X5.792 Y-9.375 E15.03271
G1 X6.124 Y-8.754 E15.06784
G1 X6.384 Y-8.1 E15.10295
G1 X6.568 Y-7.42 E15.1381
G1 X6.674 Y-6.724 E15.17322
G1 X6.701 Y-6.143 E15.20224
G1 X6.701 Y6.143 E15.81519
G1 X6.661 Y6.846 E15.85032
G1 X6.542 Y7.54 E15.88545
G1 X6.344 Y8.215 E15.92054
G1 X6.072 Y8.864 E15.95565
G1 X5.727 Y9.478 E15.99079
G1 X5.316 Y10.049 E16.02589
G1 X4.842 Y10.57 E16.06103
G1 X4.312 Y11.034 E16.09617
G1 X3.733 Y11.434 E16.13128
G1 X3.112 Y11.766 E16.16641
G1 X2.458 Y12.026 E16.20153
G1 X1.778 Y12.21 E16.23667
G1 X1.082 Y12.316 E16.27179
G1 X0.501 Y12.343 E16.30081
G1 X-.175 Y12.343 E16.33454
G1 X-.878 Y12.303 E16.36967
G1 X-1.572 Y12.184 E16.4048
G1 X-2.247 Y11.986 E16.43989
G1 X-2.896 Y11.714 E16.475
G1 X-3.51 Y11.369 E16.51014
G1 X-4.081 Y10.958 E16.54524
G1 X-4.602 Y10.484 E16.58038
G1 X-5.066 Y9.954 E16.61552
G1 X-5.466 Y9.375 E16.65063
G1 X-5.798 Y8.754 E16.68576
G1 X-6.058 Y8.1 E16.72087
G1 X-6.242 Y7.42 E16.75602
G1 X-6.348 Y6.724 E16.79114
G1 X-6.375 Y6.143 E16.82016
G1 X-6.375 Y-6.143 E17.43311
G0 F3600 X-5.975 Y-6.143
G1 F1800 X-5.935 Y-6.823 E17.46709
G1 X-5.816 Y-7.493 E17.50104
G1 X-5.619 Y-8.145 E17.53502
G1 X-5.347 Y-8.769 E17.56898
G1 X-5.003 Y-9.357 E17.60297
G1 X-4.593 Y-9.901 E17.63696
G1 X-4.122 Y-10.392 E17.6709
G1 X-3.597 Y-10.826 E17.70488
G1 X-3.025 Y-11.195 E17.73884
G1 X-2.413 Y-11.494 E17.77283
G1 X-1.771 Y-11.719 E17.80677
G1 X-1.106 Y-11.868 E17.84077
G1 X-.175 Y-11.943 E17.88736
G1 X0.501 Y-11.943 E17.92109
G1 X1.181 Y-11.903 E17.95507
G1 X1.851 Y-11.784 E17.98902
G1 X2.503 Y-11.587 E18.023
G1 X3.127 Y-11.315 E18.05696
G1 X3.715 Y-10.971 E18.09095
G1 X4.259 Y-10.561 E18.12494
G1 X4.75 Y-10.09 E18.15888
G1 X5.184 Y-9.565 E18.19286
G1 X5.553 Y-8.993 E18.22682
G1 X5.852 Y-8.381 E18.26081
G1 X6.077 Y-7.739 E18.29475
G1 X6.226 Y-7.074 E18.32875
G1 X6.301 Y-6.143 E18.37534
G1 X6.301 Y6.143 E18.9883
G1 X6.261 Y6.823 E19.02228
G1 X6.142 Y7.493 E19.05623
G1 X5.945 Y8.145 E19.09021
G1 X5.673 Y8.769 E19.12417
G1 X5.329 Y9.357 E19.15816
G1 X4.919 Y9.901 E19.19214
G1 X4.448 Y10.392 E19.22609
G1 X3.923 Y10.826 E19.26007
G1 X3.351 Y11.195 E19.29403
G1 X2.739 Y11.494 E19.32801
G1 X2.097 Y11.719 E19.36195
G1 X1.432 Y11.868 E19.39595
G1 X0.501 Y11.943 E19.44255
G1 X-.175 Y11.943 E19.47628
G1 X-.855 Y11.903 E19.51026
G1 X-1.525 Y11.784 E19.54421
G1 X-2.177 Y11.587 E19.57819
G1 X-2.801 Y11.315 E19.61215
G1 X-3.389 Y10.971 E19.64614
G1 X-3.933 Y10.561 E19.68012
G1 X-4.424 Y10.09 E19.71407
G1 X-4.858 Y9.565 E19.74805
G1 X-5.227 Y8.993 E19.78201
G1 X-5.526 Y8.381 E19.81599
G1 X-5.751 Y7.739 E19.84993
G1 X-5.9 Y7.074 E19.88393
G1 X-5.975 Y6.143 E19.93053
G1 X-5.975 Y-6.143 E20.54348
G0 F3600 X-5.575 Y-6.143
G1 F1800 X-5.535 Y-6.799 E20.57627
G1 X-5.416 Y-7.445 E20.60904
G1 X-5.219 Y-8.072 E20.64183
G1 X-4.947 Y-8.67 E20.6746
G1 X-4.605 Y-9.231 E20.70738
G1 X-4.197 Y-9.746 E20.74016
G1 X-3.73 Y-10.208 E20.77294
G1 X-3.21 Y-10.609 E20.8057
G1 X-2.646 Y-10.945 E20.83845
G1 X-2.044 Y-11.209 E20.87125
G1 X-1.415 Y-11.399 E20.90403
G1 X-.768 Y-11.51 E20.93678
G1 X-.175 Y-11.543 E20.96641
G1 X0.501 Y-11.543 E21.00013
G1 X1.157 Y-11.503 E21.03292
G1 X1.803 Y-11.384 E21.06569
G1 X2.43 Y-11.187 E21.09848
G1 X3.028 Y-10.915 E21.13126
G1 X3.589 Y-10.573 E21.16404
G1 X4.104 Y-10.165 E21.19682
G1 X4.566 Y-9.698 E21.22959
G1 X4.967 Y-9.178 E21.26235
G1 X5.303 Y-8.614 E21.2951
G1 X5.567 Y-8.012 E21.3279
G1 X5.757 Y-7.383 E21.36068
G1 X5.868 Y-6.736 E21.39343
G1 X5.901 Y-6.143 E21.42306
G1 X5.901 Y6.143 E22.03601
G1 X5.861 Y6.799 E22.0688
G1 X5.742 Y7.445 E22.10157
G1 X5.545 Y8.072 E22.13436
G1 X5.273 Y8.67 E22.16714
G1 X4.931 Y9.231 E22.19992
G1 X4.523 Y9.746 E22.2327
G1 X4.056 Y10.208 E22.26547
G1 X3.536 Y10.609 E22.29823
G1 X2.972 Y10.945 E22.33098
G1 X2.37 Y11.209 E22.36378
G1 X1.741 Y11.399 E22.39656
G1 X1.094 Y11.51 E22.42931
G1 X0.501 Y11.543 E22.45894
G1 X-.175 Y11.543 E22.49267
G1 X-.831 Y11.503 E22.52546
G1 X-1.477 Y11.384 E22.55823
G1 X-2.104 Y11.187 E22.59102
G1 X-2.702 Y10.915 E22.62379
G1 X-3.263 Y10.573 E22.65657
G1 X-3.778 Y10.165 E22.68935
G1 X-4.24 Y9.698 E22.72212
G1 X-4.641 Y9.178 E22.75488
G1 X-4.977 Y8.614 E22.78764
G1 X-5.241 Y8.012 E22.82043
G1 X-5.431 Y7.383 E22.85321
G1 X-5.542 Y6.736 E22.88596
G1 X-5.575 Y6.143 E22.91559
G1 X-5.575 Y-6.143 E23.52855
G0 F3600 X-5.175 Y-6.143
G1 F1800 X-5.135 Y-6.774 E23.56009
G1 X-5.016 Y-7.395 E23.59163
G1 X-4.819 Y-7.995 E23.62314
G1 X-4.548 Y-8.567 E23.65472
G1 X-4.208 Y-9.099 E23.68622
G1 X-3.802 Y-9.584 E23.71777
G1 X-3.339 Y-10.014 E23.7493
G1 X-2.825 Y-10.383 E23.78087
G1 X-2.269 Y-10.683 E23.81239
G1 X-1.68 Y-10.911 E23.8439
G1 X-1.066 Y-11.063 E23.87545
G1 X-.175 Y-11.143 E23.92008
G1 X0.501 Y-11.143 E23.95381
G1 X1.132 Y-11.103 E23.98535
G1 X1.753 Y-10.984 E24.0169
G1 X2.353 Y-10.787 E24.04841
G1 X2.925 Y-10.516 E24.07998
G1 X3.457 Y-10.176 E24.11148
G1 X3.942 Y-9.77 E24.14304
G1 X4.372 Y-9.307 E24.17456
G1 X4.741 Y-8.793 E24.20613
G1 X5.041 Y-8.237 E24.23765
G1 X5.269 Y-7.648 E24.26916
G1 X5.421 Y-7.034 E24.30072
G1 X5.501 Y-6.143 E24.34535
G1 X5.501 Y6.143 E24.9583
G1 X5.461 Y6.774 E24.98984
G1 X5.342 Y7.395 E25.02139
G1 X5.145 Y7.995 E25.05289
G1 X4.874 Y8.567 E25.08447
G1 X4.534 Y9.099 E25.11597
G1 X4.128 Y9.584 E25.14753
G1 X3.665 Y10.014 E25.17905
G1 X3.151 Y10.383 E25.21062
G1 X2.595 Y10.683 E25.24214
G1 X2.006 Y10.911 E25.27365
G1 X1.392 Y11.063 E25.30521
G1 X0.501 Y11.143 E25.34984
G1 X-.175 Y11.143 E25.38356
G1 X-.806 Y11.103 E25.41511
G1 X-1.427 Y10.984 E25.44665
G1 X-2.027 Y10.787 E25.47816
G1 X-2.599 Y10.516 E25.50974
G1 X-3.131 Y10.176 E25.54123
G1 X-3.616 Y9.77 E25.57279
G1 X-4.046 Y9.307 E25.60432
G1 X-4.415 Y8.793 E25.63588
G1 X-4.715 Y8.237 E25.6674
G1 X-4.943 Y7.648 E25.69891
G1 X-5.095 Y7.034 E25.73047
G1 X-5.175 Y6.143 E25.7751
G1 X-5.175 Y-6.143 E26.38805
G0 F3600 X-4.775 Y-6.143
G1 F1800 X-4.735 Y-6.748 E26.4183
G1 X-4.616 Y-7.342 E26.44852
G1 X-4.42 Y-7.916 E26.47878
G1 X-4.149 Y-8.459 E26.50906
G1 X-3.81 Y-8.962 E26.53932
G1 X-3.408 Y-9.415 E26.56954
G1 X-2.95 Y-9.812 E26.59978
G1 X-2.443 Y-10.145 E26.63004
G1 X-1.897 Y-10.409 E26.6603
G1 X-1.321 Y-10.598 E26.69054
G1 X-.725 Y-10.71 E26.7208
G1 X-.175 Y-10.743 E26.74829
G1 X0.501 Y-10.743 E26.78201
G1 X1.106 Y-10.703 E26.81226
G1 X1.7 Y-10.584 E26.84249
G1 X2.274 Y-10.388 E26.87275
G1 X2.817 Y-10.117 E26.90302
G1 X3.32 Y-9.778 E26.93328
G1 X3.773 Y-9.376 E26.9635
G1 X4.17 Y-8.918 E26.99374
G1 X4.503 Y-8.411 E27.024
G1 X4.767 Y-7.865 E27.05426
G1 X4.956 Y-7.289 E27.0845
G1 X5.068 Y-6.693 E27.11476
G1 X5.101 Y-6.143 E27.14225
G1 X5.101 Y6.143 E27.7552
G1 X5.061 Y6.748 E27.78545
G1 X4.942 Y7.342 E27.81567
G1 X4.746 Y7.916 E27.84593
G1 X4.475 Y8.459 E27.87621
G1 X4.136 Y8.962 E27.90647
G1 X3.734 Y9.415 E27.93669
G1 X3.276 Y9.812 E27.96693
G1 X2.769 Y10.145 E27.99719
G1 X2.223 Y10.409 E28.02745
G1 X1.647 Y10.598 E28.05769
G1 X1.051 Y10.71 E28.08794
G1 X0.501 Y10.743 E28.11543
G1 X-.175 Y10.743 E28.14916
G1 X-.78 Y10.703 E28.17941
G1 X-1.374 Y10.584 E28.20963
G1 X-1.948 Y10.388 E28.23989
G1 X-2.491 Y10.117 E28.27017
G1 X-2.994 Y9.778 E28.30043
G1 X-3.447 Y9.376 E28.33065
G1 X-3.844 Y8.918 E28.36089
G1 X-4.177 Y8.411 E28.39115
G1 X-4.441 Y7.865 E28.42141
G1 X-4.63 Y7.289 E28.45165
G1 X-4.742 Y6.693 E28.48191
G1 X-4.775 Y6.143 E28.50939
G1 X-4.775 Y-6.143 E29.12235
G0 F3600 X-4.375 Y-6.143
G1 F1800 X-4.335 Y-6.721 E29.15125
G1 X-4.216 Y-7.288 E29.18016
G1 X-4.02 Y-7.833 E29.20905
G1 X-3.751 Y-8.346 E29.23795
G1 X-3.414 Y-8.817 E29.26684
G1 X-3.015 Y-9.237 E29.29574
G1 X-2.562 Y-9.599 E29.32467
G1 X-2.064 Y-9.894 E29.35355
G1 X-1.53 Y-10.119 E29.38246
G1 X-.97 Y-10.267 E29.41136
G1 X-.175 Y-10.343 E29.4512
G1 X0.501 Y-10.343 E29.48493
G1 X1.079 Y-10.303 E29.51383
G1 X1.646 Y-10.184 E29.54274
G1 X2.191 Y-9.988 E29.57163
G1 X2.704 Y-9.719 E29.60053
G1 X3.175 Y-9.382 E29.62943
G1 X3.595 Y-8.983 E29.65833
