;FLAVOR:Marlin
;TIME:113
;Filament used: 0.0691119m
;Layer height: 0.06
;MINX:-9.807
;MINY:-13.3
;MINZ:0.3
;MAXX:9.807
;MAXY:13.3
;MAXZ:1.08
;Generated with Cura_SteamEngine 5.2.1
M140 S60
M105
M190 S60
M104 S200
M105
M109 S200
M82 ;absolute extrusion mode
G28 ;Home
G1 Z15.0 F6000 ;Move the platform down 15mm
;Prime the extruder
G92 E0
G1 F200 E3
G92 E0
M141 S28
G92 E0
G92 E0
G1 F1500 E-6.5
;LAYER_COUNT:14
;LAYER:0
M107
G0 F3600 X8.793 Y-4.276 Z0.3
;TYPE:SKIRT
G1 F1500 E0
G1 F1800 X9.008 Y-3.889 E0.02209
G1 X9.32 Y-3.164 E0.06146
G1 X9.557 Y-2.411 E0.10085
G1 X9.716 Y-1.637 E0.14027
G1 X9.807 Y-.755 E0.18451
G1 X9.807 Y0.45 E0.24462
G1 X9.767 Y1.239 E0.28404
G1 X9.648 Y2.019 E0.3234
G1 X9.45 Y2.784 E0.36283
G1 X9.176 Y3.524 E0.40219
G1 X8.793 Y4.304 E0.44555
G1 X8.793 Y5.5 E0.50522
G1 X8.753 Y6.289 E0.54463
G1 X8.634 Y7.069 E0.58399
G1 X8.436 Y7.834 E0.62342
G1 X8.162 Y8.574 E0.66279
G1 X7.814 Y9.283 E0.70219
G1 X7.396 Y9.954 E0.74163
G1 X6.913 Y10.578 E0.781
G1 X6.37 Y11.151 E0.82038
G1 X5.771 Y11.666 E0.85979
G1 X5.123 Y12.117 E0.89918
G1 X4.432 Y12.501 E0.93862
G1 X3.707 Y12.813 E0.978
G1 X2.954 Y13.05 E1.01738
G1 X2.18 Y13.209 E1.0568
G1 X1.298 Y13.3 E1.10104
G1 X-2.007 Y13.3 E1.26593
G1 X-2.796 Y13.26 E1.30534
G1 X-3.576 Y13.141 E1.34471
G1 X-4.341 Y12.943 E1.38413
G1 X-5.081 Y12.669 E1.4235
G1 X-5.79 Y12.321 E1.4629
G1 X-6.461 Y11.903 E1.50234
G1 X-7.085 Y11.42 E1.54171
G1 X-7.658 Y10.877 E1.58109
G1 X-8.173 Y10.278 E1.62051
G1 X-8.624 Y9.63 E1.65989
G1 X-9.008 Y8.939 E1.69933
G1 X-9.32 Y8.214 E1.73871
G1 X-9.557 Y7.461 E1.7781
G1 X-9.716 Y6.687 E1.81752
G1 X-9.807 Y5.805 E1.86175
G1 X-9.807 Y-5.5 E2.42576
G1 X-9.767 Y-6.289 E2.46518
G1 X-9.648 Y-7.069 E2.50454
G1 X-9.45 Y-7.834 E2.54396
G1 X-9.176 Y-8.574 E2.58333
G1 X-8.828 Y-9.283 E2.62274
G1 X-8.41 Y-9.954 E2.66218
G1 X-7.927 Y-10.578 E2.70154
G1 X-7.384 Y-11.151 E2.74093
G1 X-6.785 Y-11.666 E2.78034
G1 X-6.137 Y-12.117 E2.81973
G1 X-5.446 Y-12.501 E2.85917
G1 X-4.721 Y-12.813 E2.89854
G1 X-3.968 Y-13.05 E2.93793
G1 X-3.194 Y-13.209 E2.97735
G1 X-2.312 Y-13.3 E3.02159
G1 X0.993 Y-13.3 E3.18647
G1 X1.782 Y-13.26 E3.22589
G1 X2.562 Y-13.141 E3.26525
G1 X3.327 Y-12.943 E3.30468
G1 X4.067 Y-12.669 E3.34404
G1 X4.776 Y-12.321 E3.38345
G1 X5.447 Y-11.903 E3.42289
G1 X6.071 Y-11.42 E3.46226
G1 X6.644 Y-10.877 E3.50164
G1 X7.159 Y-10.278 E3.54105
G1 X7.61 Y-9.63 E3.58044
G1 X7.994 Y-8.939 E3.61988
G1 X8.306 Y-8.214 E3.65926
G1 X8.543 Y-7.461 E3.69864
G1 X8.702 Y-6.687 E3.73806
G1 X8.793 Y-5.805 E3.7823
G1 X8.793 Y-4.276 E3.85858
G0 F3600 X8.393 Y-4.187
G1 F1800 X8.743 Y-3.514 E3.89643
G1 X9.024 Y-2.799 E3.93475
G1 X9.23 Y-2.057 E3.97317
G1 X9.358 Y-1.299 E4.01152
G1 X9.407 Y-.45 E4.05395
G1 X9.407 Y0.45 E4.09885
G1 X9.367 Y1.218 E4.13722
G1 X9.248 Y1.978 E4.1756
G1 X9.05 Y2.721 E4.21396
G1 X8.776 Y3.44 E4.25235
G1 X8.393 Y4.197 E4.29467
G1 X8.393 Y5.5 E4.35968
G1 X8.353 Y6.268 E4.39805
G1 X8.234 Y7.028 E4.43643
G1 X8.036 Y7.771 E4.47479
G1 X7.762 Y8.49 E4.51318
G1 X7.415 Y9.176 E4.55153
G1 X6.999 Y9.823 E4.58991
G1 X6.518 Y10.423 E4.62827
G1 X5.977 Y10.97 E4.66665
G1 X5.382 Y11.458 E4.70505
G1 X4.74 Y11.881 E4.7434
G1 X4.057 Y12.236 E4.78181
G1 X3.342 Y12.517 E4.82013
G1 X2.6 Y12.723 E4.85855
G1 X1.842 Y12.851 E4.8969
G1 X0.993 Y12.9 E4.93933
G1 X-2.007 Y12.9 E5.089
G1 X-2.775 Y12.86 E5.12737
G1 X-3.535 Y12.741 E5.16575
G1 X-4.278 Y12.543 E5.20411
G1 X-4.997 Y12.269 E5.2425
G1 X-5.683 Y11.922 E5.28085
G1 X-6.33 Y11.506 E5.31923
G1 X-6.93 Y11.025 E5.35759
G1 X-7.477 Y10.484 E5.39598
G1 X-7.965 Y9.889 E5.43437
G1 X-8.388 Y9.247 E5.47272
G1 X-8.743 Y8.564 E5.51113
G1 X-9.024 Y7.849 E5.54945
G1 X-9.23 Y7.107 E5.58787
G1 X-9.358 Y6.349 E5.62623
G1 X-9.407 Y5.5 E5.66865
G1 X-9.407 Y-5.5 E6.21745
G1 X-9.367 Y-6.268 E6.25581
G1 X-9.248 Y-7.028 E6.29419
G1 X-9.05 Y-7.771 E6.33255
G1 X-8.776 Y-8.49 E6.37094
G1 X-8.429 Y-9.176 E6.40929
G1 X-8.013 Y-9.823 E6.44767
G1 X-7.532 Y-10.423 E6.48604
G1 X-6.991 Y-10.97 E6.52442
G1 X-6.396 Y-11.458 E6.56281
G1 X-5.754 Y-11.881 E6.60117
G1 X-5.071 Y-12.236 E6.63957
G1 X-4.356 Y-12.517 E6.6779
G1 X-3.614 Y-12.723 E6.71632
G1 X-2.856 Y-12.851 E6.75467
G1 X-2.007 Y-12.9 E6.7971
G1 X0.993 Y-12.9 E6.94677
G1 X1.761 Y-12.86 E6.98513
G1 X2.521 Y-12.741 E7.02351
G1 X3.264 Y-12.543 E7.06187
G1 X3.983 Y-12.269 E7.10026
G1 X4.669 Y-11.922 E7.13862
G1 X5.316 Y-11.506 E7.17699
G1 X5.916 Y-11.025 E7.21536
G1 X6.463 Y-10.484 E7.25374
G1 X6.951 Y-9.889 E7.29213
G1 X7.374 Y-9.247 E7.33049
G1 X7.729 Y-8.564 E7.36889
G1 X8.01 Y-7.849 E7.40722
G1 X8.216 Y-7.107 E7.44564
G1 X8.344 Y-6.349 E7.48399
G1 X8.393 Y-5.5 E7.52642
G1 X8.393 Y-4.187 E7.59192
G0 F3600 X7.993 Y-4.061
G1 F1800 X8.145 Y-3.816 E7.60631
G1 X8.469 Y-3.142 E7.64362
G1 X8.719 Y-2.437 E7.68094
G1 X8.893 Y-1.709 E7.71828
G1 X8.988 Y-.967 E7.7556
G1 X9.007 Y-.45 E7.78141
G1 X9.007 Y0.45 E7.82631
G1 X8.967 Y1.197 E7.86363
G1 X8.848 Y1.935 E7.90093
G1 X8.65 Y2.657 E7.93828
G1 X8.377 Y3.353 E7.97558
G1 X7.993 Y4.087 E8.0169
G1 X7.993 Y5.5 E8.0874
G1 X7.953 Y6.247 E8.12472
G1 X7.834 Y6.985 E8.16202
G1 X7.636 Y7.707 E8.19937
G1 X7.363 Y8.403 E8.23667
G1 X7.016 Y9.066 E8.274
G1 X6.601 Y9.689 E8.31135
G1 X6.122 Y10.263 E8.34864
G1 X5.585 Y10.784 E8.38597
G1 X4.995 Y11.243 E8.42327
G1 X4.359 Y11.638 E8.46062
G1 X3.685 Y11.962 E8.49793
G1 X2.98 Y12.212 E8.53525
G1 X2.252 Y12.386 E8.57259
G1 X1.51 Y12.481 E8.60991
G1 X0.993 Y12.5 E8.63572
G1 X-2.007 Y12.5 E8.78539
G1 X-2.754 Y12.46 E8.82271
G1 X-3.492 Y12.341 E8.86001
G1 X-4.214 Y12.143 E8.89736
G1 X-4.91 Y11.87 E8.93466
G1 X-5.573 Y11.523 E8.97199
G1 X-6.196 Y11.108 E9.00934
G1 X-6.77 Y10.629 E9.04663
G1 X-7.291 Y10.092 E9.08396
G1 X-7.75 Y9.502 E9.12126
G1 X-8.145 Y8.866 E9.15861
G1 X-8.469 Y8.192 E9.19592
G1 X-8.719 Y7.487 E9.23324
G1 X-8.893 Y6.759 E9.27058
G1 X-8.988 Y6.017 E9.3079
G1 X-9.007 Y5.5 E9.33371
G1 X-9.007 Y-5.5 E9.8825
G1 X-8.967 Y-6.247 E9.91982
G1 X-8.848 Y-6.985 E9.95712
G1 X-8.65 Y-7.707 E9.99447
G1 X-8.377 Y-8.403 E10.03177
G1 X-8.03 Y-9.066 E10.0691
G1 X-7.615 Y-9.689 E10.10645
G1 X-7.136 Y-10.263 E10.14375
G1 X-6.599 Y-10.784 E10.18107
G1 X-6.009 Y-11.243 E10.21837
G1 X-5.373 Y-11.638 E10.25572
G1 X-4.699 Y-11.962 E10.29303
G1 X-3.994 Y-12.212 E10.33035
G1 X-3.266 Y-12.386 E10.36769
G1 X-2.524 Y-12.481 E10.40501
G1 X-2.007 Y-12.5 E10.43082
G1 X0.993 Y-12.5 E10.58049
G1 X1.74 Y-12.46 E10.61781
G1 X2.478 Y-12.341 E10.65511
G1 X3.2 Y-12.143 E10.69246
G1 X3.896 Y-11.87 E10.72976
G1 X4.559 Y-11.523 E10.76709
G1 X5.182 Y-11.108 E10.80444
G1 X5.756 Y-10.629 E10.84174
G1 X6.277 Y-10.092 E10.87907
G1 X6.736 Y-9.502 E10.91636
G1 X7.131 Y-8.866 E10.95371
G1 X7.455 Y-8.192 E10.99102
G1 X7.705 Y-7.487 E11.02834
G1 X7.879 Y-6.759 E11.06568
G1 X7.974 Y-6.017 E11.103
G1 X7.993 Y-5.5 E11.12881
G1 X7.993 Y-4.061 E11.20061
G0 F3600 X7.593 Y-3.954
G1 F1800 X7.892 Y-3.437 E11.2304
G1 X8.185 Y-2.772 E11.26666
G1 X8.403 Y-2.079 E11.3029
G1 X8.543 Y-1.367 E11.3391
G1 X8.607 Y-.45 E11.38496
G1 X8.607 Y0.45 E11.42986
G1 X8.567 Y1.175 E11.46609
G1 X8.448 Y1.892 E11.50235
G1 X8.25 Y2.591 E11.5386
G1 X7.977 Y3.264 E11.57483
G1 X7.593 Y3.975 E11.61514
G1 X7.593 Y5.5 E11.69123
G1 X7.553 Y6.225 E11.72745
G1 X7.434 Y6.942 E11.76371
G1 X7.236 Y7.641 E11.79996
G1 X6.963 Y8.314 E11.83619
G1 X6.618 Y8.953 E11.87242
G1 X6.204 Y9.55 E11.90867
G1 X5.728 Y10.098 E11.94488
G1 X5.194 Y10.591 E11.98114
G1 X4.609 Y11.021 E12.01736
G1 X3.98 Y11.385 E12.05362
G1 X3.315 Y11.678 E12.08987
G1 X2.622 Y11.896 E12.12612
G1 X1.91 Y12.036 E12.16232
G1 X0.993 Y12.1 E12.20818
G1 X-2.007 Y12.1 E12.35785
G1 X-2.732 Y12.06 E12.39407
G1 X-3.449 Y11.941 E12.43034
G1 X-4.148 Y11.743 E12.46658
G1 X-4.821 Y11.47 E12.50281
G1 X-5.46 Y11.125 E12.53904
G1 X-6.057 Y10.711 E12.57529
G1 X-6.605 Y10.235 E12.6115
G1 X-7.098 Y9.701 E12.64776
G1 X-7.528 Y9.116 E12.68398
G1 X-7.892 Y8.487 E12.72024
G1 X-8.185 Y7.822 E12.75649
G1 X-8.403 Y7.129 E12.79274
G1 X-8.543 Y6.417 E12.82894
G1 X-8.607 Y5.5 E12.8748
G1 X-8.607 Y-5.5 E13.42359
G1 X-8.567 Y-6.225 E13.45982
G1 X-8.448 Y-6.942 E13.49608
G1 X-8.25 Y-7.641 E13.53232
G1 X-7.977 Y-8.314 E13.56856
G1 X-7.632 Y-8.953 E13.60479
G1 X-7.218 Y-9.55 E13.64103
G1 X-6.742 Y-10.098 E13.67725
G1 X-6.208 Y-10.591 E13.71351
G1 X-5.623 Y-11.021 E13.74973
G1 X-4.994 Y-11.385 E13.78598
G1 X-4.329 Y-11.678 E13.82224
G1 X-3.636 Y-11.896 E13.85848
G1 X-2.924 Y-12.036 E13.89469
G1 X-2.007 Y-12.1 E13.94055
G1 X0.993 Y-12.1 E14.09022
G1 X1.718 Y-12.06 E14.12644
G1 X2.435 Y-11.941 E14.1627
G1 X3.134 Y-11.743 E14.19895
G1 X3.807 Y-11.47 E14.23518
G1 X4.446 Y-11.125 E14.27141
G1 X5.043 Y-10.711 E14.30766
G1 X5.591 Y-10.235 E14.34387
G1 X6.084 Y-9.701 E14.38013
G1 X6.514 Y-9.116 E14.41635
G1 X6.878 Y-8.487 E14.45261
G1 X7.171 Y-7.822 E14.48886
G1 X7.389 Y-7.129 E14.52511
G1 X7.529 Y-6.417 E14.56131
G1 X7.593 Y-5.5 E14.60717
G1 X7.593 Y-3.954 E14.6843
G0 F3600 X7.298 Y-3.682
G1 F1800 X7.63 Y-3.061 E14.71943
G1 X7.89 Y-2.407 E14.75454
G1 X8.074 Y-1.727 E14.78969
G1 X8.18 Y-1.031 E14.82481
G1 X8.207 Y-.45 E14.85383
G1 X8.207 Y0.45 E14.89873
G1 X8.167 Y1.153 E14.93386
G1 X8.048 Y1.847 E14.96899
G1 X7.85 Y2.522 E15.00408
G1 X7.578 Y3.171 E15.03919
G1 X7.193 Y3.856 E15.07839
G1 X7.193 Y5.5 E15.16041
G1 X7.153 Y6.203 E15.19554
G1 X7.034 Y6.897 E15.23067
G1 X6.836 Y7.572 E15.26577
G1 X6.564 Y8.221 E15.30087
G1 X6.219 Y8.835 E15.33601
G1 X5.808 Y9.406 E15.37111
G1 X5.334 Y9.927 E15.40625
G1 X4.804 Y10.391 E15.44139
G1 X4.225 Y10.791 E15.4765
G1 X3.604 Y11.123 E15.51164
G1 X2.95 Y11.383 E15.54675
G1 X2.27 Y11.567 E15.58189
G1 X1.574 Y11.673 E15.61702
G1 X0.993 Y11.7 E15.64603
G1 X-2.007 Y11.7 E15.79571
G1 X-2.71 Y11.66 E15.83083
G1 X-3.404 Y11.541 E15.86596
G1 X-4.079 Y11.343 E15.90106
G1 X-4.728 Y11.071 E15.93617
G1 X-5.342 Y10.726 E15.9713
G1 X-5.913 Y10.315 E16.0064
G1 X-6.434 Y9.841 E16.04154
G1 X-6.898 Y9.311 E16.07669
G1 X-7.298 Y8.732 E16.1118
G1 X-7.63 Y8.111 E16.14693
G1 X-7.89 Y7.457 E16.18204
G1 X-8.074 Y6.777 E16.21718
G1 X-8.18 Y6.081 E16.25231
G1 X-8.207 Y5.5 E16.28133
G1 X-8.207 Y-5.5 E16.83012
G1 X-8.167 Y-6.203 E16.86525
G1 X-8.048 Y-6.897 E16.90038
G1 X-7.85 Y-7.572 E16.93547
G1 X-7.578 Y-8.221 E16.97058
G1 X-7.233 Y-8.835 E17.00572
G1 X-6.822 Y-9.406 E17.04082
G1 X-6.348 Y-9.927 E17.07596
G1 X-5.818 Y-10.391 E17.1111
G1 X-5.239 Y-10.791 E17.14621
G1 X-4.618 Y-11.123 E17.18134
G1 X-3.964 Y-11.383 E17.21645
G1 X-3.284 Y-11.567 E17.2516
G1 X-2.588 Y-11.673 E17.28672
G1 X-2.007 Y-11.7 E17.31574
G1 X0.993 Y-11.7 E17.46541
G1 X1.696 Y-11.66 E17.50054
G1 X2.39 Y-11.541 E17.53567
G1 X3.065 Y-11.343 E17.57076
G1 X3.714 Y-11.071 E17.60587
G1 X4.328 Y-10.726 E17.64101
G1 X4.899 Y-10.315 E17.67611
G1 X5.42 Y-9.841 E17.71125
G1 X5.884 Y-9.311 E17.74639
G1 X6.284 Y-8.732 E17.7815
G1 X6.616 Y-8.111 E17.81663
G1 X6.876 Y-7.457 E17.85174
G1 X7.06 Y-6.777 E17.88689
G1 X7.166 Y-6.081 E17.92201
G1 X7.193 Y-5.5 E17.95103
G1 X7.193 Y-3.834 E18.03415
G1 X7.298 Y-3.682 E18.04337
G0 F3600 X7.059 Y-3.3
G1 F1800 X7.358 Y-2.688 E18.07735
G1 X7.583 Y-2.046 E18.11129
G1 X7.732 Y-1.381 E18.14529
G1 X7.807 Y-.45 E18.19188
G1 X7.807 Y0.45 E18.23679
G1 X7.767 Y1.13 E18.27077
G1 X7.648 Y1.8 E18.30472
G1 X7.451 Y2.452 E18.3387
G1 X7.179 Y3.076 E18.37266
G1 X6.793 Y3.736 E18.41081
G1 X6.793 Y5.5 E18.49881
G1 X6.753 Y6.18 E18.5328
G1 X6.634 Y6.85 E18.56675
G1 X6.437 Y7.502 E18.60073
G1 X6.165 Y8.126 E18.63469
G1 X5.821 Y8.714 E18.66867
G1 X5.411 Y9.258 E18.70266
G1 X4.94 Y9.749 E18.7366
G1 X4.415 Y10.183 E18.77059
G1 X3.843 Y10.552 E18.80455
G1 X3.231 Y10.851 E18.83853
G1 X2.589 Y11.076 E18.87247
G1 X1.924 Y11.225 E18.90647
G1 X0.993 Y11.3 E18.95307
G1 X-2.007 Y11.3 E19.10274
G1 X-2.687 Y11.26 E19.13672
G1 X-3.357 Y11.141 E19.17067
G1 X-4.009 Y10.944 E19.20465
G1 X-4.633 Y10.672 E19.23861
G1 X-5.221 Y10.328 E19.2726
G1 X-5.765 Y9.918 E19.30658
G1 X-6.256 Y9.447 E19.34053
G1 X-6.69 Y8.922 E19.37451
G1 X-7.059 Y8.35 E19.40847
G1 X-7.358 Y7.738 E19.44245
G1 X-7.583 Y7.096 E19.47639
G1 X-7.732 Y6.431 E19.51039
G1 X-7.807 Y5.5 E19.55699
G1 X-7.807 Y-5.5 E20.10578
G1 X-7.767 Y-6.18 E20.13977
G1 X-7.648 Y-6.85 E20.17372
G1 X-7.451 Y-7.502 E20.2077
G1 X-7.179 Y-8.126 E20.24166
G1 X-6.835 Y-8.714 E20.27565
G1 X-6.425 Y-9.258 E20.30963
G1 X-5.954 Y-9.749 E20.34358
G1 X-5.429 Y-10.183 E20.37756
G1 X-4.857 Y-10.552 E20.41152
G1 X-4.245 Y-10.851 E20.4455
G1 X-3.603 Y-11.076 E20.47944
G1 X-2.938 Y-11.225 E20.51344
G1 X-2.007 Y-11.3 E20.56004
G1 X0.993 Y-11.3 E20.70971
G1 X1.673 Y-11.26 E20.74369
G1 X2.343 Y-11.141 E20.77764
G1 X2.995 Y-10.944 E20.81162
G1 X3.619 Y-10.672 E20.84558
G1 X4.207 Y-10.328 E20.87957
G1 X4.751 Y-9.918 E20.91356
G1 X5.242 Y-9.447 E20.9475
G1 X5.676 Y-8.922 E20.98148
G1 X6.045 Y-8.35 E21.01544
G1 X6.344 Y-7.738 E21.04943
G1 X6.569 Y-7.096 E21.08337
G1 X6.718 Y-6.431 E21.11736
G1 X6.793 Y-5.5 E21.16396
G1 X6.793 Y-3.712 E21.25317
G1 X7.059 Y-3.3 E21.27763
G0 F3600 X6.809 Y-2.921
G1 F1800 X7.073 Y-2.319 E21.31043
G1 X7.263 Y-1.69 E21.34321
G1 X7.374 Y-1.043 E21.37596
G1 X7.407 Y-.45 E21.40559
G1 X7.407 Y0.45 E21.45049
G1 X7.367 Y1.106 E21.48328
G1 X7.248 Y1.752 E21.51605
G1 X7.051 Y2.379 E21.54884
G1 X6.779 Y2.977 E21.58162
G1 X6.393 Y3.61 E21.61861
G1 X6.393 Y5.5 E21.7129
G1 X6.353 Y6.156 E21.74569
G1 X6.234 Y6.802 E21.77846
G1 X6.037 Y7.429 E21.81125
G1 X5.765 Y8.027 E21.84402
G1 X5.423 Y8.588 E21.8768
G1 X5.015 Y9.103 E21.90958
G1 X4.548 Y9.565 E21.94235
G1 X4.028 Y9.966 E21.97512
G1 X3.464 Y10.302 E22.00787
G1 X2.862 Y10.566 E22.04066
G1 X2.233 Y10.756 E22.07344
G1 X1.586 Y10.867 E22.10619
G1 X0.993 Y10.9 E22.13583
G1 X-2.007 Y10.9 E22.2855
G1 X-2.663 Y10.86 E22.31828
G1 X-3.309 Y10.741 E22.35106
G1 X-3.936 Y10.544 E22.38385
G1 X-4.534 Y10.272 E22.41662
G1 X-5.095 Y9.93 E22.4494
G1 X-5.61 Y9.522 E22.48218
G1 X-6.072 Y9.055 E22.51495
G1 X-6.473 Y8.535 E22.54771
G1 X-6.809 Y7.971 E22.58047
G1 X-7.073 Y7.369 E22.61326
G1 X-7.263 Y6.74 E22.64604
G1 X-7.374 Y6.093 E22.67879
G1 X-7.407 Y5.5 E22.70842
G1 X-7.407 Y-5.5 E23.25722
G1 X-7.367 Y-6.156 E23.29001
G1 X-7.248 Y-6.802 E23.32278
G1 X-7.051 Y-7.429 E23.35557
G1 X-6.779 Y-8.027 E23.38834
G1 X-6.437 Y-8.588 E23.42112
G1 X-6.029 Y-9.103 E23.4539
G1 X-5.562 Y-9.565 E23.48667
G1 X-5.042 Y-9.966 E23.51943
G1 X-4.478 Y-10.302 E23.55219
G1 X-3.876 Y-10.566 E23.58498
G1 X-3.247 Y-10.756 E23.61776
G1 X-2.6 Y-10.867 E23.65051
G1 X-2.007 Y-10.9 E23.68014
G1 X0.993 Y-10.9 E23.82981
G1 X1.649 Y-10.86 E23.8626
G1 X2.295 Y-10.741 E23.89537
G1 X2.922 Y-10.544 E23.92816
G1 X3.52 Y-10.272 E23.96094
G1 X4.081 Y-9.93 E23.99372
G1 X4.596 Y-9.522 E24.0265
G1 X5.058 Y-9.055 E24.05927
G1 X5.459 Y-8.535 E24.09203
G1 X5.795 Y-7.971 E24.12479
G1 X6.059 Y-7.369 E24.15758
G1 X6.249 Y-6.74 E24.19036
G1 X6.36 Y-6.093 E24.22311
G1 X6.393 Y-5.5 E24.25274
G1 X6.393 Y-3.589 E24.34808
G1 X6.473 Y-3.485 E24.35463
G1 X6.809 Y-2.921 E24.38738
G0 F3600 X6.547 Y-2.544
G1 F1800 X6.775 Y-1.955 E24.41889
G1 X6.927 Y-1.341 E24.45045
G1 X7.007 Y-.45 E24.49508
G1 X7.007 Y0.45 E24.53998
G1 X6.967 Y1.081 E24.57153
G1 X6.848 Y1.702 E24.60307
G1 X6.651 Y2.302 E24.63458
G1 X6.38 Y2.874 E24.66616
G1 X5.993 Y3.48 E24.70203
G1 X5.993 Y5.5 E24.80281
G1 X5.953 Y6.131 E24.83435
G1 X5.834 Y6.752 E24.8659
G1 X5.637 Y7.352 E24.8974
G1 X5.366 Y7.924 E24.92898
G1 X5.026 Y8.456 E24.96048
G1 X4.62 Y8.941 E24.99203
G1 X4.157 Y9.371 E25.02356
G1 X3.643 Y9.74 E25.05513
G1 X3.087 Y10.04 E25.08665
G1 X2.498 Y10.268 E25.11816
G1 X1.884 Y10.42 E25.14971
G1 X0.993 Y10.5 E25.19434
G1 X-2.007 Y10.5 E25.34401
G1 X-2.638 Y10.46 E25.37556
G1 X-3.259 Y10.341 E25.4071
G1 X-3.859 Y10.144 E25.43861
G1 X-4.431 Y9.873 E25.47019
G1 X-4.963 Y9.533 E25.50169
G1 X-5.448 Y9.127 E25.53324
G1 X-5.878 Y8.664 E25.56477
G1 X-6.247 Y8.15 E25.59633
G1 X-6.547 Y7.594 E25.62785
G1 X-6.775 Y7.005 E25.65936
G1 X-6.927 Y6.391 E25.69092
G1 X-7.007 Y5.5 E25.73555
G1 X-7.007 Y-5.5 E26.28434
G1 X-6.967 Y-6.131 E26.31589
G1 X-6.848 Y-6.752 E26.34743
G1 X-6.651 Y-7.352 E26.37894
G1 X-6.38 Y-7.924 E26.41052
G1 X-6.04 Y-8.456 E26.44202
G1 X-5.634 Y-8.941 E26.47357
G1 X-5.171 Y-9.371 E26.5051
G1 X-4.657 Y-9.74 E26.53667
G1 X-4.101 Y-10.04 E26.56818
G1 X-3.512 Y-10.268 E26.59969
G1 X-2.898 Y-10.42 E26.63125
G1 X-2.007 Y-10.5 E26.67588
