;FLAVOR:Marlin
;TIME:978
;Filament used: 0.685866m
;Layer height: 0.15
;MINX:-14.999
;MINY:-16.917
;MINZ:0.3
;MAXX:14.992
;MAXY:16.268
;MAXZ:26.1
;Generated with Cura_SteamEngine 5.2.1
M140 S60
M105
M190 S60
M104 S200
M105
M109 S200
M82 ;absolute extrusion mode
G28 ;Home
G1 Z15.0 F6000 ;Move the platform down 15mm
;Prime the extruder
G92 E0
G1 F200 E3
G92 E0
M141 S28
G92 E0
G92 E0
G1 F1500 E-6.5
;LAYER_COUNT:173
;LAYER:0
M107
G0 F3600 X-11.561 Y9.273 Z0.3
;TYPE:SKIRT
G1 F1500 E0
G1 F1800 X-11.837 Y8.998 E0.01944
G1 X-12.418 Y8.289 E0.06517
G1 X-12.98 Y7.417 E0.11693
G1 X-13.344 Y6.808 E0.15232
G1 X-13.715 Y6.11 E0.19176
G1 X-14.012 Y5.379 E0.23112
G1 X-14.165 Y4.891 E0.25664
G1 X-14.525 Y3.593 E0.32384
G1 X-14.698 Y2.822 E0.36326
G1 X-14.953 Y0.482 E0.4807
G1 X-14.999 Y-.306 E0.52008
G1 X-14.986 Y-.821 E0.54578
G1 X-14.977 Y-1.549 E0.5821
G1 X-14.964 Y-2.185 E0.61384
G1 X-14.91 Y-3.06 E0.65758
G1 X-14.757 Y-4.3 E0.71991
G1 X-14.621 Y-5.078 E0.75931
G1 X-14.411 Y-5.826 E0.79807
G1 X-14.166 Y-6.556 E0.83649
G1 X-13.877 Y-7.291 E0.87589
G1 X-13.631 Y-7.786 E0.90347
G1 X-13.38 Y-8.25 E0.92979
G1 X-13.312 Y-8.414 E0.93865
G1 X-12.938 Y-9.11 E0.97806
G1 X-12.496 Y-9.764 E1.01745
G1 X-12.154 Y-10.188 E1.04462
G1 X-11.239 Y-11.224 E1.11358
G1 X-10.726 Y-11.905 E1.15612
G1 X-10.162 Y-12.573 E1.19974
G1 X-9.318 Y-13.465 E1.261
G1 X-8.747 Y-14.01 E1.30038
G1 X-8.123 Y-14.495 E1.33981
G1 X-7.454 Y-14.915 E1.37922
G1 X-6.959 Y-15.168 E1.40695
G1 X-6.352 Y-15.452 E1.44039
G1 X-5.593 Y-15.847 E1.48308
G1 X-4.984 Y-16.111 E1.51619
G1 X-4.245 Y-16.388 E1.55556
G1 X-3.481 Y-16.588 E1.59496
G1 X-2.746 Y-16.706 E1.6321
G1 X-1.265 Y-16.871 E1.70645
G1 X-.219 Y-16.917 E1.75868
G1 X0.296 Y-16.905 E1.78438
G1 X1.274 Y-16.863 E1.83322
G1 X2.436 Y-16.738 E1.89153
G1 X3.472 Y-16.5 E1.94456
G1 X4.173 Y-16.298 E1.98096
G1 X5.028 Y-16.004 E2.02606
G1 X6.118 Y-15.492 E2.08615
G1 X6.559 Y-15.335 E2.1095
G1 X7.272 Y-14.996 E2.14889
G1 X7.948 Y-14.587 E2.18831
G1 X8.579 Y-14.112 E2.22771
G1 X9.311 Y-13.416 E2.2781
G1 X9.89 Y-12.879 E2.3175
G1 X10.412 Y-12.287 E2.35688
G1 X10.887 Y-11.617 E2.39785
G1 X11.454 Y-10.946 E2.44168
G1 X11.961 Y-10.39 E2.47922
G1 X12.726 Y-9.422 E2.54077
G1 X13.23 Y-8.592 E2.58922
G1 X13.534 Y-7.964 E2.62403
G1 X14.19 Y-6.439 E2.70685
G1 X14.465 Y-5.699 E2.74624
G1 X14.664 Y-4.935 E2.78562
G1 X14.791 Y-4.083 E2.8286
G1 X14.93 Y-2.596 E2.90311
G1 X14.962 Y-2.062 E2.9298
G1 X14.992 Y-.843 E2.99063
G1 X14.958 Y0.096 E3.03751
G1 X14.813 Y1.604 E3.11309
G1 X14.693 Y2.521 E3.15923
G1 X14.557 Y3.338 E3.20055
G1 X14.385 Y4.109 E3.23996
G1 X14.136 Y4.858 E3.27934
G1 X13.974 Y5.231 E3.29963
G1 X13.725 Y5.96 E3.33806
G1 X13.432 Y6.693 E3.37745
G1 X13.067 Y7.393 E3.41683
G1 X12.632 Y8.053 E3.45627
G1 X12.279 Y8.499 E3.48465
G1 X8.864 Y12.505 E3.74727
G1 X8.322 Y13.079 E3.78666
G1 X7.724 Y13.596 E3.82609
G1 X6.996 Y14.1 E3.87027
G1 X6.101 Y14.647 E3.9226
G1 X5.579 Y14.939 E3.95244
G1 X5.05 Y15.209 E3.98207
G1 X4.329 Y15.532 E4.02149
G1 X3.58 Y15.781 E4.06087
G1 X2.668 Y15.975 E4.10738
G1 X1.303 Y16.181 E4.17625
G1 X0.517 Y16.259 E4.21566
G1 X-.361 Y16.268 E4.25947
G1 X-1.594 Y16.148 E4.32127
G1 X-2.379 Y16.016 E4.36099
G1 X-3.433 Y15.762 E4.41508
G1 X-4.634 Y15.383 E4.47791
G1 X-5.374 Y15.108 E4.51729
G1 X-6.083 Y14.759 E4.55672
G1 X-6.752 Y14.34 E4.5961
G1 X-7.266 Y13.934 E4.62878
G1 X-7.764 Y13.583 E4.65917
G1 X-8.36 Y13.065 E4.69857
G1 X-8.769 Y12.641 E4.72796
G1 X-9.763 Y11.528 E4.80241
G1 X-10.6 Y10.553 E4.86652
G1 X-11.561 Y9.273 E4.94637
G0 F3600 X-11.342 Y8.939
G1 F1800 X-11.852 Y8.363 E4.98475
G1 X-12.246 Y7.819 E5.01827
G1 X-12.637 Y7.212 E5.05429
G1 X-13.001 Y6.603 E5.08968
G1 X-13.361 Y5.923 E5.12807
G1 X-13.694 Y5.096 E5.17255
G1 X-14.14 Y3.486 E5.2559
G1 X-14.307 Y2.735 E5.29428
G1 X-14.555 Y0.439 E5.40949
G1 X-14.599 Y-.329 E5.44787
G1 X-14.569 Y-1.093 E5.48602
G1 X-14.578 Y-1.557 E5.50917
G1 X-14.565 Y-2.16 E5.53926
G1 X-14.512 Y-3.019 E5.5822
G1 X-14.36 Y-4.251 E5.64413
G1 X-14.226 Y-5.008 E5.68248
G1 X-14.031 Y-5.698 E5.71826
G1 X-13.786 Y-6.428 E5.75667
G1 X-13.504 Y-7.144 E5.79507
G1 X-13.279 Y-7.595 E5.82021
G1 X-13.007 Y-8.097 E5.8487
G1 X-12.817 Y-8.511 E5.87142
G1 X-12.425 Y-9.173 E5.9098
G1 X-11.852 Y-9.925 E5.95697
G1 X-10.927 Y-10.973 E6.02671
G1 X-10.407 Y-11.664 E6.06986
G1 X-9.871 Y-12.298 E6.11127
G1 X-9.027 Y-13.19 E6.17254
G1 X-8.47 Y-13.72 E6.2109
G1 X-7.861 Y-14.19 E6.24928
G1 X-7.097 Y-14.662 E6.29408
G1 X-6.187 Y-15.089 E6.34423
G1 X-5.434 Y-15.48 E6.38656
G1 X-4.825 Y-15.744 E6.41968
G1 X-4.105 Y-16.012 E6.458
G1 X-3.36 Y-16.205 E6.4964
G1 X-2.701 Y-16.308 E6.52968
G1 X-1.22 Y-16.473 E6.60402
G1 X-.229 Y-16.517 E6.65351
G1 X0.44 Y-16.5 E6.6869
G1 X1.256 Y-16.464 E6.72765
G1 X2.368 Y-16.344 E6.78345
G1 X3.361 Y-16.116 E6.83428
G1 X4.062 Y-15.914 E6.87067
G1 X4.88 Y-15.632 E6.91384
G1 X5.963 Y-15.123 E6.97354
G1 X6.443 Y-14.95 E6.999
G1 X7.136 Y-14.616 E7.03738
G1 X7.79 Y-14.211 E7.07576
G1 X8.398 Y-13.74 E7.11413
G1 X8.954 Y-13.21 E7.15245
G1 X9.032 Y-13.127 E7.15813
G1 X9.617 Y-12.586 E7.19788
G1 X10.123 Y-12.006 E7.23628
G1 X10.569 Y-11.372 E7.27496
G1 X11.133 Y-10.706 E7.3185
G1 X11.666 Y-10.121 E7.35798
G1 X12.396 Y-9.195 E7.41681
G1 X12.888 Y-8.384 E7.46413
G1 X13.167 Y-7.806 E7.49615
G1 X13.823 Y-6.281 E7.57898
G1 X14.09 Y-5.56 E7.61733
G1 X14.28 Y-4.815 E7.65569
G1 X14.393 Y-4.046 E7.69447
G1 X14.532 Y-2.559 E7.76898
G1 X14.562 Y-2.052 E7.79432
G1 X14.592 Y-.833 E7.85515
G1 X14.56 Y0.057 E7.89958
G1 X14.415 Y1.565 E7.97517
G1 X14.297 Y2.466 E8.0205
G1 X14.163 Y3.271 E8.06122
G1 X13.994 Y4.022 E8.09962
G1 X13.749 Y4.75 E8.13794
G1 X13.595 Y5.101 E8.15706
G1 X13.346 Y5.83 E8.1955
G1 X13.06 Y6.544 E8.23387
G1 X12.701 Y7.225 E8.27228
G1 X12.2 Y7.975 E8.31728
G1 X8.559 Y12.246 E8.59728
G1 X8.031 Y12.804 E8.6356
G1 X7.447 Y13.305 E8.67399
G1 X6.787 Y13.759 E8.71396
G1 X5.892 Y14.306 E8.76629
G1 X5.397 Y14.583 E8.79459
G1 X4.868 Y14.853 E8.82422
G1 X4.166 Y15.167 E8.86258
G1 X3.435 Y15.406 E8.90095
G1 X2.608 Y15.579 E8.94311
G1 X1.243 Y15.785 E9.01198
G1 X0.478 Y15.86 E9.05033
G1 X-.351 Y15.868 E9.09169
G1 X-1.528 Y15.754 E9.15068
G1 X-2.313 Y15.622 E9.1904
G1 X-3.313 Y15.381 E9.24171
G1 X-4.514 Y15.002 E9.30455
G1 X-5.234 Y14.733 E9.34289
G1 X-5.923 Y14.39 E9.38129
G1 X-6.572 Y13.978 E9.41964
G1 X-7.049 Y13.598 E9.45007
G1 X-7.532 Y13.256 E9.47959
G1 X-8.111 Y12.749 E9.51799
G1 X-8.47 Y12.374 E9.54389
G1 X-9.464 Y11.261 E9.61834
G1 X-10.303 Y10.284 E9.68259
G1 X-11.246 Y9.027 E9.76098
G1 X-11.342 Y8.939 E9.76748
G0 F3600 X-10.942 Y8.766
G1 F1800 X-11.376 Y8.312 E9.79882
G1 X-11.912 Y7.599 E9.84332
G1 X-12.294 Y7.006 E9.87851
G1 X-12.658 Y6.397 E9.91391
G1 X-13.006 Y5.736 E9.95118
G1 X-13.317 Y4.954 E9.99316
G1 X-13.754 Y3.379 E10.07471
G1 X-13.915 Y2.648 E10.11205
G1 X-14.158 Y0.395 E10.22511
G1 X-14.199 Y-.352 E10.26243
G1 X-14.168 Y-1.09 E10.29928
G1 X-14.178 Y-1.565 E10.32298
G1 X-14.166 Y-2.136 E10.35148
G1 X-14.114 Y-2.977 E10.39352
G1 X-13.963 Y-4.202 E10.45509
G1 X-13.832 Y-4.938 E10.49239
G1 X-13.652 Y-5.571 E10.52522
G1 X-13.407 Y-6.301 E10.56364
G1 X-13.087 Y-7.111 E10.60709
G1 X-12.681 Y-7.862 E10.64968
G1 X-12.655 Y-7.929 E10.65327
G1 X-12.314 Y-8.595 E10.6906
G1 X-11.903 Y-9.221 E10.72796
G1 X-11.55 Y-9.663 E10.75618
G1 X-10.614 Y-10.723 E10.82673
G1 X-10.087 Y-11.423 E10.87044
G1 X-9.581 Y-12.023 E10.9096
G1 X-8.737 Y-12.915 E10.97087
G1 X-8.194 Y-13.43 E11.0082
G1 X-7.6 Y-13.884 E11.0455
G1 X-6.88 Y-14.322 E11.08755
G1 X-6.039 Y-14.716 E11.13388
G1 X-5.275 Y-15.113 E11.17684
G1 X-4.666 Y-15.377 E11.20995
G1 X-3.965 Y-15.637 E11.24725
G1 X-3.24 Y-15.821 E11.28457
G1 X-2.657 Y-15.911 E11.314
G1 X-1.176 Y-16.076 E11.38834
G1 X-.238 Y-16.117 E11.43519
G1 X0.423 Y-16.1 E11.46817
G1 X1.239 Y-16.064 E11.50892
G1 X2.302 Y-15.95 E11.56226
G1 X3.25 Y-15.731 E11.6108
G1 X3.951 Y-15.529 E11.6472
G1 X4.988 Y-15.139 E11.70247
G1 X5.804 Y-14.756 E11.74744
G1 X6.326 Y-14.565 E11.77518
G1 X6.997 Y-14.235 E11.81248
G1 X7.629 Y-13.835 E11.8498
G1 X8.215 Y-13.37 E11.88712
G1 X8.663 Y-12.935 E11.91827
G1 X8.752 Y-12.84 E11.92477
G1 X9.344 Y-12.293 E11.96498
G1 X9.834 Y-11.727 E12.00233
G1 X10.236 Y-11.146 E12.03758
G1 X10.832 Y-10.443 E12.08356
G1 X11.37 Y-9.852 E12.12343
G1 X12.066 Y-8.968 E12.17956
G1 X12.545 Y-8.177 E12.2257
G1 X12.799 Y-7.648 E12.25497
G1 X13.455 Y-6.123 E12.3378
G1 X13.714 Y-5.421 E12.37513
G1 X13.896 Y-4.696 E12.41242
G1 X13.995 Y-4.008 E12.4471
G1 X14.156 Y-2.286 E12.53338
G1 X14.192 Y-.823 E12.6064
G1 X14.162 Y0.019 E12.64843
G1 X14.017 Y1.527 E12.72401
G1 X13.868 Y2.623 E12.77919
G1 X13.769 Y3.204 E12.8086
G1 X13.604 Y3.933 E12.84589
G1 X13.362 Y4.641 E12.88322
G1 X13.217 Y4.968 E12.90106
G1 X12.967 Y5.701 E12.9397
G1 X12.688 Y6.395 E12.97702
G1 X12.337 Y7.055 E13.01431
G1 X11.857 Y7.76 E13.05686
G1 X8.255 Y11.986 E13.33389
G1 X7.74 Y12.529 E13.37123
G1 X7.17 Y13.013 E13.40854
G1 X6.578 Y13.418 E13.44432
G1 X5.683 Y13.965 E13.49665
G1 X5.215 Y14.227 E13.52341
G1 X4.686 Y14.497 E13.55304
G1 X4.003 Y14.801 E13.59034
G1 X3.291 Y15.03 E13.62765
G1 X2.549 Y15.184 E13.66546
G1 X1.184 Y15.39 E13.73433
G1 X0.439 Y15.462 E13.77167
G1 X-.492 Y15.453 E13.81812
G1 X-1.462 Y15.359 E13.86674
G1 X-2.247 Y15.227 E13.90646
G1 X-3.193 Y14.999 E13.955
G1 X-4.394 Y14.62 E14.01784
G1 X-5.094 Y14.358 E14.05512
G1 X-5.762 Y14.021 E14.09245
G1 X-6.391 Y13.616 E14.12978
G1 X-6.824 Y13.268 E14.15749
G1 X-7.301 Y12.929 E14.18669
G1 X-7.955 Y12.351 E14.23023
G1 X-9.166 Y10.995 E14.32093
G1 X-9.983 Y10.043 E14.38352
G1 X-10.942 Y8.766 E14.46319
G0 F3600 X-10.66 Y8.476
G1 F1800 X-10.911 Y8.232 E14.48066
G1 X-11.577 Y7.38 E14.53461
G1 X-11.95 Y6.801 E14.56897
G1 X-12.314 Y6.192 E14.60437
G1 X-12.652 Y5.549 E14.64061
G1 X-13.009 Y4.57 E14.6926
G1 X-13.369 Y3.272 E14.7598
G1 X-13.524 Y2.562 E14.79606
G1 X-13.76 Y0.352 E14.90694
G1 X-13.799 Y-.373 E14.94316
G1 X-13.768 Y-1.088 E14.97887
G1 X-13.778 Y-1.573 E15.00307
G1 X-13.767 Y-2.111 E15.02992
G1 X-13.716 Y-2.937 E15.07121
G1 X-13.566 Y-4.153 E15.13233
G1 X-13.438 Y-4.868 E15.16857
G1 X-13.273 Y-5.444 E15.19846
G1 X-13.028 Y-6.174 E15.23688
G1 X-12.717 Y-6.953 E15.27873
G1 X-12.282 Y-7.759 E15.32442
G1 X-12.163 Y-8.033 E15.33932
G1 X-11.802 Y-8.663 E15.37555
G1 X-11.247 Y-9.401 E15.42162
G1 X-10.816 Y-9.898 E15.45444
G1 X-10.307 Y-10.468 E15.49256
G1 X-9.768 Y-11.183 E15.53724
G1 X-9.29 Y-11.748 E15.57416
G1 X-8.446 Y-12.64 E15.63542
G1 X-7.919 Y-13.139 E15.67163
G1 X-7.339 Y-13.578 E15.70792
G1 X-6.451 Y-14.081 E15.75884
G1 X-5.894 Y-14.342 E15.78953
G1 X-5.116 Y-14.746 E15.83326
G1 X-4.507 Y-15.01 E15.86638
G1 X-3.826 Y-15.261 E15.90259
G1 X-3.121 Y-15.437 E15.93884
G1 X-2.613 Y-15.513 E15.96447
G1 X-1.132 Y-15.678 E16.03881
G1 X-.247 Y-15.717 E16.08301
G1 X0.405 Y-15.701 E16.11554
G1 X1.221 Y-15.665 E16.15629
G1 X2.234 Y-15.556 E16.20712
G1 X3.139 Y-15.347 E16.25346
G1 X3.84 Y-15.145 E16.28986
G1 X4.818 Y-14.777 E16.34199
G1 X5.633 Y-14.394 E16.38692
G1 X6.207 Y-14.181 E16.41746
G1 X6.856 Y-13.855 E16.4537
G1 X7.466 Y-13.46 E16.48995
G1 X8.028 Y-13 E16.52619
G1 X8.482 Y-12.545 E16.55825
G1 X9.071 Y-12 E16.59829
G1 X9.544 Y-11.448 E16.63456
G1 X9.902 Y-10.923 E16.66626
G1 X10.552 Y-10.155 E16.71646
G1 X11.074 Y-9.582 E16.75513
G1 X11.738 Y-8.742 E16.80855
G1 X12.202 Y-7.97 E16.85348
G1 X12.432 Y-7.49 E16.88004
G1 X13.088 Y-5.965 E16.96286
G1 X13.338 Y-5.283 E16.9991
G1 X13.511 Y-4.578 E17.03532
G1 X13.596 Y-3.971 E17.06589
G1 X13.757 Y-2.253 E17.15198
G1 X13.792 Y-.813 E17.22384
G1 X13.764 Y-0.019 E17.26348
G1 X13.619 Y1.489 E17.33906
G1 X13.473 Y2.556 E17.39279
G1 X13.374 Y3.137 E17.4222
G1 X13.213 Y3.845 E17.45842
G1 X12.975 Y4.531 E17.49465
G1 X12.845 Y4.823 E17.51059
G1 X12.589 Y5.572 E17.55008
G1 X12.317 Y6.245 E17.5863
G1 X11.972 Y6.885 E17.62257
G1 X11.366 Y7.721 E17.67408
G1 X7.951 Y11.727 E17.93671
G1 X7.45 Y12.253 E17.97295
G1 X6.894 Y12.72 E18.00918
G1 X6.37 Y13.077 E18.04081
G1 X5.475 Y13.624 E18.09314
G1 X5.033 Y13.871 E18.1184
G1 X4.504 Y14.141 E18.14803
G1 X3.84 Y14.435 E18.18426
G1 X3.148 Y14.654 E18.22047
G1 X2.489 Y14.788 E18.25402
G1 X1.124 Y14.994 E18.32289
G1 X0.401 Y15.063 E18.35913
G1 X-.481 Y15.054 E18.40313
G1 X-1.395 Y14.965 E18.44895
G1 X-2.18 Y14.833 E18.48866
G1 X-3.072 Y14.618 E18.53444
G1 X-4.273 Y14.239 E18.59727
G1 X-4.953 Y13.983 E18.63352
G1 X-5.6 Y13.653 E18.66975
G1 X-6.207 Y13.255 E18.70597
G1 X-6.59 Y12.944 E18.73058
G1 X-7.069 Y12.603 E18.75992
G1 X-7.685 Y12.053 E18.80112
G1 X-8.959 Y10.624 E18.89663
G1 X-9.674 Y9.789 E18.95147
G1 X-10.66 Y8.476 E19.03339
G0 F3600 X-10.346 Y8.227
G1 F1800 X-10.46 Y8.125 E19.04102
G1 X-10.927 Y7.598 E19.07615
G1 X-11.243 Y7.16 E19.1031
G1 X-11.607 Y6.596 E19.13659
G1 X-11.971 Y5.987 E19.17198
G1 X-12.297 Y5.363 E19.20711
G1 X-12.623 Y4.463 E19.25486
G1 X-12.983 Y3.165 E19.32207
G1 X-13.133 Y2.477 E19.3572
G1 X-13.362 Y0.309 E19.46596
G1 X-13.388 Y-.727 E19.51766
G1 X-13.368 Y-1.072 E19.5349
G1 X-13.378 Y-1.581 E19.5603
G1 X-13.367 Y-2.087 E19.58555
G1 X-13.316 Y-2.911 E19.62674
G1 X-13.169 Y-4.104 E19.68671
G1 X-13.043 Y-4.797 E19.72185
G1 X-12.894 Y-5.317 E19.74884
G1 X-12.649 Y-6.047 E19.78726
G1 X-12.352 Y-6.788 E19.82708
G1 X-11.975 Y-7.484 E19.86657
G1 X-11.663 Y-8.121 E19.90196
G1 X-11.283 Y-8.714 E19.9371
G1 X-10.945 Y-9.139 E19.96419
G1 X-9.999 Y-10.211 E20.03552
G1 X-9.448 Y-10.942 E20.08119
G1 X-9 Y-11.473 E20.11585
G1 X-8.156 Y-12.365 E20.17712
G1 X-7.643 Y-12.848 E20.21227
G1 X-7.08 Y-13.27 E20.24737
G1 X-6.281 Y-13.719 E20.2931
G1 X-5.719 Y-13.982 E20.32405
G1 X-4.957 Y-14.379 E20.36692
G1 X-4.348 Y-14.643 E20.40003
G1 X-3.687 Y-14.885 E20.43515
G1 X-2.885 Y-15.081 E20.47634
G1 X-1.088 Y-15.281 E20.56655
G1 X-.257 Y-15.317 E20.60805
G1 X0.387 Y-15.301 E20.64018
G1 X1.203 Y-15.265 E20.68093
G1 X2.163 Y-15.161 E20.72911
G1 X3.029 Y-14.963 E20.77343
G1 X3.73 Y-14.761 E20.80983
G1 X4.648 Y-14.415 E20.85877
G1 X5.464 Y-14.032 E20.90374
G1 X6.087 Y-13.797 E20.93696
G1 X6.714 Y-13.475 E20.97213
G1 X7.299 Y-13.085 E21.0072
G1 X8.081 Y-12.386 E21.05953
G1 X8.284 Y-12.189 E21.07364
G1 X8.797 Y-11.707 E21.10876
G1 X9.252 Y-11.171 E21.14384
G1 X9.57 Y-10.696 E21.17236
G1 X10.236 Y-9.91 E21.22375
G1 X10.779 Y-9.313 E21.26402
G1 X11.409 Y-8.514 E21.31478
G1 X11.928 Y-7.647 E21.36519
G1 X12.72 Y-5.807 E21.46513
G1 X12.961 Y-5.146 E21.50023
G1 X13.126 Y-4.461 E21.53539
G1 X13.198 Y-3.934 E21.56192
G1 X13.357 Y-2.236 E21.64701
G1 X13.392 Y-.804 E21.71847
G1 X13.366 Y-0.058 E21.75571
G1 X13.221 Y1.45 E21.83129
G1 X13.079 Y2.488 E21.88356
G1 X12.98 Y3.069 E21.91296
G1 X12.822 Y3.756 E21.94813
G1 X12.488 Y4.627 E21.99467
G1 X12.21 Y5.442 E22.03763
G1 X11.945 Y6.095 E22.07279
G1 X11.608 Y6.713 E22.10791
G1 X11.061 Y7.461 E22.15414
G1 X7.646 Y11.467 E22.41677
G1 X7.16 Y11.976 E22.45188
G1 X6.619 Y12.427 E22.48702
G1 X6.161 Y12.735 E22.51455
G1 X5.061 Y13.408 E22.57889
G1 X4.323 Y13.784 E22.62021
G1 X3.678 Y14.068 E22.65537
G1 X3.006 Y14.277 E22.69048
G1 X2.429 Y14.393 E22.71985
G1 X1.064 Y14.599 E22.78872
G1 X0.363 Y14.664 E22.82384
G1 X-.47 Y14.654 E22.8654
G1 X-1.329 Y14.57 E22.90846
G1 X-2.114 Y14.438 E22.94818
G1 X-2.952 Y14.237 E22.99117
G1 X-4.153 Y13.858 E23.054
G1 X-4.811 Y13.608 E23.08912
G1 X-5.437 Y13.285 E23.12426
G1 X-6.022 Y12.894 E23.15937
G1 X-6.353 Y12.621 E23.18077
G1 X-6.836 Y12.277 E23.21035
G1 X-7.575 Y11.575 E23.26121
G1 X-8.655 Y10.364 E23.34216
G1 X-9.363 Y9.537 E23.39647
G1 X-10.346 Y8.227 E23.47818
G0 F3600 X-10.024 Y7.991
G1 F1800 X-10.493 Y7.497 E23.51217
G1 X-10.909 Y6.94 E23.54685
G1 X-11.264 Y6.391 E23.57947
G1 X-11.628 Y5.782 E23.61487
G1 X-11.942 Y5.178 E23.64883
G1 X-12.238 Y4.356 E23.69242
G1 X-12.598 Y3.058 E23.75962
G1 X-12.741 Y2.392 E23.7936
G1 X-12.805 Y1.73 E23.82678
G1 X-12.965 Y0.265 E23.90031
G1 X-12.989 Y-.704 E23.94866
G1 X-12.968 Y-1.069 E23.96691
G1 X-12.983 Y-1.826 E24.00468
G1 X-12.918 Y-2.871 E24.05692
G1 X-12.772 Y-4.055 E24.11643
G1 X-12.623 Y-4.868 E24.15767
G1 X-12.27 Y-5.919 E24.21298
G1 X-11.872 Y-6.834 E24.26276
G1 X-11.571 Y-7.389 E24.29426
G1 X-11.485 Y-7.599 E24.30558
G1 X-11.154 Y-8.193 E24.33951
G1 X-10.643 Y-8.877 E24.38211
G1 X-9.692 Y-9.954 E24.45379
G1 X-9.129 Y-10.701 E24.50045
