; generated by Slic3r 1.2.9 on 2022-12-21 at 16:26:33

; external perimeters extrusion width = 0.40mm
; perimeters extrusion width = 0.67mm
; infill extrusion width = 0.67mm
; solid infill extrusion width = 0.67mm
; top infill extrusion width = 0.67mm
; support material extrusion width = 0.40mm

M107
M190 S60 ; set bed temperature
M104 S210 ; set temperature
G28 ; home all axes
G1 Z5 F5000 ; lift nozzle

M109 S210 ; wait for temperature to be reached
G21 ; set units to millimeters
G90 ; use absolute coordinates
M82 ; use absolute distances for extrusion
G92 E0
G1 Z0.400 F7800.000
G1 E-2.00000 F2400.00000
G92 E0
G1 X-17.035 Y2.385 F7800.000
G1 E2.00000 F2400.00000
G1 X-20.310 Y-21.008 E5.08586 F1800.000
G1 X-20.232 Y-23.315 E5.38750
G1 X-19.663 Y-24.947 E5.61326
G1 X-19.409 Y-25.454 E5.68742
G1 X-19.056 Y-26.074 E5.78054
G1 X-17.271 Y-28.853 E6.21208
G1 X-15.708 Y-30.553 E6.51373
G1 X-13.940 Y-31.527 E6.77751
G1 X-7.696 Y-33.824 E7.64658
G1 X-5.392 Y-34.236 E7.95247
G1 X5.466 Y-34.258 E9.37093
G1 X7.831 Y-33.832 E9.68486
G1 X14.236 Y-31.437 E10.57816 F1800.000
G1 X16.227 Y-30.269 E10.87981
G1 X17.527 Y-28.787 E11.13730
G1 X18.039 Y-27.990 E11.26105
G1 X18.455 Y-27.299 E11.36642
G1 X19.534 Y-25.247 E11.66930
G1 X20.233 Y-23.047 E11.97094
G1 X20.245 Y-21.336 E12.19443
G1 X13.075 Y37.823 E19.97958
G1 X12.412 Y40.023 E20.27982
G1 X11.962 Y40.920 E20.41092
G1 X10.588 Y42.776 E20.71256
G1 X8.667 Y44.056 E21.01421
G1 X6.643 Y44.591 E21.28770
G1 X3.275 Y44.936 E21.72999
G1 X2.487 Y44.970 E21.83295
G1 X-3.854 Y44.871 E22.66148
G1 X-4.432 Y44.837 E22.73719
G1 X-5.952 Y44.681 E22.93677
G1 X-8.174 Y44.055 E23.23842
G1 X-10.053 Y42.713 E23.54006
G1 X-11.366 Y40.814 E23.84171
G1 X-11.918 Y38.933 E24.09777
G1 X-17.027 Y2.444 E28.91119
G1 Z0.400 F7800.000
G1 E26.91119 F2400.00000
G92 E0
G1 X-1.414 Y13.884 F7800.000
G1 E2.00000 F2400.00000
G1 X-1.549 Y14.154 E2.01732 F1800.000
G1 X-1.836 Y15.477 F7800.000
G1 X-1.037 Y13.883 E2.11982 F1800.000
G1 X-0.657 Y13.875 E2.14167
G1 X-2.123 Y16.801 E2.32973
G1 X-2.021 Y17.347 E2.36169
G1 X-0.281 Y13.877 E2.58478
G1 X0.094 Y13.878 E2.60637
G1 X-1.840 Y17.738 E2.85449
G1 X-1.069 Y17.701 F7800.000
G1 X0.848 Y13.875 E3.10044 F1800.000
G1 X1.220 Y13.883 E3.12183
G1 X-0.694 Y17.702 E3.36730
G1 X-0.318 Y17.703 E3.38889
G1 X1.549 Y13.977 E3.62836
G1 X1.663 Y14.501 E3.65917
G1 X0.058 Y17.704 E3.86503
G1 X0.434 Y17.705 E3.88662
G1 X1.776 Y15.025 E4.05887
G1 X1.890 Y15.549 E4.08968
G1 X0.809 Y17.706 E4.22832
G1 X1.741 Y17.347 F7800.000
G1 X2.117 Y16.597 E4.27654 F1800.000
G1 X2.004 Y16.073 E4.30735
G1 X1.185 Y17.707 E4.41239
G1 X1.561 Y17.708 E4.43398
G1 X1.811 Y17.208 E4.46609
G1 X2.231 Y17.121 E4.49076
G1 X2.118 Y17.347 E4.50528
G1 E2.50528 F2400.00000
G92 E0
G1 X-0.998 Y17.887 F7800.000
G1 E2.00000 F2400.00000
G1 X-1.124 Y18.140 E2.01624 F1800.000
G1 X-1.339 Y19.307 F7800.000
G1 X-0.628 Y17.888 E2.10743 F1800.000
G1 X-0.259 Y17.889 E2.12866
G1 X-1.554 Y20.474 E2.29480
G1 X-1.482 Y21.069 E2.32924
G1 X0.111 Y17.890 E2.53355
G1 X0.481 Y17.892 E2.55478
G1 X-1.128 Y21.101 E2.76110
G1 X-0.266 Y20.119 F7800.000
G1 X0.850 Y17.893 E2.90420 F1800.000
G1 X1.220 Y17.894 E2.92544
G1 X0.109 Y20.109 E3.06787
G1 X0.463 Y20.142 E3.08829
G1 X1.576 Y17.920 E3.23109
G1 X1.681 Y18.451 E3.26214
G1 X0.599 Y20.608 E3.40085
G1 X0.700 Y21.146 E3.43230
G1 X1.778 Y18.995 E3.57058
G1 X1.875 Y19.540 E3.60238
G1 X0.995 Y21.295 E3.71519
G1 X1.349 Y21.327 E3.73561
G1 X1.972 Y20.085 E3.81548
G1 X2.069 Y20.629 E3.84728
G1 X1.703 Y21.359 E3.89421
G1 X2.166 Y21.174 E3.92287
G1 X2.057 Y21.392 E3.93686
G1 E1.93686 F2400.00000
G92 E0
G1 X-1.933 Y19.424 F7800.000
G1 E2.00000 F2400.00000
G1 X-1.520 Y18.599 E2.05301 F1800.000
G1 X-1.916 Y18.639 E2.07587
G1 X0.471 Y13.876 E2.38202
G1 E0.38202 F2400.00000
G92 E0
G1 X-5.993 Y-20.045 F7800.000
G1 E2.00000 F2400.00000
G1 X-5.868 Y-20.293 E2.01598 F1800.000
G1 X-6.384 Y-20.045 E2.04892
G1 X-5.784 Y-21.243 E2.12594
G1 X-5.696 Y-22.199 F7800.000
G1 X-6.776 Y-20.045 E2.26445 F1800.000
G1 X-7.168 Y-20.045 E2.28696
G1 X-5.643 Y-23.087 E2.48255
G1 X-5.972 Y-23.212 F7800.000
G1 X-7.559 Y-20.045 E2.68619 F1800.000
G1 X-7.951 Y-20.045 E2.70870
G1 X-6.381 Y-23.177 E2.91007
G1 X-6.529 Y-23.665 E2.93934
G1 X-8.343 Y-20.045 E3.17204
G1 X-8.735 Y-20.045 E3.19455
G1 X-5.253 Y-26.991 E3.64112
G1 X-5.378 Y-27.522 E3.67247
G1 X-9.126 Y-20.045 E4.15316
G1 X-9.518 Y-20.045 E4.17567
G1 X-5.963 Y-27.138 E4.63168
G1 X-6.565 Y-26.718 E4.67388
G1 X-7.363 Y-25.126 E4.77624
G1 X-7.535 Y-25.565 E4.80333
G1 X-7.167 Y-26.298 E4.85048
G1 X-7.595 Y-24.664 F7800.000
G1 X-9.910 Y-20.045 E5.14742 F1800.000
G1 X-10.301 Y-20.045 E5.16993
G1 X-8.499 Y-23.642 E5.40117
G1 X-8.952 Y-23.519 E5.42816
G1 X-9.362 Y-22.700 E5.48081
G1 X-9.543 Y-23.121 F7800.000
G1 X-9.448 Y-23.310 E5.49297 F1800.000
G1 X-9.650 Y-23.690 E5.51766
G1 X-9.878 Y-23.233 E5.54702
G1 X-10.170 Y-22.651 F7800.000
G1 X-10.907 Y-21.182 E5.64150 F1800.000
G1 X-11.185 Y-21.408 F7800.000
G1 X-9.891 Y-23.990 E5.80746 F1800.000
G1 X-10.096 Y-24.361 E5.83186
G1 X-11.552 Y-21.458 E6.01850
G1 X-11.903 Y-21.538 E6.03922
G1 X-10.237 Y-24.863 E6.25294
G1 X-10.583 Y-24.953 E6.27351
G1 X-12.255 Y-21.618 E6.48791
G1 X-12.606 Y-21.698 E6.50863
G1 X-10.929 Y-25.044 E6.72371
G1 X-11.276 Y-25.135 E6.74428
G1 X-12.958 Y-21.778 E6.96005
G1 X-13.309 Y-21.858 E6.98077
G1 X-11.622 Y-25.226 E7.19721
G1 E5.19721 F2400.00000
G92 E0
G1 X-13.407 Y-22.446 F7800.000
G1 E2.00000 F2400.00000
G1 X-13.661 Y-21.939 E2.03262 F1800.000
G1 E0.03262 F2400.00000
G92 E0
G1 X-10.818 Y-20.576 F7800.000
G1 E2.00000 F2400.00000
G1 X-9.908 Y-22.392 E2.11670 F1800.000
G1 X-9.568 Y-22.289 E2.13713
G1 X-10.638 Y-20.154 E2.27435
G1 E0.27435 F2400.00000
G92 E0
G1 X-6.188 Y-24.344 F7800.000
G1 E2.00000 F2400.00000
G1 X-5.142 Y-26.430 E2.13416 F1800.000
G1 X-5.032 Y-25.870 E2.16701
G1 X-5.735 Y-24.465 E2.25729
G1 X-5.569 Y-24.016 E2.28480
G1 X-4.921 Y-25.309 E2.36787
G1 X-4.885 Y-24.600 E2.40866
G1 X-5.437 Y-23.498 E2.47946
G1 E0.47946 F2400.00000
G92 E0
G1 X4.854 Y-24.700 F7800.000
G1 E2.00000 F2400.00000
G1 X6.072 Y-27.130 E2.15620 F1800.000
G1 X6.369 Y-26.923 E2.17698
G1 X4.921 Y-24.034 E2.36271
G1 X5.113 Y-23.619 E2.38900
G1 X6.665 Y-26.716 E2.58811
G1 X6.962 Y-26.509 E2.60889
G1 X5.922 Y-24.433 E2.74234
G1 X6.234 Y-24.258 E2.76292
G1 X7.259 Y-26.302 E2.89435
G1 X7.555 Y-26.095 E2.91513
G1 X6.518 Y-24.026 E3.04817
G1 X6.105 Y-23.201 F7800.000
G1 X5.666 Y-22.326 E3.10447 F1800.000
G1 X5.728 Y-21.651 E3.14343
G1 X7.348 Y-24.883 E3.35124
G1 X7.647 Y-24.681 E3.37198
G1 X5.790 Y-20.975 E3.61019
G1 X5.850 Y-20.298 E3.64930
G1 X8.002 Y-24.591 E3.92529
G1 X8.123 Y-24.035 E3.95800
G1 X6.122 Y-20.041 E4.21473
G1 X6.522 Y-20.041 E4.23774
G1 X8.311 Y-23.610 E4.46716
G1 X8.738 Y-23.664 E4.49193
G1 X6.922 Y-20.041 E4.72485
G1 X7.323 Y-20.041 E4.74785
G1 X9.063 Y-23.513 E4.97103
G1 X9.386 Y-22.560 F7800.000
G1 X8.123 Y-20.041 E5.13295 F1800.000
G1 X7.723 Y-20.041 E5.15596
G1 X9.590 Y-23.765 E5.39539
G1 X9.707 Y-23.202 E5.42848
G1 X10.576 Y-24.935 E5.53991
G1 X10.117 Y-24.817 E5.56718
G1 X9.972 Y-24.529 E5.58568
G1 X11.036 Y-25.053 F7800.000
G1 X10.084 Y-23.154 E5.70777 F1800.000
G1 X9.651 Y-22.291 F7800.000
G1 X8.523 Y-20.041 E5.85239 F1800.000
G1 X8.924 Y-20.041 E5.87540
G1 X11.495 Y-25.172 E6.20523
G1 X11.884 Y-25.148 E6.22760
G1 X9.324 Y-20.041 E6.55593
G1 X9.724 Y-20.041 E6.57894
G1 X12.109 Y-24.799 E6.88482
G1 X12.334 Y-24.450 E6.90870
G1 X10.124 Y-20.041 E7.19213
G1 X10.578 Y-20.147 E7.21889
G1 X10.793 Y-20.577 E7.24654
G1 X11.215 Y-21.418 F7800.000
G1 X12.556 Y-24.093 E7.41853 F1800.000
G1 X12.764 Y-23.710 E7.44359
G1 X11.656 Y-21.499 E7.58571
G1 X12.108 Y-21.602 E7.61235
G1 X12.968 Y-23.318 E7.72268
G1 X13.172 Y-22.927 E7.74805
G1 X12.560 Y-21.705 E7.82660
G1 X13.011 Y-21.808 E7.85324
G1 X13.376 Y-22.535 E7.90000
G1 X13.580 Y-22.144 E7.92537
G1 X13.463 Y-21.911 E7.94036
G1 E5.94036 F2400.00000
G92 E0
G1 X5.083 Y-25.954 F7800.000
G1 E2.00000 F2400.00000
G1 X5.776 Y-27.337 E2.08888 F1800.000
G1 X5.479 Y-27.544 E2.10966
G1 X5.342 Y-27.271 E2.12721
G1 E0.12721 F2400.00000
G92 E0
G1 X-1.151 Y-24.404 F7800.000
G1 E2.00000 F2400.00000
G1 X-2.906 Y-20.904 E2.51153 F1800.000
G1 X-1.689 Y-20.143 F7800.000
G1 X-0.097 Y-23.320 E2.97570 F1800.000
G1 X1.805 Y-20.739 E3.39452
G1 X1.506 Y-20.143 E3.48156
G1 X-0.092 Y-20.143 E3.69028
G1 X3.295 Y-26.900 E4.67758
G1 X3.817 Y-24.753 E4.96613
G1 X1.802 Y-20.734 E5.55348
G1 E3.55348 F2400.00000
G92 E0
G1 X-3.934 Y-22.040 F7800.000
G1 E2.00000 F2400.00000
G1 X-1.751 Y-26.396 E2.63659 F1800.000
G1 X-2.877 Y-27.338 F7800.000
G1 X-3.300 Y-26.493 E2.75994 F1800.000
G1 E0.75994 F2400.00000
G92 E0
G1 X-2.052 Y28.396 F7800.000
G1 E2.00000 F2400.00000
G1 X-5.138 Y34.554 E2.89987 F1800.000
G1 X-4.929 Y37.323 E3.26265
G1 X-0.646 Y28.777 E4.51142
G1 X1.146 Y28.390 F7800.000
G1 X-3.331 Y37.323 E5.81677 F1800.000
G1 X-1.733 Y37.323 E6.02550
G1 X2.051 Y29.772 E7.12889
G1 X2.051 Y32.960 E7.54534
G1 X0.001 Y37.050 E8.14304
G1 X2.051 Y36.147 E8.43566
G1 X1.462 Y37.323 E8.60741
G1 E6.60741 F2400.00000
G92 E0
G1 X-2.142 Y38.139 F7800.000
G1 E2.00000 F2400.00000
G1 X-1.822 Y37.500 E2.09337 F1800.000
G1 X-3.420 Y37.500 E2.30210
G1 X-3.749 Y38.157 E2.39823
G1 X-5.017 Y37.500 E2.58485
G1 X-5.269 Y38.002 E2.65827
G1 E0.65827 F2400.00000
G92 E0
G1 X5.960 Y37.912 F7800.000
G1 E2.00000 F2400.00000
G1 X6.410 Y37.015 E2.13109 F1800.000
G1 X5.255 Y36.131 E2.32105
G1 X4.276 Y38.084 E2.60637
G1 X2.592 Y38.256 E2.82751
G1 X5.325 Y32.804 E3.62428
G1 X4.716 Y30.830 E3.89409
G1 X2.419 Y35.413 E4.56379
G1 X2.419 Y32.225 E4.98024
G1 X3.625 Y29.820 E5.33173
G1 X2.419 Y29.038 F7800.000
G1 X2.740 Y28.398 E5.42516 F1800.000
G1 Z0.600 F7800.000
G1 E3.42516 F2400.00000
G92 E0
G1 X-0.238 Y21.924 F7800.000
G1 E2.00000 F2400.00000
G1 X-0.238 Y23.555 E2.09375 F1800.000
G1 X0.238 Y23.555 F7800.000
G1 X0.238 Y21.924 E2.18750 F1800.000
G1 E0.18750 F2400.00000
G92 E0
G1 X0.239 Y21.491 F7800.000
G1 X0.000 Y13.011 F7800.000
G1 X10.341 Y6.528 F7800.000
G1 X10.341 Y4.528 F7800.000
G1 X9.020 Y3.207 F7800.000
G1 E2.00000 F2400.00000
G1 X-9.406 Y3.207 E3.05891 F3600.000
G1 X-9.406 Y-18.434 E4.30262
G1 X9.020 Y-18.434 E5.36152
G1 X9.020 Y3.147 E6.60179
G1 X9.648 Y3.836 F7800.000
G1 X-10.034 Y3.836 E7.73291 F3600.000
G1 X-10.034 Y-19.062 E9.04884
G1 X9.648 Y-19.062 E10.17997
G1 X9.648 Y3.776 E11.49245
G1 X10.141 Y4.328 F7800.000
G1 X-10.527 Y4.328 E12.68020 F3600.000
G1 X-10.527 Y-19.555 E14.05276
G1 X10.141 Y-19.555 E15.24052
G1 X10.141 Y4.268 E16.60963
G1 X8.459 Y2.878 F7800.000
G1 X8.690 Y2.647 E16.62851 F3600.000
G1 X8.690 Y2.009 E16.66541
G1 X7.821 Y2.878 E16.73647
G1 X7.183 Y2.878 E16.77336
G1 X8.690 Y1.371 E16.89661
G1 X8.690 Y0.733 E16.93350
G1 X6.545 Y2.878 E17.10892
G1 X5.907 Y2.878 E17.14582
G1 X8.690 Y0.095 E17.37342
G1 X8.690 Y-0.544 E17.41032
G1 X5.269 Y2.878 E17.69010
G1 X4.631 Y2.878 E17.72699
G1 X8.690 Y-1.182 E18.05895
G1 X8.690 Y-1.820 E18.09585
G1 X3.993 Y2.878 E18.47999
G1 X3.354 Y2.878 E18.51689
G1 X8.690 Y-2.458 E18.95320
G1 X8.690 Y-3.096 E18.99010
G1 X2.716 Y2.878 E19.47860
G1 X2.078 Y2.878 E19.51550
G1 X8.690 Y-3.734 E20.05617
G1 X8.690 Y-4.372 E20.09307
G1 X1.440 Y2.878 E20.68593
G1 X0.802 Y2.878 E20.72282
G1 X8.690 Y-5.010 E21.36786
G1 X8.690 Y-5.649 E21.40476
G1 X0.164 Y2.878 E22.10197
G1 X-0.474 Y2.878 E22.13887
G1 X8.690 Y-6.287 E22.88827
G1 X8.690 Y-6.925 E22.92516
G1 X-1.112 Y2.878 E23.72674
G1 X-1.751 Y2.878 E23.76363
G1 X8.690 Y-7.563 E24.61739
G1 X8.690 Y-8.201 E24.65429
G1 X-2.389 Y2.878 E25.56022
G1 X-3.027 Y2.878 E25.59712
G1 X8.690 Y-8.839 E26.55523
G1 X8.690 Y-9.477 E26.59213
G1 X-3.665 Y2.878 E27.60242
G1 X-4.303 Y2.878 E27.63932
G1 X8.690 Y-10.115 E28.70179
G1 X8.690 Y-10.753 E28.73869
G1 X-4.941 Y2.878 E29.85334
G1 X-5.579 Y2.878 E29.89024
G1 X8.690 Y-11.392 E31.05707
G1 X8.690 Y-12.030 E31.09396
G1 X-6.217 Y2.878 E32.31298
G1 X-6.855 Y2.878 E32.34987
G1 X8.690 Y-12.668 E33.62106
G1 X8.690 Y-13.306 E33.65796
G1 X-7.494 Y2.878 E34.98133
G1 X-8.132 Y2.878 E35.01823
G1 X8.690 Y-13.944 E36.39378
G1 X8.690 Y-14.582 E36.43067
G1 X-8.770 Y2.878 E37.85840
G1 X-9.076 Y2.546 E37.88451
G1 X8.690 Y-15.220 E39.33731
G1 X8.690 Y-15.858 E39.37420
G1 X-9.076 Y1.908 E40.82700
G1 X-9.076 Y1.270 E40.86389
G1 X8.690 Y-16.497 E42.31669
G1 X8.690 Y-17.135 E42.35358
G1 X-9.076 Y0.632 E43.80638
G1 X-9.076 Y-0.006 E43.84327
G1 X8.690 Y-17.773 E45.29607
G1 X8.384 Y-18.104 E45.32218
G1 X-9.076 Y-0.644 E46.74990
G1 X-9.076 Y-1.282 E46.78680
G1 X7.746 Y-18.104 E48.16235
G1 X7.108 Y-18.104 E48.19925
G1 X-9.076 Y-1.920 E49.52262
G1 X-9.076 Y-2.559 E49.55952
G1 X6.469 Y-18.104 E50.83071
G1 X5.831 Y-18.104 E50.86760
G1 X-9.076 Y-3.197 E52.08661
G1 X-9.076 Y-3.835 E52.12351
G1 X5.193 Y-18.104 E53.29034
G1 X4.555 Y-18.104 E53.32724
G1 X-9.076 Y-4.473 E54.44189
G1 X-9.076 Y-5.111 E54.47879
G1 X3.917 Y-18.104 E55.54126
G1 X3.279 Y-18.104 E55.57816
G1 X-9.076 Y-5.749 E56.58845
G1 X-9.076 Y-6.387 E56.62535
G1 X2.641 Y-18.104 E57.58346
G1 X2.003 Y-18.104 E57.62036
G1 X-9.076 Y-7.025 E58.52629
G1 X-9.076 Y-7.664 E58.56319
G1 X1.365 Y-18.104 E59.41694
G1 X0.726 Y-18.104 E59.45384
G1 X-9.076 Y-8.302 E60.25542
G1 X-9.076 Y-8.940 E60.29231
G1 X0.088 Y-18.104 E61.04171
G1 X-0.550 Y-18.104 E61.07860
G1 X-9.076 Y-9.578 E61.77582
G1 X-9.076 Y-10.216 E61.81272
G1 X-1.188 Y-18.104 E62.45775
G1 X-1.826 Y-18.104 E62.49465
G1 X-9.076 Y-10.854 E63.08751
G1 X-9.076 Y-11.492 E63.12440
G1 X-2.464 Y-18.104 E63.66508
G1 X-3.102 Y-18.104 E63.70198
G1 X-9.076 Y-12.130 E64.19048
G1 X-9.076 Y-12.769 E64.22737
G1 X-3.740 Y-18.104 E64.66369
G1 X-4.379 Y-18.104 E64.70059
G1 X-9.076 Y-13.407 E65.08473
G1 X-9.076 Y-14.045 E65.12162
G1 X-5.017 Y-18.104 E65.45358
G1 X-5.655 Y-18.104 E65.49048
G1 X-9.076 Y-14.683 E65.77026
G1 X-9.076 Y-15.321 E65.80715
G1 X-6.293 Y-18.104 E66.03475
G1 X-6.931 Y-18.104 E66.07165
G1 X-9.076 Y-15.959 E66.24707
G1 X-9.076 Y-16.597 E66.28397
G1 X-7.569 Y-18.104 E66.40721
G1 X-8.207 Y-18.104 E66.44411
G1 X-9.076 Y-17.235 E66.51517
G1 X-9.076 Y-17.874 E66.55206
G1 X-8.845 Y-18.104 E66.57095
G1 Z0.600 F7800.000
G1 E64.57095 F2400.00000
G92 E0
G1 X-6.934 Y-20.224 F7800.000
G1 E2.00000 F2400.00000
G1 X-5.630 Y-22.825 E2.09503 F3600.000
G1 X-6.171 Y-22.693 F7800.000
G1 X-7.408 Y-20.224 E2.18523 F3600.000
G1 X-7.882 Y-20.224 E2.20071
G1 X-6.920 Y-22.144 E2.27086
G1 X-6.633 Y-22.658 F7800.000
G1 X-6.367 Y-23.190 E2.29030 F3600.000
G1 X-6.558 Y-23.842 E2.31248
G1 X-7.452 Y-22.059 E2.37763
G1 X-8.171 Y-21.658 E2.40451
G1 X-5.310 Y-27.366 E2.61302
G1 X-5.164 Y-26.624 E2.63772
G1 X-6.372 Y-24.213 E2.72579
G1 X-5.744 Y-24.433 E2.74753
G1 X-5.018 Y-25.882 E2.80047
G1 X-4.871 Y-25.140 E2.82517
G1 X-5.535 Y-23.815 E2.87356
G1 X-4.937 Y-23.975 E2.89378
G1 X-5.092 Y-23.666 E2.90504
G1 E0.90504 F2400.00000
G92 E0
G1 X-5.737 Y-21.668 F7800.000
G1 E2.00000 F2400.00000
G1 X-6.460 Y-20.224 E2.05273 F3600.000
G1 X-5.841 Y-20.514 E2.07506
G1 X-5.986 Y-20.224 E2.08563
G1 E0.08563 F2400.00000
G92 E0
G1 X-7.669 Y-21.596 F7800.000
G1 E2.00000 F2400.00000
G1 X-8.356 Y-20.224 E2.05010 F3600.000
G1 X-8.831 Y-20.224 E2.06559
G1 X-8.418 Y-21.047 E2.09565
G1 X-8.416 Y-21.997 F7800.000
G1 X-9.305 Y-20.224 E2.16041 F3600.000
G1 X-9.779 Y-20.224 E2.17589
G1 X-8.399 Y-22.977 E2.27645
G1 X-8.527 Y-23.667 E2.29939
G1 X-10.253 Y-20.224 E2.42517
G1 X-10.726 Y-20.226 E2.44062
G1 X-9.670 Y-22.333 E2.51760
G1 X-10.047 Y-22.527 E2.53145
G1 X-10.875 Y-20.875 E2.59179
G1 X-11.097 Y-21.377 F7800.000
G1 X-9.844 Y-23.879 E2.68317 F3600.000
G1 X-9.463 Y-23.693 E2.69701
G1 X-9.731 Y-23.158 E2.71657
G1 X-9.394 Y-22.884 F7800.000
G1 X-9.111 Y-23.448 E2.73719 F3600.000
G1 X-8.134 Y-23.800 F7800.000
G1 X-7.706 Y-24.652 E2.76833 F3600.000
G1 X-7.513 Y-26.072 F7800.000
G1 X-7.657 Y-25.784 E2.77885 F3600.000
G1 X-7.413 Y-25.238 E2.79840
G1 X-6.716 Y-26.628 E2.84919
G1 X-5.920 Y-27.183 F7800.000
G1 X-8.152 Y-22.729 E3.01192 F3600.000
G1 E1.01192 F2400.00000
G92 E0
G1 X-10.076 Y-24.361 F7800.000
G1 E2.00000 F2400.00000
G1 X-11.543 Y-21.433 E2.10695 F3600.000
G1 X-11.969 Y-21.530 E2.12120
G1 X-10.281 Y-24.897 E2.24421
G1 X-10.701 Y-25.007 E2.25836
G1 X-12.395 Y-21.627 E2.38184
