;FLAVOR:Marlin
;TIME:2192
;Filament used: 1.22068m
;Layer height: 0.15
;MINX:-17.505
;MINY:-17.508
;MINZ:0.3
;MAXX:17.508
;MAXY:17.508
;MAXZ:45.45
;Generated with Cura_SteamEngine 5.2.1
M140 S60
M105
M190 S60
M104 S210
M105
M109 S210
M82 ;absolute extrusion mode
G28 ;Home
G1 Z15.0 F6000 ;Move the platform down 15mm
;Prime the extruder
G92 E0
G1 F200 E3
G92 E0
M141 S28
G92 E0
G92 E0
G1 F1500 E-6.5
;LAYER_COUNT:305
;LAYER:0
M107
G0 F3600 X5.127 Y-16.737 Z0.3
;TYPE:SKIRT
G1 F1500 E0
G1 X5.953 Y-16.462 E0.04343
G1 X7.091 Y-16.01 E0.10452
G1 X8.082 Y-15.532 E0.15941
G1 X9.027 Y-15.002 E0.21347
G1 X9.96 Y-14.399 E0.26889
G1 X10.906 Y-13.702 E0.32752
G1 X11.83 Y-12.907 E0.38833
G1 X12.592 Y-12.165 E0.44139
G1 X13.18 Y-11.521 E0.4849
G1 X13.923 Y-10.618 E0.54324
G1 X14.57 Y-9.71 E0.59886
G1 X15.207 Y-8.686 E0.65903
G1 X15.702 Y-7.739 E0.71234
G1 X16.13 Y-6.812 E0.76328
G1 X16.585 Y-5.613 E0.82726
G1 X16.883 Y-4.624 E0.87879
G1 X17.144 Y-3.573 E0.93282
G1 X17.321 Y-2.539 E0.98516
G1 X17.448 Y-1.464 E1.03916
G1 X17.508 Y-.245 E1.10005
G1 X17.484 Y0.935 E1.15893
G1 X17.395 Y1.994 E1.21195
G1 X17.236 Y3.077 E1.26656
G1 X17.012 Y4.139 E1.32071
G1 X16.703 Y5.248 E1.37815
G1 X16.307 Y6.368 E1.43742
G1 X16.003 Y7.107 E1.47728
G1 X15.44 Y8.257 E1.54116
G1 X15.05 Y8.943 E1.58053
G1 X14.406 Y9.951 E1.64021
G1 X13.703 Y10.905 E1.69933
G1 X12.909 Y11.829 E1.76011
G1 X12.17 Y12.588 E1.81296
G1 X11.439 Y13.255 E1.86233
G1 X10.608 Y13.93 E1.91574
G1 X9.704 Y14.574 E1.97112
G1 X8.81 Y15.131 E2.02367
G1 X7.849 Y15.65 E2.07816
G1 X6.813 Y16.129 E2.1351
G1 X5.798 Y16.52 E2.18937
G1 X4.736 Y16.856 E2.24494
G1 X3.478 Y17.16 E2.30951
G1 X2.536 Y17.321 E2.35719
G1 X1.464 Y17.448 E2.41104
G1 X0.244 Y17.508 E2.47198
G1 X-.936 Y17.484 E2.53087
G1 X-1.994 Y17.395 E2.58384
G1 X-3.077 Y17.236 E2.63845
G1 X-4.167 Y17.005 E2.69403
G1 X-5.127 Y16.737 E2.74376
G1 X-5.953 Y16.462 E2.78719
G1 X-7.103 Y16.005 E2.84893
G1 X-8.244 Y15.447 E2.9123
G1 X-8.941 Y15.051 E2.95229
G1 X-9.951 Y14.406 E3.01208
G1 X-10.911 Y13.698 E3.07159
G1 X-11.832 Y12.906 E3.13219
G1 X-12.593 Y12.164 E3.18522
G1 X-13.257 Y11.437 E3.23434
G1 X-13.932 Y10.606 E3.28775
G1 X-14.567 Y9.715 E3.34234
G1 X-15.211 Y8.68 E3.40316
G1 X-15.704 Y7.733 E3.45642
G1 X-16.129 Y6.812 E3.50703
G1 X-16.52 Y5.799 E3.5612
G1 X-16.851 Y4.752 E3.61598
G1 X-17.125 Y3.649 E3.67268
G1 X-17.339 Y2.435 E3.73418
G1 X-17.448 Y1.463 E3.78298
G1 X-17.505 Y0.382 E3.83699
G1 X-17.494 Y-.718 E3.89187
G1 X-17.411 Y-1.889 E3.95044
G1 X-17.238 Y-3.066 E4.00979
G1 X-17.005 Y-4.167 E4.06593
G1 X-16.704 Y-5.245 E4.12177
G1 X-16.307 Y-6.368 E4.1812
G1 X-16.003 Y-7.107 E4.22106
G1 X-15.44 Y-8.257 E4.28494
G1 X-15.05 Y-8.943 E4.32431
G1 X-14.406 Y-9.951 E4.38399
G1 X-13.702 Y-10.906 E4.44318
G1 X-12.907 Y-11.83 E4.50399
G1 X-12.165 Y-12.592 E4.55706
G1 X-11.521 Y-13.18 E4.60056
G1 X-10.618 Y-13.924 E4.65894
G1 X-9.704 Y-14.574 E4.71489
G1 X-8.81 Y-15.131 E4.76744
G1 X-7.849 Y-15.65 E4.82193
G1 X-6.813 Y-16.129 E4.87887
G1 X-5.798 Y-16.52 E4.93314
G1 X-4.736 Y-16.856 E4.98871
G1 X-3.478 Y-17.16 E5.05328
G1 X-2.536 Y-17.321 E5.10096
G1 X-1.464 Y-17.448 E5.15482
G1 X-.244 Y-17.508 E5.21575
G1 X0.936 Y-17.484 E5.27464
G1 X1.994 Y-17.395 E5.32761
G1 X3.077 Y-17.236 E5.38222
G1 X4.167 Y-17.005 E5.43781
G1 X5.127 Y-16.737 E5.48753
G0 F3600 X5.209 Y-16.293
G1 F1500 X6.013 Y-16.014 E5.52999
G1 X6.931 Y-15.643 E5.57939
G1 X7.806 Y-15.221 E5.62785
G1 X8.818 Y-14.662 E5.68553
G1 X9.808 Y-14.014 E5.74456
G1 X10.666 Y-13.382 E5.79773
G1 X11.565 Y-12.608 E5.85691
G1 X12.225 Y-11.965 E5.90288
G1 X12.884 Y-11.252 E5.95132
G1 X13.605 Y-10.375 E6.00796
G1 X14.237 Y-9.489 E6.06226
G1 X14.863 Y-8.482 E6.12142
G1 X15.436 Y-7.373 E6.18369
G1 X15.763 Y-6.652 E6.22319
G1 X16.207 Y-5.482 E6.28562
G1 X16.495 Y-4.528 E6.33534
G1 X16.751 Y-3.497 E6.38834
G1 X16.956 Y-2.264 E6.4507
G1 X17.05 Y-1.42 E6.49307
G1 X17.108 Y-.25 E6.55151
G1 X17.085 Y0.918 E6.60979
G1 X16.981 Y2.066 E6.6673
G1 X16.858 Y2.901 E6.70941
G1 X16.628 Y4.028 E6.76679
G1 X16.322 Y5.125 E6.82361
G1 X15.937 Y6.216 E6.88133
G1 X15.637 Y6.944 E6.92062
G1 X15.091 Y8.062 E6.98269
G1 X14.702 Y8.745 E7.0219
G1 X14.079 Y9.72 E7.07963
G1 X13.381 Y10.666 E7.13828
G1 X12.608 Y11.565 E7.19743
G1 X11.968 Y12.222 E7.24319
G1 X11.178 Y12.951 E7.29682
G1 X10.367 Y13.611 E7.34899
G1 X9.489 Y14.237 E7.40279
G1 X8.599 Y14.79 E7.45506
G1 X7.671 Y15.292 E7.5077
G1 X6.655 Y15.761 E7.56353
G1 X5.774 Y16.101 E7.61064
G1 X4.631 Y16.47 E7.67056
G1 X3.39 Y16.77 E7.73426
G1 X2.469 Y16.927 E7.78087
G1 X1.432 Y17.05 E7.83297
G1 X0.248 Y17.108 E7.89211
G1 X-.919 Y17.085 E7.95034
G1 X-2.066 Y16.981 E8.0078
G1 X-3.003 Y16.843 E8.05505
G1 X-4.063 Y16.619 E8.10911
G1 X-5.209 Y16.293 E8.16855
G1 X-6.013 Y16.014 E8.21101
G1 X-6.932 Y15.643 E8.26045
G1 X-8.068 Y15.087 E8.32355
G1 X-8.744 Y14.703 E8.36234
G1 X-9.72 Y14.079 E8.42013
G1 X-10.672 Y13.377 E8.47914
G1 X-11.574 Y12.6 E8.53854
G1 X-12.373 Y11.812 E8.59453
G1 X-13.019 Y11.096 E8.64264
G1 X-13.609 Y10.37 E8.68931
G1 X-14.298 Y9.391 E8.74904
G1 X-14.863 Y8.483 E8.80239
G1 X-15.35 Y7.548 E8.85499
G1 X-15.72 Y6.745 E8.8991
G1 X-16.101 Y5.774 E8.95114
G1 X-16.466 Y4.642 E9.01047
G1 X-16.732 Y3.569 E9.06563
G1 X-16.945 Y2.365 E9.12663
G1 X-17.038 Y1.532 E9.16844
G1 X-17.105 Y0.39 E9.22552
G1 X-17.094 Y-.702 E9.28
G1 X-17.013 Y-1.843 E9.33707
G1 X-16.842 Y-3.006 E9.39571
G1 X-16.621 Y-4.055 E9.4492
G1 X-16.32 Y-5.132 E9.50499
G1 X-15.937 Y-6.216 E9.56235
G1 X-15.637 Y-6.944 E9.60163
G1 X-15.091 Y-8.062 E9.6637
G1 X-14.702 Y-8.745 E9.70292
G1 X-14.079 Y-9.72 E9.76064
G1 X-13.381 Y-10.666 E9.81929
G1 X-12.608 Y-11.565 E9.87845
G1 X-11.965 Y-12.225 E9.92442
G1 X-11.252 Y-12.884 E9.97286
G1 X-10.375 Y-13.605 E10.0295
G1 X-9.489 Y-14.237 E10.08379
G1 X-8.599 Y-14.79 E10.13607
G1 X-7.671 Y-15.292 E10.18871
G1 X-6.655 Y-15.761 E10.24453
G1 X-5.774 Y-16.101 E10.29165
G1 X-4.631 Y-16.47 E10.35157
G1 X-3.39 Y-16.77 E10.41527
G1 X-2.469 Y-16.927 E10.46188
G1 X-1.432 Y-17.05 E10.51398
G1 X-.248 Y-17.108 E10.57312
G1 X0.919 Y-17.085 E10.63135
G1 X2.066 Y-16.981 E10.68881
G1 X3.003 Y-16.843 E10.73606
G1 X4.063 Y-16.619 E10.79011
G1 X5.209 Y-16.293 E10.84956
G0 F3600 X5.081 Y-15.914
G1 F1500 X5.863 Y-15.643 E10.89085
G1 X6.769 Y-15.277 E10.9396
G1 X7.804 Y-14.771 E10.99707
G1 X8.615 Y-14.317 E11.04344
G1 X9.571 Y-13.692 E11.10043
G1 X10.42 Y-13.066 E11.15305
G1 X11.224 Y-12.374 E11.20597
G1 X12.016 Y-11.61 E11.26088
G1 X12.708 Y-10.844 E11.31238
G1 X13.226 Y-10.207 E11.35334
G1 X13.847 Y-9.346 E11.4063
G1 X14.509 Y-8.295 E11.46827
G1 X14.993 Y-7.368 E11.52044
G1 X15.396 Y-6.493 E11.5685
G1 X15.829 Y-5.35 E11.62948
G1 X16.107 Y-4.431 E11.67738
G1 X16.358 Y-3.419 E11.7294
G1 X16.532 Y-2.404 E11.78078
G1 X16.651 Y-1.397 E11.83137
G1 X16.708 Y-.228 E11.88976
G1 X16.677 Y0.991 E11.9506
G1 X16.599 Y1.914 E11.99681
G1 X16.428 Y3.034 E12.05333
G1 X16.238 Y3.938 E12.09942
G1 X15.907 Y5.102 E12.15979
G1 X15.631 Y5.896 E12.20173
G1 X15.269 Y6.787 E12.24971
G1 X14.782 Y7.784 E12.30507
G1 X14.354 Y8.548 E12.34876
G1 X13.747 Y9.496 E12.40492
G1 X13.067 Y10.419 E12.46212
G1 X12.374 Y11.224 E12.51511
G1 X11.614 Y12.012 E12.56973
G1 X10.844 Y12.708 E12.62151
G1 X10.207 Y13.226 E12.66247
G1 X9.268 Y13.903 E12.72023
G1 X8.311 Y14.492 E12.77629
G1 X7.579 Y14.888 E12.81781
G1 X6.51 Y15.389 E12.87671
G1 X5.63 Y15.728 E12.92376
G1 X4.532 Y16.082 E12.98131
G1 X3.308 Y16.378 E13.04414
G1 X2.219 Y16.558 E13.09921
G1 X1.388 Y16.651 E13.14092
G1 X0.228 Y16.708 E13.19887
G1 X-.991 Y16.677 E13.2597
G1 X-1.81 Y16.608 E13.30071
G1 X-2.934 Y16.449 E13.35734
G1 X-3.965 Y16.231 E13.40992
G1 X-5.081 Y15.914 E13.4678
G1 X-5.863 Y15.643 E13.50909
G1 X-6.773 Y15.276 E13.55804
G1 X-7.786 Y14.78 E13.61431
G1 X-8.546 Y14.355 E13.65775
G1 X-9.495 Y13.748 E13.71396
G1 X-10.448 Y13.046 E13.77301
G1 X-11.225 Y12.373 E13.82429
G1 X-11.947 Y11.677 E13.87433
G1 X-12.589 Y10.982 E13.92153
G1 X-13.292 Y10.125 E13.97683
G1 X-13.958 Y9.179 E14.03455
G1 X-14.52 Y8.276 E14.08761
G1 X-14.995 Y7.364 E14.13891
G1 X-15.356 Y6.579 E14.18202
G1 X-15.728 Y5.63 E14.23287
G1 X-16.081 Y4.536 E14.29022
G1 X-16.34 Y3.489 E14.34403
G1 X-16.547 Y2.317 E14.40341
G1 X-16.64 Y1.487 E14.44508
G1 X-16.705 Y0.371 E14.50085
G1 X-16.695 Y-.593 E14.54895
G1 X-16.616 Y-1.796 E14.60909
G1 X-16.427 Y-3.038 E14.67177
G1 X-16.231 Y-3.966 E14.71909
G1 X-15.907 Y-5.102 E14.77803
G1 X-15.631 Y-5.896 E14.81996
G1 X-15.269 Y-6.787 E14.86794
G1 X-14.782 Y-7.784 E14.9233
G1 X-14.354 Y-8.548 E14.96699
G1 X-13.747 Y-9.496 E15.02315
G1 X-13.067 Y-10.419 E15.08035
G1 X-12.374 Y-11.224 E15.13334
G1 X-11.61 Y-12.016 E15.18824
G1 X-10.844 Y-12.708 E15.23974
G1 X-10.207 Y-13.226 E15.28071
G1 X-9.268 Y-13.903 E15.33846
G1 X-8.311 Y-14.492 E15.39452
G1 X-7.579 Y-14.888 E15.43604
G1 X-6.51 Y-15.389 E15.49494
G1 X-5.63 Y-15.728 E15.54199
G1 X-4.532 Y-16.082 E15.59955
G1 X-3.308 Y-16.378 E15.66237
G1 X-2.219 Y-16.558 E15.71744
G1 X-1.388 Y-16.651 E15.75916
G1 X-.228 Y-16.708 E15.8171
G1 X0.991 Y-16.677 E15.87794
G1 X1.81 Y-16.608 E15.91894
G1 X2.934 Y-16.449 E15.97558
G1 X3.965 Y-16.231 E16.02815
G1 X5.081 Y-15.914 E16.08603
G1 F1500 E9.58603
;MESH:barbarian.stl
G0 F3600 X3.554 Y-13.731
G0 X3.252 Y-12.689
G0 X-12.618 Y0.00
G1 F1500 E16.08603
G0 F3600 X-12.918 Y0.001
;TYPE:WALL-INNER
G1 F1500 X-12.892 Y0.812 E16.12651
G1 X-12.816 Y1.617 E16.16685
G1 X-12.689 Y2.418 E16.20731
G1 X-12.511 Y3.211 E16.24786
G1 X-12.288 Y3.978 E16.28771
G1 X-12.01 Y4.756 E16.32893
G1 X-11.69 Y5.497 E16.3692
G1 X-11.321 Y6.222 E16.40978
G1 X-10.908 Y6.92 E16.45025
G1 X-10.451 Y7.592 E16.49079
G1 X-9.954 Y8.232 E16.53122
G1 X-9.417 Y8.842 E16.57176
G1 X-8.844 Y9.415 E16.61219
G1 X-8.234 Y9.952 E16.65274
G1 X-7.591 Y10.451 E16.69334
G1 X-6.922 Y10.908 E16.73376
G1 X-6.226 Y11.318 E16.77406
G1 X-5.501 Y11.688 E16.81467
G1 X-4.742 Y12.017 E16.85594
G1 X-3.993 Y12.284 E16.89561
G1 X-3.211 Y12.511 E16.93624
G1 X-2.42 Y12.689 E16.97669
G1 X-1.617 Y12.816 E17.01725
G1 X-.812 Y12.892 E17.05759
G1 X-0.001 Y12.918 E17.09807
G1 X0.81 Y12.892 E17.13855
G1 X1.617 Y12.816 E17.17899
G1 X2.42 Y12.689 E17.21955
G1 X3.213 Y12.511 E17.2601
G1 X3.99 Y12.287 E17.30044
G1 X4.753 Y12.01 E17.34094
G1 X5.499 Y11.688 E17.38148
G1 X6.225 Y11.318 E17.42213
G1 X6.922 Y10.907 E17.4625
G1 X7.594 Y10.451 E17.50301
G1 X8.234 Y9.954 E17.54344
G1 X8.844 Y9.417 E17.58399
G1 X9.417 Y8.844 E17.62441
G1 X9.954 Y8.234 E17.66496
G1 X10.451 Y7.593 E17.70543
G1 X10.907 Y6.922 E17.7459
G1 X11.318 Y6.225 E17.78627
G1 X11.688 Y5.499 E17.82692
G1 X12.01 Y4.755 E17.86737
G1 X12.286 Y3.992 E17.90785
G1 X12.511 Y3.213 E17.9483
G1 X12.689 Y2.42 E17.98885
G1 X12.816 Y1.619 E18.02931
G1 X12.892 Y0.81 E18.06985
G1 X12.918 Y-0.001 E18.11033
G1 X12.892 Y-.812 E18.15081
G1 X12.816 Y-1.617 E18.19115
G1 X12.689 Y-2.42 E18.23171
G1 X12.511 Y-3.211 E18.27216
G1 X12.288 Y-3.977 E18.31196
G1 X12.01 Y-4.756 E18.35323
G1 X11.688 Y-5.501 E18.39372
G1 X11.321 Y-6.222 E18.43408
G1 X10.908 Y-6.92 E18.47455
G1 X10.451 Y-7.591 E18.51505
G1 X9.952 Y-8.233 E18.55562
G1 X9.417 Y-8.842 E18.59606
G1 X8.842 Y-9.417 E18.63663
G1 X8.234 Y-9.952 E18.67703
G1 X7.591 Y-10.451 E18.71764
G1 X6.922 Y-10.908 E18.75806
G1 X6.222 Y-11.32 E18.79858
G1 X5.501 Y-11.688 E18.83897
G1 X4.742 Y-12.017 E18.88024
G1 X3.993 Y-12.284 E18.91991
G1 X3.618 Y-12.392 E18.93938
G1 X3.211 Y-12.511 E18.96053
G1 X2.42 Y-12.689 E19.00098
G1 X1.617 Y-12.816 E19.04154
G1 X0.812 Y-12.892 E19.08188
G1 X0.001 Y-12.918 E19.12237
G1 X-.81 Y-12.892 E19.16285
G1 X-1.617 Y-12.816 E19.20329
G1 X-2.42 Y-12.689 E19.24385
G1 X-3.213 Y-12.511 E19.28439
G1 X-3.99 Y-12.287 E19.32474
G1 X-4.753 Y-12.01 E19.36523
G1 X-5.499 Y-11.688 E19.40577
G1 X-6.225 Y-11.318 E19.44642
G1 X-6.922 Y-10.907 E19.48679
G1 X-7.594 Y-10.451 E19.52731
G1 X-8.234 Y-9.954 E19.56774
G1 X-8.844 Y-9.417 E19.60828
G1 X-9.417 Y-8.844 E19.64871
G1 X-9.954 Y-8.234 E19.68926
G1 X-10.451 Y-7.594 E19.72968
G1 X-10.907 Y-6.922 E19.7702
G1 X-11.318 Y-6.225 E19.81057
G1 X-11.688 Y-5.499 E19.85122
G1 X-12.01 Y-4.756 E19.89162
G1 X-12.284 Y-3.995 E19.93197
G1 X-12.511 Y-3.213 E19.9726
G1 X-12.689 Y-2.42 E20.01314
G1 X-12.816 Y-1.619 E20.05361
G1 X-12.892 Y-.81 E20.09414
G1 X-12.918 Y0.001 E20.13463
G0 F3600 X-13.318 Y0.001
;TYPE:WALL-OUTER
G1 F1500 X-13.292 Y0.837 E20.17635
G1 X-13.213 Y1.667 E20.21795
G1 X-13.082 Y2.493 E20.25967
G1 X-12.899 Y3.311 E20.30149
G1 X-12.669 Y4.101 E20.34254
G1 X-12.382 Y4.903 E20.38504
G1 X-12.052 Y5.667 E20.42656
G1 X-11.671 Y6.415 E20.46844
G1 X-11.246 Y7.134 E20.51011
G1 X-10.775 Y7.827 E20.55191
G1 X-10.262 Y8.487 E20.59362
G1 X-9.709 Y9.116 E20.6354
G1 X-9.118 Y9.707 E20.6771
G1 X-8.489 Y10.26 E20.71888
G1 X-7.827 Y10.775 E20.76073
G1 X-7.136 Y11.246 E20.80245
G1 X-6.419 Y11.669 E20.84398
G1 X-5.671 Y12.05 E20.88586
G1 X-4.889 Y12.389 E20.92838
G1 X-4.116 Y12.665 E20.96933
G1 X-3.311 Y12.899 E21.01116
G1 X-2.495 Y13.082 E21.05288
G1 X-1.667 Y13.213 E21.0947
G1 X-.837 Y13.292 E21.1363
G1 X-0.001 Y13.318 E21.17803
G1 X0.835 Y13.292 E21.21975
G1 X1.667 Y13.213 E21.26145
G1 X2.495 Y13.082 E21.30327
G1 X3.313 Y12.899 E21.34509
G1 X4.114 Y12.667 E21.3867
G1 X4.901 Y12.382 E21.42846
G1 X5.669 Y12.05 E21.4702
G1 X6.417 Y11.669 E21.51208
G1 X7.136 Y11.245 E21.55372
G1 X7.829 Y10.775 E21.5955
G1 X8.489 Y10.262 E21.6372
G1 X9.118 Y9.709 E21.67899
G1 X9.709 Y9.118 E21.72068
G1 X10.262 Y8.489 E21.76247
G1 X10.775 Y7.829 E21.80417
G1 X11.245 Y7.136 E21.84595
G1 X11.669 Y6.417 E21.88759
G1 X12.05 Y5.669 E21.92947
G1 X12.382 Y4.903 E21.97112
G1 X12.666 Y4.116 E22.01286
G1 X12.899 Y3.313 E22.05458
G1 X13.082 Y2.495 E22.0964
G1 X13.213 Y1.669 E22.13812
G1 X13.292 Y0.835 E22.17992
G1 X13.318 Y-0.001 E22.22165
G1 X13.292 Y-.837 E22.26337
G1 X13.213 Y-1.667 E22.30497
G1 X13.082 Y-2.495 E22.34679
G1 X12.899 Y-3.311 E22.38851
G1 X12.669 Y-4.101 E22.42956
G1 X12.382 Y-4.903 E22.47206
G1 X12.05 Y-5.671 E22.5138
G1 X11.671 Y-6.415 E22.55546
G1 X11.246 Y-7.134 E22.59713
G1 X10.775 Y-7.827 E22.63893
G1 X10.26 Y-8.489 E22.68078
G1 X9.709 Y-9.116 E22.72242
G1 X9.116 Y-9.709 E22.76426
G1 X8.489 Y-10.26 E22.8059
G1 X7.827 Y-10.775 E22.84775
G1 X7.136 Y-11.246 E22.88947
G1 X6.415 Y-11.671 E22.93122
G1 X5.671 Y-12.05 E22.97288
G1 X4.889 Y-12.389 E23.0154
G1 X4.116 Y-12.665 E23.05635
G1 X3.73 Y-12.776 E23.07639
G1 X3.311 Y-12.899 E23.09818
G1 X2.495 Y-13.082 E23.1399
G1 X1.667 Y-13.213 E23.18172
G1 X0.837 Y-13.292 E23.22332
G1 X0.001 Y-13.318 E23.26505
G1 X-.835 Y-13.292 E23.30677
G1 X-1.667 Y-13.213 E23.34847
G1 X-2.495 Y-13.082 E23.39029
G1 X-3.313 Y-12.899 E23.43211
G1 X-4.114 Y-12.667 E23.47372
G1 X-4.901 Y-12.382 E23.51547
G1 X-5.669 Y-12.05 E23.55722
G1 X-6.417 Y-11.669 E23.5991
G1 X-7.136 Y-11.245 E23.64074
G1 X-7.829 Y-10.775 E23.68252
G1 X-8.489 Y-10.262 E23.72422
G1 X-9.118 Y-9.709 E23.76601
G1 X-9.709 Y-9.118 E23.8077
G1 X-10.262 Y-8.489 E23.84949
G1 X-10.775 Y-7.829 E23.89119
G1 X-11.245 Y-7.136 E23.93297
G1 X-11.669 Y-6.417 E23.97461
G1 X-12.05 Y-5.669 E24.01649
G1 X-12.382 Y-4.903 E24.05814
G1 X-12.664 Y-4.119 E24.09971
G1 X-12.899 Y-3.313 E24.1416
G1 X-13.082 Y-2.495 E24.18341
G1 X-13.213 Y-1.669 E24.22514
G1 X-13.292 Y-.835 E24.26693
G1 X-13.318 Y0.001 E24.30866
G0 F3600 X-13.312 Y0.201
G0 X-12.612 Y0.179
G0 X-12.513 Y-.786
;TYPE:SKIN
G1 F1500 X-12.537 Y0.001 E24.34794
G1 X-12.513 Y0.786 E24.38713
G1 X-12.438 Y1.568 E24.42632
G1 X-12.315 Y2.346 E24.46562
G1 X-12.141 Y3.116 E24.505
G1 X-11.927 Y3.859 E24.54358
G1 X-11.656 Y4.614 E24.5836
G1 X-11.345 Y5.335 E24.62277
G1 X-10.988 Y6.038 E24.66211
G1 X-10.588 Y6.715 E24.70134
G1 X-10.145 Y7.367 E24.74066
G1 X-9.661 Y7.989 E24.77998
G1 X-9.142 Y8.581 E24.81926
G1 X-8.585 Y9.138 E24.85856
G1 X-7.993 Y9.657 E24.89784
G1 X-7.368 Y10.143 E24.93734
G1 X-6.719 Y10.586 E24.97654
G1 X-6.044 Y10.984 E25.01563
G1 X-5.337 Y11.343 E25.05519
G1 X-4.602 Y11.663 E25.09519
G1 X-3.861 Y11.928 E25.13445
G1 X-3.117 Y12.141 E25.17306
G1 X-2.348 Y12.315 E25.21239
G1 X-1.57 Y12.438 E25.25169
G1 X-.788 Y12.513 E25.29088
G1 X-0.001 Y12.537 E25.33017
G1 X0.784 Y12.513 E25.36935
G1 X1.568 Y12.438 E25.40864
G1 X2.348 Y12.315 E25.44803
G1 X3.121 Y12.141 E25.48756
G1 X3.871 Y11.925 E25.5265
G1 X4.613 Y11.656 E25.56588
