; generated by Slic3r 1.2.9 on 2022-12-17 at 12:25:11

; external perimeters extrusion width = 0.40mm
; perimeters extrusion width = 0.48mm
; infill extrusion width = 0.48mm
; solid infill extrusion width = 0.48mm
; top infill extrusion width = 0.48mm
; support material extrusion width = 0.40mm

M107
M190 S60 ; set bed temperature
M104 S200 ; set temperature
G28 ; home all axes
G1 Z5 F5000 ; lift nozzle

M109 S200 ; wait for temperature to be reached
G21 ; set units to millimeters
G90 ; use absolute coordinates
M82 ; use absolute distances for extrusion
G92 E0
G1 Z0.400 F1800.000
G1 E-2.00000 F2400.00000
G92 E0
G1 X-18.232 Y-1.767 F1800.000
G1 E2.00000 F2400.00000
G1 X-18.080 Y-3.239 E2.17577 F1800.000
G1 X-18.020 Y-3.651 E2.22517
G1 X-15.997 Y-15.183 E3.61571
G1 X-15.387 Y-17.031 E3.84689
G1 X-14.521 Y-18.759 E4.07645
G1 X-13.146 Y-20.615 E4.35067
G1 X-11.225 Y-21.895 E4.62490
G1 X-9.518 Y-22.390 E4.83597
G1 X-7.790 Y-22.650 E5.04352
G1 X-6.244 Y-22.703 E5.22721
G1 X-4.709 Y-22.578 E5.41011
G1 X-4.030 Y-22.487 E5.49154 F1800.000
G1 X0.355 Y-21.673 E6.02123
G1 X0.947 Y-21.535 E6.09337
G1 X2.421 Y-21.121 E6.27517
G1 X7.244 Y-19.706 E6.87217
G1 X9.610 Y-18.981 E7.16606
G1 X10.582 Y-18.585 E7.29075
G1 X10.791 Y-18.478 E7.31866
G1 X18.230 Y-14.468 E8.32224
G1 X20.042 Y-13.038 E8.59646
G1 X21.263 Y-11.078 E8.87069
G1 X21.692 Y-9.465 E9.06883
G1 X22.550 Y-3.129 E9.82823
G1 X22.830 Y-0.350 E10.15997
G1 X22.827 Y0.874 E10.30539
G1 X22.550 Y3.683 E10.64054
G1 X22.301 Y4.921 E10.79060
G1 X21.624 Y7.158 E11.06810
G1 X21.444 Y7.707 E11.13673
G1 X21.010 Y8.731 E11.26889
G1 X19.872 Y10.868 E11.55631
G1 X19.503 Y11.503 E11.64364
G1 X18.961 Y12.274 E11.75548
G1 X17.203 Y14.408 E12.08387
G1 X16.447 Y15.173 E12.21164
G1 X14.188 Y17.035 E12.55937
G1 X13.723 Y17.379 E12.62803
G1 X13.152 Y17.726 E12.70737
G1 X11.283 Y18.735 E12.95961
G1 X10.575 Y19.102 E13.05431
G1 X9.509 Y19.534 E13.19095
G1 X6.853 Y20.335 E13.52035
G1 X5.772 Y20.561 E13.65157
G1 X2.894 Y20.849 E13.99509
G1 X1.746 Y20.859 E14.13144
G1 X-1.224 Y20.573 E14.48577
G1 X-2.367 Y20.342 E14.62431
G1 X-4.432 Y19.725 E14.88026
G1 X-5.315 Y19.439 E14.99050
G1 X-6.284 Y19.017 E15.11597
G1 X-8.815 Y17.652 E15.45752
G1 X-9.592 Y17.136 E15.56832
G1 X-9.925 Y16.880 E15.61815
G1 X-11.807 Y15.332 E15.90761
G1 X-11.974 Y15.190 E15.93360
G1 X-12.655 Y14.508 E16.04807
G1 X-13.038 Y14.063 E16.11784
G1 X-14.642 Y12.095 E16.41937
G1 X-15.282 Y11.111 E16.55876
G1 X-16.620 Y8.588 E16.89796
G1 X-16.946 Y7.818 E16.99729
G1 X-17.832 Y4.941 E17.35482
G1 X-18.041 Y4.024 E17.46646
G1 X-18.089 Y3.684 E17.50721
G1 X-18.357 Y0.959 E17.83242
G1 X-18.387 Y0.320 E17.90838
G1 X-18.360 Y-0.426 E17.99706
G1 X-18.238 Y-1.707 E18.14993
G1 E16.14993 F2400.00000
G92 E0
G1 X-8.928 Y-4.341 F1800.000
G1 E2.00000 F2400.00000
G1 X-7.816 Y-6.436 E2.28169 F1800.000
G1 X-6.322 Y-8.261 E2.56178
G1 X-4.503 Y-9.760 E2.84172
G1 X-2.393 Y-10.893 E3.12616
G1 X-0.121 Y-11.580 E3.40811
G1 X2.232 Y-11.813 E3.68893
G1 X2.911 Y-11.752 E3.76990
G1 X4.554 Y-11.587 E3.96598 F1800.000
G1 X6.870 Y-10.886 E4.25343
G1 X8.907 Y-9.794 E4.52787
G1 X10.752 Y-8.285 E4.81092
G1 X12.261 Y-6.457 E5.09248
G1 X13.389 Y-4.346 E5.37669
G1 X14.063 Y-2.127 E5.65221
G1 X14.305 Y0.250 E5.93597
G1 X14.071 Y2.621 E6.21889
G1 X13.372 Y4.900 E6.50202
G1 X12.254 Y6.980 E6.78242
G1 X10.764 Y8.789 E7.06076
G1 X8.932 Y10.295 E7.34248
G1 X6.830 Y11.419 E7.62553
G1 X4.584 Y12.097 E7.90423
G1 X2.256 Y12.328 E8.18206
G1 X-0.111 Y12.099 E8.46443
G1 X-2.418 Y11.397 E8.75086
G1 X-4.478 Y10.287 E9.02871
G1 X-6.282 Y8.812 E9.30549
G1 X-7.827 Y6.937 E9.59408
G1 X-8.913 Y4.891 E9.86912
G1 X-9.605 Y2.632 E10.14972
G1 X-9.838 Y0.205 E10.43929
G1 X-9.606 Y-2.129 E10.71787
G1 X-8.946 Y-4.284 E10.98553
G1 X-9.611 Y-4.550 F1800.000
G1 X-9.591 Y-4.615 E10.99364 F1800.000
G1 X-8.414 Y-6.833 E11.29187
G1 X-6.830 Y-8.767 E11.58871
G1 X-4.903 Y-10.355 E11.88532
G1 X-2.668 Y-11.556 E12.18658
G1 X-0.261 Y-12.284 E12.48531
G1 X2.229 Y-12.530 E12.78241
G1 X2.979 Y-12.463 E12.87184
G1 X4.695 Y-12.291 E13.07664 F1800.000
G1 X7.145 Y-11.548 E13.38077
G1 X9.305 Y-10.390 E13.67185
G1 X11.258 Y-8.794 E13.97144
G1 X12.857 Y-6.856 E14.26978
G1 X14.052 Y-4.621 E14.57080
G1 X14.767 Y-2.268 E14.86290
G1 X15.023 Y0.249 E15.16339
G1 X14.775 Y2.762 E15.46329
G1 X14.034 Y5.175 E15.76304
G1 X12.840 Y7.392 E16.06207
G1 X11.271 Y9.296 E16.35513
G1 X9.331 Y10.892 E16.65348
G1 X7.104 Y12.082 E16.95335
G1 X4.723 Y12.801 E17.24872
G1 X2.257 Y13.045 E17.54311
G1 X-0.251 Y12.803 E17.84227
G1 X-2.694 Y12.059 E18.14564
G1 X-4.876 Y10.883 E18.44005
G1 X-6.789 Y9.321 E18.73332
G1 X-8.424 Y7.335 E19.03881
G1 X-9.576 Y5.166 E19.33053
G1 X-10.309 Y2.775 E19.62750
G1 X-10.555 Y0.200 E19.93470
G1 X-10.310 Y-2.270 E20.22955
G1 X-9.629 Y-4.493 E20.50565
G1 X-10.294 Y-4.759 F1800.000
G1 X-10.254 Y-4.890 E20.52186 F1800.000
G1 X-9.011 Y-7.231 E20.83663
G1 X-7.338 Y-9.274 E21.15022
G1 X-5.303 Y-10.951 E21.46350
G1 X-2.943 Y-12.219 E21.78159
G1 X-0.400 Y-12.988 E22.09708
G1 X2.225 Y-13.248 E22.41047
G1 X3.046 Y-13.174 E22.50836
G1 X4.835 Y-12.995 E22.72188 F1800.000
G1 X7.420 Y-12.211 E23.04268
G1 X9.704 Y-10.987 E23.35041
G1 X11.765 Y-9.302 E23.66654
G1 X13.453 Y-7.256 E23.98166
G1 X14.715 Y-4.896 E24.29949
G1 X15.470 Y-2.409 E24.60817
G1 X15.741 Y0.248 E24.92539
G1 X15.478 Y2.904 E25.24227
G1 X14.697 Y5.450 E25.55864
G1 X13.598 Y7.514 E25.83634
G1 X13.426 Y7.804 E25.87634
G1 X11.778 Y9.804 E26.18412
G1 X9.730 Y11.488 E26.49909
G1 X7.378 Y12.746 E26.81578
G1 X4.863 Y13.504 E27.12784
G1 X2.258 Y13.763 E27.43879
G1 X-0.390 Y13.507 E27.75473
G1 X-2.970 Y12.722 E28.07503
G1 X-5.275 Y11.480 E28.38601
G1 X-7.295 Y9.829 E28.69577
G1 X-9.021 Y7.734 E29.01817
G1 X-10.239 Y5.441 E29.32655
G1 X-11.012 Y2.918 E29.63990
G1 X-11.272 Y0.195 E29.96473
G1 X-11.013 Y-2.411 E30.27585
G1 X-10.311 Y-4.702 E30.56038
G1 X-10.161 Y-4.790 F1800.000
G1 X-8.886 Y3.321 F1800.000
G1 X-0.836 Y11.370 E31.91597 F1800.000
G1 X0.513 Y11.707 E32.08158
G1 X-9.215 Y1.979 E33.71993
G1 X-9.323 Y0.858 E33.85393
G1 X1.634 Y11.815 E35.69913
G1 X2.693 Y11.861 E35.82535
G1 X-9.374 Y-0.205 E37.85750
G1 X-9.282 Y-1.127 E37.96773
G1 X3.614 Y11.770 E40.13962
G1 X4.535 Y11.678 E40.24987
G1 X-9.191 Y-2.048 E42.56149
G1 X-8.972 Y-2.841 E42.65954
G1 X5.326 Y11.457 E45.06752
G1 X6.105 Y11.222 E45.16430
G1 X-8.734 Y-3.616 E47.66332
G1 X-8.478 Y-4.373 E47.75846
G1 X6.863 Y10.968 E50.34220
G1 X7.523 Y10.615 E50.43131
G1 X-8.127 Y-5.035 E53.06705
G1 X-7.776 Y-5.697 E53.15624
G1 X8.183 Y10.263 E55.84398
G1 X8.829 Y9.896 E55.93245
G1 X-7.409 Y-6.343 E58.66726
G1 X-6.954 Y-6.899 E58.75296
G1 X9.385 Y9.439 E61.50458
G1 X9.941 Y8.982 E61.59026
G1 X-6.498 Y-7.456 E64.35867
G1 X-6.026 Y-7.997 E64.44415
G1 X10.482 Y8.511 E67.22436
G1 X10.954 Y7.970 E67.30983
G1 X-5.483 Y-8.467 E70.07814
G1 X-4.928 Y-8.925 E70.16381
G1 X11.412 Y7.415 E72.91566
G1 X11.869 Y6.860 E73.00133
G1 X-4.373 Y-9.382 E75.73671
G1 X-3.723 Y-9.745 E75.82535
G1 X12.234 Y6.212 E78.51265
G1 X12.588 Y5.553 E78.60171
G1 X-3.064 Y-10.099 E81.23767
G1 X-2.405 Y-10.453 E81.32672
G1 X12.942 Y4.894 E83.91133
G1 X13.192 Y4.131 E84.00691
G1 X-1.643 Y-10.704 E86.50530
G1 X-0.866 Y-10.939 E86.60204
G1 X13.429 Y3.356 E89.00952
G1 X13.653 Y2.567 E89.10719
G1 X-0.075 Y-11.161 E91.41921
G1 X0.846 Y-11.252 E91.52947
G1 X13.744 Y1.645 E93.70164
G1 X13.835 Y0.724 E93.81193
G1 X1.767 Y-11.344 E95.84426
G1 X2.815 Y-11.308 E95.96914
G1 X13.792 Y-0.332 E97.81773
G1 X13.677 Y-1.459 E97.95267
G1 X3.941 Y-11.195 E99.59235
G1 X5.294 Y-10.855 E99.75841
G1 X13.352 Y-2.798 E101.11547
G1 X12.769 Y-4.392 F1800.000
G1 X6.874 Y-10.288 E102.10833 F1800.000
G1 X10.029 Y-8.146 F1800.000
G1 X10.622 Y-7.553 E102.20823 F1800.000
G1 X-2.421 Y10.798 F1800.000
G1 X-8.311 Y4.909 E103.20007 F1800.000
G1 X-6.150 Y8.082 F1800.000
G1 X-5.559 Y8.673 E103.29960 F1800.000
G1 Z0.400 F1800.000
G1 E101.29960 F2400.00000
G92 E0
G1 X-9.384 Y-14.023 F1800.000
G1 E2.00000 F2400.00000
G1 X-8.518 Y-15.751 E2.22955 F1800.000
G1 X-6.790 Y-16.011 E2.43711
G1 X-8.603 Y-12.393 E2.91779
G1 X-7.439 Y-11.529 E3.09000
G1 X-5.255 Y-15.886 E3.66874
G1 X-3.828 Y-15.545 E3.84298
G1 X-5.766 Y-11.678 E4.35670
G1 X-3.580 Y-12.852 E4.65139
G1 X-2.340 Y-15.327 E4.98014
G1 X-1.672 Y-13.472 E5.21431
G1 X-0.870 Y-15.072 E5.42688
G1 X0.530 Y-14.678 E5.59965
G1 X0.112 Y-13.843 E5.71065
G1 E3.71065 F2400.00000
G92 E0
G1 X13.426 Y-8.530 F1800.000
G1 E2.00000 F2400.00000
G1 X13.735 Y-9.148 E2.08204 F1800.000
G1 X15.039 Y-8.560 E2.25182
G1 X14.378 Y-7.243 E2.42680
G1 Z0.700 F1800.000
G1 E0.42680 F2400.00000
G92 E0
G1 X-9.578 Y-4.540 F1800.000
G1 E2.00000 F2400.00000
G1 X-9.555 Y-4.615 E2.00408 F3600.000
G1 X-8.382 Y-6.820 E2.13457
G1 X-6.817 Y-8.727 E2.26346
G1 X-4.886 Y-10.324 E2.39436
G1 X-2.636 Y-11.530 E2.52776
G1 X-0.274 Y-12.248 E2.65671
G1 X2.239 Y-12.496 E2.78864
G1 X2.759 Y-12.450 E2.81593
G1 X4.691 Y-12.257 E2.91734 F3600.000
G1 X7.112 Y-11.523 E3.04952
G1 X9.298 Y-10.354 E3.17904
G1 X11.230 Y-8.775 E3.30941
G1 X12.819 Y-6.850 E3.43981
G1 X14.015 Y-4.621 E3.57196
G1 X14.731 Y-2.264 E3.70065
G1 X14.987 Y0.256 E3.83302
G1 X14.738 Y2.764 E3.96466
G1 X14.004 Y5.156 E4.09538
G1 X12.809 Y7.379 E4.22728
G1 X11.255 Y9.267 E4.35502
G1 X10.389 Y9.994 E4.41409
G1 X9.293 Y10.877 E4.48758
G1 X7.085 Y12.053 E4.61829
G1 X4.727 Y12.764 E4.74699
G1 X2.241 Y13.012 E4.87750
G1 X-0.255 Y12.767 E5.00856
G1 X-2.683 Y12.025 E5.14115
G1 X-4.869 Y10.847 E5.27093
G1 X-6.777 Y9.285 E5.39973
G1 X-8.397 Y7.313 E5.53308
G1 X-9.544 Y5.151 E5.66092
G1 X-10.273 Y2.776 E5.79074
G1 X-10.527 Y0.247 E5.92351
G1 X-10.278 Y-2.252 E6.05472
G1 X-9.595 Y-4.483 E6.17660
G1 X-9.978 Y-4.663 F1800.000
G1 X-9.944 Y-4.776 E6.18279 F3600.000
G1 X-8.732 Y-7.053 E6.31756
G1 X-7.115 Y-9.024 E6.45074
G1 X-5.121 Y-10.674 E6.58595
G1 X-2.797 Y-11.919 E6.72369
G1 X-0.356 Y-12.660 E6.85695
G1 X2.237 Y-12.917 E6.99311
G1 X2.799 Y-12.867 E7.02257
G1 X4.773 Y-12.670 E7.12623 F3600.000
G1 X7.273 Y-11.912 E7.26271
G1 X9.532 Y-10.704 E7.39653
G1 X11.527 Y-9.073 E7.53116
G1 X13.169 Y-7.085 E7.66588
G1 X14.403 Y-4.783 E7.80237
G1 X15.144 Y-2.347 E7.93535
G1 X15.408 Y0.256 E8.07205
G1 X15.151 Y2.847 E8.20806
G1 X14.393 Y5.318 E8.34311
G1 X13.158 Y7.614 E8.47931
G1 X11.554 Y9.563 E8.61121
G1 X10.655 Y10.318 E8.67252
G1 X9.525 Y11.228 E8.74830
G1 X7.246 Y12.442 E8.88323
G1 X4.809 Y13.177 E9.01621
G1 X2.241 Y13.433 E9.15102
G1 X-0.338 Y13.179 E9.28642
G1 X-2.845 Y12.414 E9.42337
G1 X-5.104 Y11.196 E9.55742
G1 X-7.074 Y9.582 E9.69049
G1 X-8.748 Y7.546 E9.82820
G1 X-9.932 Y5.312 E9.96032
G1 X-10.686 Y2.859 E10.09439
G1 X-10.948 Y0.247 E10.23153
G1 X-10.691 Y-2.335 E10.36709
G1 X-9.996 Y-4.606 E10.49114
G1 X-10.339 Y-4.773 F1800.000
G1 X-10.294 Y-4.921 E10.49762 F1800.000
G1 X-9.047 Y-7.264 E10.60869
G1 X-7.384 Y-9.292 E10.71850
G1 X-5.332 Y-10.988 E10.82994
G1 X-2.942 Y-12.269 E10.94343
G1 X-0.431 Y-13.032 E11.05333
G1 X2.235 Y-13.296 E11.16546
G1 X2.834 Y-13.242 E11.19064
G1 X4.847 Y-13.041 E11.27532 F1800.000
G1 X7.418 Y-12.262 E11.38777
G1 X9.742 Y-11.019 E11.49809
G1 X11.794 Y-9.342 E11.60905
G1 X13.483 Y-7.296 E11.72010
G1 X14.753 Y-4.928 E11.83259
G1 X15.516 Y-2.422 E11.94224
G1 X15.787 Y0.256 E12.05489
G1 X15.522 Y2.921 E12.16703
G1 X14.742 Y5.464 E12.27836
G1 X13.473 Y7.825 E12.39057
G1 X11.823 Y9.830 E12.49926
G1 X10.894 Y10.609 E12.55000
G1 X9.734 Y11.544 E12.61238
G1 X7.390 Y12.792 E12.72354
G1 X4.883 Y13.548 E12.83317
G1 X2.242 Y13.812 E12.94428
G1 X-0.412 Y13.551 E13.05591
G1 X-2.991 Y12.764 E13.16877
G1 X-5.315 Y11.511 E13.27927
G1 X-7.342 Y9.851 E13.38896
G1 X-9.063 Y7.756 E13.50245
G1 X-10.283 Y5.457 E13.61139
G1 X-11.057 Y2.934 E13.72189
G1 X-11.327 Y0.247 E13.83491
G1 X-11.062 Y-2.410 E13.94668
G1 X-10.357 Y-4.716 E14.04763
G1 X-10.188 Y-4.808 F1800.000
G1 X-9.194 Y-4.657 F1800.000
G1 X-2.689 Y-11.162 E14.52967 F1200.000
G1 X-1.745 Y-11.511 F1800.000
G1 X-9.540 Y-3.716 E15.10735 F1200.000
G1 X-9.802 Y-2.860 E15.15426
G1 X-0.892 Y-11.771 E15.81459
G1 X-0.057 Y-12.011 E15.86012
G1 X-10.043 Y-2.025 E16.60016
G1 X-10.108 Y-1.365 E16.63491
G1 X0.603 Y-12.077 E17.42868
G1 X1.262 Y-12.142 E17.46341
G1 X-10.174 Y-0.706 E18.31092
G1 X-10.240 Y-0.046 E18.34566
G1 X1.922 Y-12.207 E19.24691
G1 X2.538 Y-12.229 E19.27920
G1 X-10.255 Y0.564 E20.22721
G1 X-10.201 Y1.104 E20.25565
G1 X3.080 Y-12.178 E21.23988
G1 X3.621 Y-12.124 E21.26833
G1 X-10.147 Y1.644 E22.28857
G1 X-10.093 Y2.184 E22.31701
G1 X4.161 Y-12.070 E23.37328
G1 X4.701 Y-12.016 E23.40173
G1 X-10.038 Y2.724 E24.49402
G1 X-9.911 Y3.190 E24.51935
G1 X5.159 Y-11.880 E25.63610
G1 X5.615 Y-11.741 E25.66107
G1 X-9.771 Y3.644 E26.80126
G1 X-9.631 Y4.099 E26.82618
G1 X6.071 Y-11.603 E27.98982
G1 X6.527 Y-11.465 E28.01478
G1 X-9.492 Y4.554 E29.20187
G1 X-9.352 Y5.008 E29.22679
G1 X6.983 Y-11.327 E30.43732
G1 X7.383 Y-11.133 E30.46063
G1 X-9.161 Y5.411 E31.68669
G1 X-8.955 Y5.800 E31.70972
G1 X7.771 Y-10.926 E32.94921
G1 X8.158 Y-10.719 E32.97221
G1 X-8.749 Y6.188 E34.22513
G1 X-8.543 Y6.576 E34.24816
G1 X8.545 Y-10.512 E35.51451
G1 X8.932 Y-10.305 E35.53751
G1 X-8.338 Y6.964 E36.81728
G1 X-8.109 Y7.330 E36.83989
G1 X9.300 Y-10.080 E38.13007
G1 X9.627 Y-9.812 E38.15220
G1 X-7.841 Y7.657 E39.44674
G1 X-7.573 Y7.983 E39.46886
G1 X9.954 Y-9.545 E40.76777
G1 X10.281 Y-9.278 E40.78990
G1 X-7.305 Y8.309 E42.09317
G1 X-7.037 Y8.635 E42.11529
G1 X10.608 Y-9.010 E43.42292
G1 X10.934 Y-8.742 E43.44504
G1 X-6.769 Y8.961 E44.75696
G1 X-6.474 Y9.259 E44.77898
G1 X11.230 Y-8.444 E46.09088
G1 X11.498 Y-8.118 E46.11300
G1 X-6.147 Y9.527 E47.42064
G1 X-5.821 Y9.795 E47.44277
G1 X11.767 Y-7.793 E48.74613
G1 X12.036 Y-7.468 E48.76824
G1 X-5.494 Y10.062 E50.06731
G1 X-5.167 Y10.330 E50.08943
G1 X12.305 Y-7.142 E51.38422
G1 X12.573 Y-6.817 E51.40633
G1 X-4.841 Y10.597 E52.69683
G1 X-4.468 Y10.818 E52.71955
G1 X12.793 Y-6.442 E53.99868
G1 X13.001 Y-6.056 E54.02168
G1 X-4.082 Y11.026 E55.28757
G1 X-3.696 Y11.235 E55.31055
G1 X13.208 Y-5.669 E56.56320
G1 X13.415 Y-5.282 E56.58620
G1 X-3.309 Y11.443 E57.82561
G1 X-2.923 Y11.651 E57.84859
G1 X13.623 Y-4.895 E59.07477
G1 X13.817 Y-4.496 E59.09805
G1 X-2.519 Y11.840 E60.30866
G1 X-2.064 Y11.979 E60.33360
G1 X13.956 Y-4.040 E61.52075
G1 X14.095 Y-3.585 E61.54570
G1 X-1.608 Y12.118 E62.70938
G1 X-1.153 Y12.257 E62.73432
G1 X14.233 Y-3.129 E63.87454
G1 X14.372 Y-2.674 E63.89949
G1 X-0.698 Y12.396 E65.01625
G1 X-0.236 Y12.528 E65.04142
G1 X14.498 Y-2.205 E66.13328
G1 X14.552 Y-1.666 E66.16170
G1 X0.305 Y12.582 E67.21752
G1 X0.846 Y12.635 E67.24600
G1 X14.607 Y-1.126 E68.26578
G1 X14.661 Y-0.587 E68.29420
G1 X1.387 Y12.688 E69.27794
G1 X1.928 Y12.741 E69.30642
G1 X14.716 Y-0.047 E70.25412
G1 X14.698 Y0.565 E70.28619
G1 X2.538 Y12.725 E71.18733
G1 X3.198 Y12.659 E71.22209
G1 X14.633 Y1.224 E72.06946
G1 X14.568 Y1.884 E72.10419
G1 X3.858 Y12.593 E72.89780
G1 X4.519 Y12.527 E72.93256
G1 X14.502 Y2.543 E73.67239
G1 X14.259 Y3.381 E73.71810
G1 X5.354 Y12.286 E74.37800
G1 X6.205 Y12.029 E74.42456
G1 X13.996 Y4.238 E75.00194
G1 X13.654 Y5.174 F1800.000
G1 X7.148 Y11.680 E75.48406 F1200.000
G1 X8.419 Y11.003 F1800.000
G1 X12.963 Y6.459 E75.82076 F1200.000
G1 X11.236 Y8.780 F1800.000
G1 X10.749 Y9.267 E75.85682 F1200.000
G1 X-8.518 Y-5.927 F1800.000
G1 X-3.969 Y-10.476 E76.19391 F1200.000
G1 X-6.325 Y-8.714 F1800.000
G1 X-6.796 Y-8.242 E76.22884 F1200.000
G1 Z0.700 F1800.000
G1 E74.22884 F2400.00000
G92 E0
G1 X-8.265 Y-13.820 F1800.000
G1 E2.00000 F2400.00000
G1 X-8.265 Y-15.567 E2.07313 F3600.000
G1 X-8.603 Y-15.540 E2.08733
G1 X-8.598 Y-15.511 E2.08854
G1 X-9.364 Y-15.382 E2.12106
G1 X-9.236 Y-13.820 E2.18667
G1 X-8.265 Y-13.820 E2.22731
G1 E0.22731 F2400.00000
G92 E0
G1 X-5.541 Y-15.178 F1800.000
G1 E2.00000 F2400.00000
G1 X-6.000 Y-15.181 E2.01919 F3600.000
G1 X-5.306 Y-13.981 E2.07723
G1 X-3.014 Y-13.981 E2.17319
G1 X-3.084 Y-14.268 E2.18557
G1 X-1.928 Y-14.169 E2.23414
G1 X-2.071 Y-14.757 E2.25946
G1 X-3.257 Y-14.829 E2.30920
G1 X-3.289 Y-14.968 E2.31516
G1 X-4.454 Y-15.023 E2.36398
G1 X-4.486 Y-15.169 E2.37027
G1 X-5.541 Y-15.178 E2.41442
G1 X-5.539 Y-15.514 F1800.000
G1 X-7.537 Y-15.527 E2.49807 F3600.000
G1 X-6.996 Y-12.649 E2.62066
G1 X-5.744 Y-11.675 E2.68705
