; generated by Slic3r 1.2.9 on 2022-12-17 at 12:59:55

; external perimeters extrusion width = 0.40mm
; perimeters extrusion width = 0.48mm
; infill extrusion width = 0.48mm
; solid infill extrusion width = 0.48mm
; top infill extrusion width = 0.48mm
; support material extrusion width = 0.40mm

M107
M190 S60 ; set bed temperature
M104 S200 ; set temperature
G28 ; home all axes
G1 Z5 F5000 ; lift nozzle

M109 S200 ; wait for temperature to be reached
G21 ; set units to millimeters
G90 ; use absolute coordinates
M82 ; use absolute distances for extrusion
G92 E0
G1 Z0.400 F1800.000
G1 E-2.00000 F2400.00000
G92 E0
G1 X17.257 Y5.136 F1800.000
G1 E2.00000 F2400.00000
G1 X17.023 Y5.890 E2.09369 F1800.000
G1 X16.610 Y7.045 E2.23938
G1 X16.357 Y7.655 E2.31782
G1 X15.832 Y8.764 E2.46351
G1 X15.522 Y9.343 E2.54157
G1 X14.892 Y10.396 E2.68726
G1 X14.525 Y10.945 E2.76571
G1 X13.794 Y11.930 E2.91139
G1 X13.377 Y12.438 E2.98946
G1 X12.553 Y13.347 E3.13515
G1 X12.086 Y13.814 E3.21359
G1 X11.177 Y14.638 E3.35927
G1 X10.669 Y15.055 E3.43734
G1 X9.684 Y15.786 E3.58303
G1 X9.135 Y16.153 E3.66147
G1 X8.083 Y16.783 E3.80716
G1 X7.503 Y17.093 E3.88523
G1 X6.394 Y17.618 E4.03091
G1 X5.784 Y17.870 E4.10935
G1 X4.629 Y18.284 E4.25504
G1 X4.000 Y18.474 E4.33310
G1 X2.810 Y18.773 E4.47880
G1 X2.162 Y18.901 E4.55724
G1 X0.949 Y19.081 E4.70292
G1 X0.295 Y19.146 E4.78098
G1 X-0.931 Y19.206 E4.92668
G1 X-1.591 Y19.206 E5.00511
G1 X-2.816 Y19.146 E5.15081
G1 X-3.470 Y19.081 E5.22887
G1 X-4.684 Y18.901 E5.37456
G1 X-5.332 Y18.773 E5.45300
G1 X-6.522 Y18.474 E5.59869
G1 X-7.151 Y18.284 E5.67675
G1 X-8.306 Y17.870 E5.82244
G1 X-8.916 Y17.618 E5.90088
G1 X-10.025 Y17.093 E6.04657
G1 X-10.604 Y16.783 E6.12463
G1 X-11.657 Y16.153 E6.27032
G1 X-12.206 Y15.786 E6.34877
G1 X-13.191 Y15.055 E6.49445
G1 X-13.699 Y14.638 E6.57252
G1 X-14.608 Y13.814 E6.71821
G1 X-15.075 Y13.347 E6.79665
G1 X-15.899 Y12.438 E6.94233
G1 X-16.316 Y11.930 E7.02039
G1 X-17.047 Y10.945 E7.16609
G1 X-17.414 Y10.396 E7.24453
G1 X-18.044 Y9.343 E7.39022
G1 X-18.354 Y8.764 E7.46828
G1 X-18.879 Y7.655 E7.61397
G1 X-19.131 Y7.045 E7.69241
G1 X-19.544 Y5.890 E7.83810
G1 X-19.735 Y5.261 E7.91616
G1 X-20.033 Y4.071 E8.06185
G1 X-20.162 Y3.423 E8.14030
G1 X-20.342 Y2.210 E8.28598
G1 X-20.407 Y1.556 E8.36403
G1 X-20.467 Y0.330 E8.50974
G1 X-20.467 Y-0.330 E8.58817
G1 X-20.407 Y-1.555 E8.73387
G1 X-20.342 Y-2.209 E8.81191
G1 X-20.162 Y-3.423 E8.95762
G1 X-20.033 Y-4.071 E9.03606
G1 X-19.735 Y-5.261 E9.18175
G1 X-19.544 Y-5.890 E9.25981
G1 X-19.131 Y-7.045 E9.40550
G1 X-18.879 Y-7.655 E9.48393
G1 X-18.354 Y-8.764 E9.62963
G1 X-18.044 Y-9.343 E9.70770
G1 X-17.414 Y-10.396 E9.85338
G1 X-17.047 Y-10.945 E9.93183
G1 X-16.316 Y-11.930 E10.07751
G1 X-15.899 Y-12.438 E10.15557
G1 X-15.075 Y-13.347 E10.30127
G1 X-14.608 Y-13.814 E10.37970
G1 X-13.699 Y-14.638 E10.52540
G1 X-13.191 Y-15.055 E10.60345
G1 X-12.206 Y-15.786 E10.74915
G1 X-11.657 Y-16.153 E10.82758
G1 X-10.604 Y-16.783 E10.97328
G1 X-10.025 Y-17.093 E11.05134
G1 X-8.916 Y-17.618 E11.19703
G1 X-8.306 Y-17.870 E11.27547
G1 X-7.151 Y-18.284 E11.42117
G1 X-6.522 Y-18.474 E11.49923
G1 X-5.332 Y-18.773 E11.64492
G1 X-4.684 Y-18.901 E11.72335
G1 X-3.470 Y-19.081 E11.86905
G1 X-2.816 Y-19.146 E11.94710
G1 X-1.591 Y-19.206 E12.09280
G1 X-0.876 Y-19.203 E12.17768
G1 X0.295 Y-19.146 E12.31692 F1800.000
G1 X0.949 Y-19.081 E12.39498
G1 X2.162 Y-18.901 E12.54067
G1 X13.169 Y-16.997 E13.86734
G1 X15.983 Y-15.803 E14.23041
G1 X18.322 Y-14.094 E14.57442
G1 X19.925 Y-12.432 E14.84864
G1 X20.870 Y-10.325 E15.12287
G1 X21.045 Y-8.023 E15.39709
G1 X20.797 Y-6.757 E15.55027
G1 X17.274 Y5.079 E17.01694
G1 E15.01694 F2400.00000
G92 E0
G1 X4.470 Y-8.989 F1800.000
G1 E2.00000 F2400.00000
G1 X4.667 Y-8.871 E2.02720 F1800.000
G1 X5.508 Y-8.248 E2.15155
G1 X6.284 Y-7.544 E2.27591
G1 X6.987 Y-6.769 E2.40026
G1 X7.610 Y-5.928 E2.52461
G1 X8.149 Y-5.029 E2.64896
G1 X8.596 Y-4.083 E2.77332
G1 X8.949 Y-3.097 E2.89767
G1 X9.204 Y-2.082 E3.02202
G1 X9.357 Y-1.046 E3.14637
G1 X9.409 Y0.000 E3.27073
G1 X9.357 Y1.046 E3.39508
G1 X9.204 Y2.082 E3.51943
G1 X8.949 Y3.097 E3.64379
G1 X8.596 Y4.083 E3.76814
G1 X8.149 Y5.030 E3.89249
G1 X7.610 Y5.928 E4.01684
G1 X6.987 Y6.769 E4.14119
G1 X6.284 Y7.544 E4.26555
G1 X5.508 Y8.248 E4.38990
G1 X4.667 Y8.871 E4.51425
G1 X3.769 Y9.410 E4.63861
G1 X2.822 Y9.857 E4.76296
G1 X1.836 Y10.210 E4.88731
G1 X0.821 Y10.464 E5.01166
G1 X-0.215 Y10.618 E5.13602
G1 X-1.261 Y10.669 E5.26037
G1 X-2.307 Y10.618 E5.38472
G1 X-3.342 Y10.464 E5.50907
G1 X-4.358 Y10.210 E5.63342
G1 X-5.344 Y9.857 E5.75778
G1 X-6.290 Y9.410 E5.88213
G1 X-7.189 Y8.871 E6.00648
G1 X-8.029 Y8.248 E6.13083
G1 X-8.805 Y7.544 E6.25519
G1 X-9.508 Y6.769 E6.37954
G1 X-10.132 Y5.928 E6.50389
G1 X-10.670 Y5.029 E6.62825
G1 X-11.118 Y4.083 E6.75260
G1 X-11.471 Y3.097 E6.87695
G1 X-11.725 Y2.082 E7.00130
G1 X-11.879 Y1.046 E7.12566
G1 X-11.930 Y-0.000 E7.25001
G1 X-11.879 Y-1.046 E7.37436
G1 X-11.725 Y-2.082 E7.49871
G1 X-11.471 Y-3.097 E7.62307
G1 X-11.118 Y-4.083 E7.74742
G1 X-10.670 Y-5.029 E7.87177
G1 X-10.132 Y-5.928 E7.99612
G1 X-9.508 Y-6.769 E8.12048
G1 X-8.805 Y-7.544 E8.24483
G1 X-8.029 Y-8.248 E8.36918
G1 X-7.189 Y-8.871 E8.49353
G1 X-6.290 Y-9.410 E8.61789
G1 X-5.344 Y-9.857 E8.74224
G1 X-4.358 Y-10.210 E8.86659
G1 X-3.342 Y-10.464 E8.99094
G1 X-2.310 Y-10.617 E9.11484
G1 X-1.210 Y-10.667 E9.24562
G1 X-0.215 Y-10.618 E9.36397
G1 X0.821 Y-10.464 E9.48833 F1800.000
G1 X1.836 Y-10.210 E9.61268
G1 X2.822 Y-9.857 E9.73703
G1 X3.769 Y-9.410 E9.86138
G1 X4.419 Y-9.020 E9.95141
G1 X4.837 Y-9.602 F1800.000
G1 X5.064 Y-9.466 E9.98279 F1800.000
G1 X5.961 Y-8.800 E10.11547
G1 X6.789 Y-8.050 E10.24816
G1 X7.539 Y-7.222 E10.38085
G1 X8.205 Y-6.325 E10.51353
G1 X8.779 Y-5.367 E10.64622
G1 X9.257 Y-4.357 E10.77890
G1 X9.633 Y-3.305 E10.91159
G1 X9.905 Y-2.221 E11.04428
G1 X10.069 Y-1.116 E11.17696
G1 X10.124 Y0.000 E11.30965
G1 X10.069 Y1.116 E11.44234
G1 X9.905 Y2.221 E11.57502
G1 X9.633 Y3.305 E11.70771
G1 X9.257 Y4.357 E11.84039
G1 X8.779 Y5.367 E11.97308
G1 X8.205 Y6.325 E12.10577
G1 X7.539 Y7.222 E12.23845
G1 X6.789 Y8.050 E12.37114
G1 X5.961 Y8.800 E12.50383
G1 X5.064 Y9.466 E12.63651
G1 X4.106 Y10.040 E12.76920
G1 X3.096 Y10.518 E12.90188
G1 X2.044 Y10.894 E13.03457
G1 X0.960 Y11.166 E13.16726
G1 X-0.145 Y11.330 E13.29994
G1 X-1.261 Y11.384 E13.43263
G1 X-2.377 Y11.330 E13.56531
G1 X-3.482 Y11.166 E13.69800
G1 X-4.566 Y10.894 E13.83069
G1 X-5.618 Y10.518 E13.96337
G1 X-6.627 Y10.040 E14.09606
G1 X-7.586 Y9.466 E14.22874
G1 X-8.483 Y8.800 E14.36143
G1 X-9.311 Y8.050 E14.49412
G1 X-10.061 Y7.222 E14.62680
G1 X-10.727 Y6.325 E14.75949
G1 X-11.301 Y5.367 E14.89217
G1 X-11.779 Y4.357 E15.02486
G1 X-12.155 Y3.305 E15.15755
G1 X-12.427 Y2.221 E15.29023
G1 X-12.590 Y1.116 E15.42292
G1 X-12.645 Y-0.000 E15.55561
G1 X-12.590 Y-1.116 E15.68829
G1 X-12.427 Y-2.221 E15.82098
G1 X-12.155 Y-3.305 E15.95366
G1 X-11.779 Y-4.357 E16.08635
G1 X-11.301 Y-5.367 E16.21904
G1 X-10.727 Y-6.325 E16.35172
G1 X-10.061 Y-7.222 E16.48441
G1 X-9.311 Y-8.050 E16.61709
G1 X-8.483 Y-8.800 E16.74978
G1 X-7.586 Y-9.466 E16.88247
G1 X-6.627 Y-10.040 E17.01515
G1 X-5.618 Y-10.518 E17.14784
G1 X-4.566 Y-10.894 E17.28053
G1 X-3.482 Y-11.166 E17.41321
G1 X-2.379 Y-11.329 E17.54562
G1 X-1.209 Y-11.382 E17.68473
G1 X-0.145 Y-11.330 E17.81124
G1 X0.960 Y-11.166 E17.94393 F1800.000
G1 X2.044 Y-10.894 E18.07661
G1 X3.096 Y-10.518 E18.20930
G1 X4.106 Y-10.040 E18.34199
G1 X4.786 Y-9.633 E18.43617
G1 X5.204 Y-10.214 F1800.000
G1 X5.461 Y-10.060 E18.47172 F1800.000
G1 X6.415 Y-9.353 E18.61274
G1 X7.295 Y-8.556 E18.75376
G1 X8.092 Y-7.676 E18.89478
G1 X8.799 Y-6.722 E19.03580
G1 X9.410 Y-5.704 E19.17682
G1 X9.918 Y-4.630 E19.31784
G1 X10.317 Y-3.512 E19.45886
G1 X10.606 Y-2.360 E19.59988
G1 X10.780 Y-1.186 E19.74090
G1 X10.839 Y0.000 E19.88192
G1 X10.780 Y1.186 E20.02294
G1 X10.606 Y2.361 E20.16396
G1 X10.317 Y3.512 E20.30498
G1 X9.918 Y4.630 E20.44600
G1 X9.410 Y5.704 E20.58702
G1 X8.799 Y6.722 E20.72804
G1 X8.092 Y7.676 E20.86906
G1 X7.295 Y8.556 E21.01008
G1 X6.415 Y9.353 E21.15110
G1 X5.461 Y10.060 E21.29212
G1 X4.443 Y10.671 E21.43314
G1 X3.369 Y11.179 E21.57416
G1 X2.251 Y11.578 E21.71518
G1 X1.100 Y11.867 E21.85620
G1 X-0.075 Y12.041 E21.99722
G1 X-1.261 Y12.100 E22.13824
G1 X-2.447 Y12.041 E22.27926
G1 X-3.621 Y11.867 E22.42028
G1 X-4.773 Y11.578 E22.56130
G1 X-5.891 Y11.178 E22.70232
G1 X-6.965 Y10.671 E22.84334
G1 X-7.983 Y10.060 E22.98436
G1 X-8.937 Y9.353 E23.12538
G1 X-9.817 Y8.556 E23.26640
G1 X-10.614 Y7.676 E23.40742
G1 X-11.321 Y6.722 E23.54843
G1 X-11.932 Y5.704 E23.68945
G1 X-12.439 Y4.630 E23.83047
G1 X-12.839 Y3.512 E23.97149
G1 X-13.128 Y2.360 E24.11251
G1 X-13.302 Y1.186 E24.25353
G1 X-13.360 Y-0.000 E24.39455
G1 X-13.302 Y-1.186 E24.53557
G1 X-13.128 Y-2.360 E24.67659
G1 X-12.839 Y-3.512 E24.81761
G1 X-12.439 Y-4.630 E24.95863
G1 X-11.932 Y-5.704 E25.09965
G1 X-11.321 Y-6.722 E25.24067
G1 X-10.614 Y-7.676 E25.38169
G1 X-9.817 Y-8.556 E25.52271
G1 X-8.937 Y-9.353 E25.66373
G1 X-7.983 Y-10.060 E25.80475
G1 X-6.965 Y-10.671 E25.94577
G1 X-5.891 Y-11.178 E26.08679
G1 X-4.773 Y-11.578 E26.22781
G1 X-3.621 Y-11.867 E26.36883
G1 X-2.448 Y-12.041 E26.50975
G1 X-1.207 Y-12.097 E26.65719
G1 X-0.075 Y-12.041 E26.79186
G1 X1.100 Y-11.867 E26.93288 F1800.000
G1 X2.251 Y-11.578 E27.07390
G1 X3.369 Y-11.178 E27.21492
G1 X4.443 Y-10.671 E27.35594
G1 X5.153 Y-10.245 E27.45428
G1 X5.200 Y-9.915 F1800.000
G1 X5.415 Y-7.554 F1800.000
G1 X6.293 Y-6.676 E27.60269 F1800.000
G1 X2.523 Y-9.429 F1800.000
G1 X8.168 Y-3.784 E28.55696 F1800.000
G1 X8.664 Y-2.271 E28.74717
G1 X1.011 Y-9.925 E30.04086
G1 X-0.238 Y-10.157 E30.19258
G1 X8.896 Y-1.023 E31.73638
G1 X8.968 Y0.065 E31.86676
G1 X-1.326 Y-10.229 E33.60673
G1 X-2.302 Y-10.189 E33.72347
G1 X8.928 Y1.042 E35.62170
G1 X8.806 Y1.936 E35.72951
G1 X-3.196 Y-10.067 E37.75818
G1 X-4.024 Y-9.878 E37.85964
G1 X8.617 Y2.763 E39.99632
G1 X8.374 Y3.537 E40.09321
G1 X-4.798 Y-9.635 E42.31956
G1 X-5.525 Y-9.346 E42.41308
G1 X8.085 Y4.264 E44.71340
G1 X7.754 Y4.950 E44.80441
G1 X-6.211 Y-9.015 E47.16485
G1 X-6.846 Y-8.634 E47.25341
G1 X7.374 Y5.585 E49.65691
G1 X6.954 Y6.182 E49.74411
G1 X-7.443 Y-8.215 E52.17770
G1 X-8.008 Y-7.764 E52.26413
G1 X6.503 Y6.747 E54.71681
G1 X6.005 Y7.266 E54.80273
G1 X-8.527 Y-7.266 E57.25908
G1 X-9.024 Y-6.747 E57.34500
G1 X5.486 Y7.764 E59.79768
G1 X4.922 Y8.215 E59.88410
G1 X-9.476 Y-6.182 E62.31770
G1 X-9.895 Y-5.585 E62.40490
G1 X4.324 Y8.634 E64.80840
G1 X3.689 Y9.015 E64.89695
G1 X-10.276 Y-4.950 E67.25740
G1 X-10.607 Y-4.264 E67.34840
G1 X3.003 Y9.346 E69.64872
G1 X2.276 Y9.635 E69.74225
G1 X-10.896 Y-3.537 E71.96859
G1 X-11.139 Y-2.763 E72.06549
G1 X1.502 Y9.878 E74.20216
G1 X0.675 Y10.067 E74.30362
G1 X-11.328 Y-1.936 E76.33230
G1 X-11.450 Y-1.042 E76.44010
G1 X-0.219 Y10.189 E78.33848
G1 X-1.196 Y10.229 E78.45532
G1 X-11.490 Y-0.065 E80.19529
G1 X-11.418 Y1.023 E80.32567
G1 X-2.284 Y10.157 E81.86947
G1 X-3.532 Y9.925 E82.02119
G1 X-11.186 Y2.271 E83.31488
G1 X-10.690 Y3.784 E83.50509
G1 X-5.045 Y9.429 E84.45935
G1 X-7.937 Y7.554 F1800.000
G1 X-8.815 Y6.676 E84.60772 F1800.000
G1 Z0.400 F1800.000
G1 E82.60772 F2400.00000
G92 E0
G1 X8.076 Y-8.882 F1800.000
G1 E2.00000 F2400.00000
G1 X8.818 Y-10.361 E2.19655 F1800.000
G1 X10.060 Y-9.651 F1800.000
G1 X9.172 Y-7.880 E2.43189 F1800.000
G1 E0.43189 F2400.00000
G92 E0
G1 X12.023 Y-10.381 F1800.000
G1 E2.00000 F2400.00000
G1 X9.981 Y-6.306 E2.54137 F1800.000
G1 X10.921 Y-4.994 E2.73304
G1 X13.177 Y-9.496 E3.33111
G1 X14.362 Y-8.673 E3.50249
G1 X12.601 Y-5.160 E3.96915
G1 Z0.600 F1800.000
G1 E1.96915 F2400.00000
G92 E0
G1 X10.880 Y-8.912 F1800.000
G1 E2.00000 F2400.00000
G1 X8.780 Y-10.113 E2.07183 F3600.000
G1 X8.780 Y-8.822 E2.11018
G1 X10.880 Y-8.822 E2.17253
G1 X10.880 Y-8.912 E2.17522
G1 X11.898 Y-9.394 F1800.000
G1 X11.746 Y-9.656 E2.18421 F3600.000
G1 X11.734 Y-8.773 E2.21041
G1 X11.898 Y-9.058 E2.22017
G1 X12.783 Y-9.058 E2.24646
G1 X12.346 Y-9.394 E2.26284
G1 X11.898 Y-9.394 E2.27613
G1 X13.101 Y-9.264 F1800.000
G1 X11.403 Y-10.566 E2.33966 F3600.000
G1 X11.369 Y-8.267 E2.40795
G1 X11.686 Y-8.180 E2.41770
G1 X11.686 Y-8.214 E2.41874
G1 X12.132 Y-7.977 E2.43374
G1 X12.297 Y-7.850 E2.43994
G1 X12.415 Y-7.683 E2.44599
G1 X12.448 Y-7.570 E2.44951
G1 X12.453 Y-7.343 E2.45624
G1 X12.408 Y-7.111 E2.46325
G1 X12.352 Y-7.002 E2.46690
G1 X12.259 Y-6.898 E2.47104
G1 X12.176 Y-6.850 E2.47388
G1 X11.852 Y-6.724 E2.48421
G1 X11.852 Y-6.743 E2.48479
G1 X11.449 Y-6.679 E2.49693
G1 X11.248 Y-6.667 E2.50289
G1 X10.975 Y-4.753 E2.56030
G1 X13.192 Y-5.620 E2.63096
G1 X13.619 Y-5.646 E2.64368
G1 X14.047 Y-5.818 E2.65736
G1 X14.637 Y-6.274 E2.67952
G1 X14.863 Y-7.086 E2.70456
G1 X14.802 Y-7.616 E2.72039
G1 X14.676 Y-7.937 E2.73061
G1 X14.418 Y-8.352 E2.74512
G1 X13.965 Y-8.665 E2.76149
G1 X13.817 Y-8.715 E2.76611
G1 X13.101 Y-9.264 E2.79292
G1 E0.79292 F2400.00000
G92 E0
G1 X9.695 Y-9.179 F1800.000
G1 E2.00000 F2400.00000
G1 X9.137 Y-9.498 E2.01908 F3600.000
G1 X9.137 Y-9.179 E2.02855
G1 X9.695 Y-9.179 E2.04512
G1 Z0.700 F1800.000
G1 E0.04512 F2400.00000
G92 E0
G1 X4.898 Y-9.703 F1800.000
G1 E2.00000 F2400.00000
G1 X5.130 Y-9.564 E2.01411 F3600.000
G1 X6.036 Y-8.892 E2.07308
G1 X6.873 Y-8.134 E2.13206
G1 X7.631 Y-7.297 E2.19103
G1 X8.303 Y-6.391 E2.25001
G1 X8.883 Y-5.422 E2.30898
G1 X9.366 Y-4.402 E2.36796
G1 X9.746 Y-3.339 E2.42693
G1 X10.021 Y-2.244 E2.48590
G1 X10.186 Y-1.127 E2.54488
G1 X10.242 Y0.000 E2.60385
G1 X10.186 Y1.127 E2.66283
G1 X10.021 Y2.244 E2.72180
G1 X9.746 Y3.339 E2.78078
G1 X9.366 Y4.402 E2.83975
G1 X8.883 Y5.422 E2.89873
G1 X8.303 Y6.391 E2.95770
G1 X7.631 Y7.297 E3.01668
G1 X6.873 Y8.134 E3.07565
G1 X6.036 Y8.892 E3.13463
G1 X5.130 Y9.564 E3.19360
G1 X4.161 Y10.144 E3.25257
G1 X3.141 Y10.627 E3.31155
G1 X2.078 Y11.007 E3.37052
G1 X0.983 Y11.282 E3.42950
G1 X-0.133 Y11.447 E3.48847
G1 X-1.261 Y11.503 E3.54745
G1 X-2.388 Y11.447 E3.60642
G1 X-3.505 Y11.282 E3.66540
G1 X-4.600 Y11.007 E3.72437
G1 X-5.663 Y10.627 E3.78335
G1 X-6.683 Y10.144 E3.84232
G1 X-7.651 Y9.564 E3.90130
G1 X-8.558 Y8.892 E3.96027
G1 X-9.395 Y8.134 E4.01924
G1 X-10.152 Y7.297 E4.07822
G1 X-10.825 Y6.391 E4.13719
G1 X-11.405 Y5.422 E4.19617
G1 X-11.888 Y4.402 E4.25514
G1 X-12.268 Y3.339 E4.31412
G1 X-12.543 Y2.244 E4.37309
G1 X-12.708 Y1.127 E4.43207
G1 X-12.764 Y-0.000 E4.49104
G1 X-12.708 Y-1.127 E4.55002
G1 X-12.543 Y-2.244 E4.60899
G1 X-12.268 Y-3.339 E4.66797
G1 X-11.888 Y-4.402 E4.72694
G1 X-11.405 Y-5.422 E4.78591
G1 X-10.825 Y-6.391 E4.84489
G1 X-10.152 Y-7.297 E4.90386
G1 X-9.395 Y-8.134 E4.96284
G1 X-8.558 Y-8.892 E5.02181
G1 X-7.651 Y-9.564 E5.08079
G1 X-6.683 Y-10.144 E5.13976
G1 X-5.663 Y-10.627 E5.19874
G1 X-4.600 Y-11.007 E5.25771
G1 X-3.505 Y-11.282 E5.31669
G1 X-2.388 Y-11.447 E5.37566
G1 X-1.161 Y-11.498 E5.43985
G1 X-0.133 Y-11.447 E5.49359 F3600.000
G1 X0.983 Y-11.282 E5.55256
G1 X2.078 Y-11.007 E5.61154
G1 X3.141 Y-10.627 E5.67051
G1 X4.161 Y-10.144 E5.72949
G1 X4.847 Y-9.734 E5.77122
G1 X5.113 Y-10.062 F1800.000
G1 X5.363 Y-9.913 E5.78640 F3600.000
G1 X6.302 Y-9.216 E5.84753
G1 X7.169 Y-8.430 E5.90865
G1 X7.955 Y-7.563 E5.96978
G1 X8.652 Y-6.624 E6.03090
G1 X9.253 Y-5.620 E6.09203
G1 X9.754 Y-4.562 E6.15315
G1 X10.148 Y-3.461 E6.21428
G1 X10.432 Y-2.326 E6.27540
G1 X10.604 Y-1.169 E6.33653
G1 X10.661 Y0.000 E6.39765
G1 X10.604 Y1.169 E6.45878
G1 X10.432 Y2.326 E6.51990
G1 X10.148 Y3.461 E6.58103
G1 X9.754 Y4.562 E6.64215
G1 X9.253 Y5.620 E6.70328
G1 X8.652 Y6.624 E6.76440
G1 X7.955 Y7.563 E6.82553
G1 X7.169 Y8.430 E6.88665
G1 X6.302 Y9.216 E6.94778
G1 X5.363 Y9.913 E7.00890
G1 X4.359 Y10.514 E7.07003
G1 X3.301 Y11.015 E7.13115
G1 X2.200 Y11.409 E7.19228
G1 X1.065 Y11.693 E7.25340
G1 X-0.092 Y11.865 E7.31453
G1 X-1.261 Y11.922 E7.37565
G1 X-2.429 Y11.865 E7.43677
G1 X-3.587 Y11.693 E7.49790
G1 X-4.722 Y11.409 E7.55902
G1 X-5.823 Y11.015 E7.62015
G1 X-6.881 Y10.514 E7.68127
G1 X-7.884 Y9.913 E7.74240
G1 X-8.824 Y9.216 E7.80352
G1 X-9.691 Y8.430 E7.86465
G1 X-10.477 Y7.563 E7.92577
G1 X-11.174 Y6.624 E7.98690
G1 X-11.775 Y5.620 E8.04802
G1 X-12.275 Y4.562 E8.10915
G1 X-12.669 Y3.461 E8.17027
