; generated by Slic3r 1.2.9 on 2022-12-16 at 21:08:54

; external perimeters extrusion width = 0.40mm
; perimeters extrusion width = 0.48mm
; infill extrusion width = 0.48mm
; solid infill extrusion width = 0.48mm
; top infill extrusion width = 0.48mm

M107
M190 S60 ; set bed temperature
M104 S200 ; set temperature
G28 ; home all axes
G1 Z5 F5000 ; lift nozzle

M109 S200 ; wait for temperature to be reached
G21 ; set units to millimeters
G90 ; use absolute coordinates
M82 ; use absolute distances for extrusion
G92 E0
G1 Z-0.600 F1800.000
G1 E-2.00000 F2400.00000
G92 E0
G1 X14.802 Y-12.154 F1800.000
G1 E2.00000 F2400.00000
G1 X15.582 Y-11.205 E2.14590 F1800.000
G1 X16.314 Y-10.109 E2.30249
G1 X17.469 Y-7.947 E2.59351
G1 X17.973 Y-6.732 E2.74980
G1 X18.684 Y-4.387 E3.04082
G1 X18.940 Y-3.099 E3.19677
G1 X19.182 Y-0.660 E3.48780
G1 X19.182 Y0.662 E3.64480
G1 X18.940 Y3.100 E3.93584
G1 X18.684 Y4.388 E4.09179
G1 X17.973 Y6.733 E4.38281
G1 X17.469 Y7.949 E4.53910
G1 X16.314 Y10.110 E4.83012
G1 X15.582 Y11.206 E4.98671
G1 X14.027 Y13.100 E5.27771
G1 X13.098 Y14.028 E5.43361
G1 X11.205 Y15.583 E5.72462
G1 X10.109 Y16.315 E5.88121
G1 X7.947 Y17.470 E6.17223
G1 X6.732 Y17.974 E6.32852
G1 X4.387 Y18.685 E6.61954
G1 X3.096 Y18.942 E6.77589
G1 X0.657 Y19.182 E7.06691
G1 X-0.658 Y19.182 E7.22311
G1 X-3.097 Y18.942 E7.51413
G1 X-4.388 Y18.685 E7.67048
G1 X-6.733 Y17.974 E7.96150
G1 X-7.949 Y17.470 E8.11779
G1 X-10.110 Y16.315 E8.40881
G1 X-11.206 Y15.583 E8.56540
G1 X-13.100 Y14.028 E8.85640
G1 X-14.028 Y13.100 E9.01230
G1 X-15.583 Y11.206 E9.30331
G1 X-16.315 Y10.110 E9.45990
G1 X-17.470 Y7.949 E9.75092
G1 X-17.974 Y6.733 E9.90721
G1 X-18.685 Y4.388 E10.19823
G1 X-18.942 Y3.097 E10.35458
G1 X-19.182 Y0.658 E10.64561
G1 X-19.182 Y-0.657 E10.80179
G1 X-18.942 Y-3.096 E11.09282
G1 X-18.685 Y-4.387 E11.24917
G1 X-17.974 Y-6.732 E11.54020
G1 X-17.470 Y-7.947 E11.69648
G1 X-16.315 Y-10.109 E11.98750
G1 X-15.583 Y-11.205 E12.14409
G1 X-14.028 Y-13.098 E12.43509
G1 X-13.100 Y-14.027 E12.59099
G1 X-11.206 Y-15.582 E12.88200
G1 X-10.110 Y-16.314 E13.03858
G1 X-7.949 Y-17.469 E13.32961
G1 X-6.733 Y-17.973 E13.48589
G1 X-4.388 Y-18.684 E13.77692
G1 X-3.100 Y-18.940 E13.93286
G1 X-0.662 Y-19.182 E14.22391
G1 X0.660 Y-19.182 E14.38090
G1 X3.099 Y-18.940 E14.67194 F1800.000
G1 X4.387 Y-18.684 E14.82789
G1 X6.732 Y-17.973 E15.11891
G1 X7.947 Y-17.469 E15.27520
G1 X10.109 Y-16.314 E15.56622
G1 X11.205 Y-15.582 E15.72281
G1 X13.098 Y-14.027 E16.01381
G1 X14.027 Y-13.098 E16.16971
G1 X14.764 Y-12.201 E16.30769
G1 E14.30769 F2400.00000
G92 E0
G1 X0.909 Y-10.573 F1800.000
G1 E2.00000 F2400.00000
G1 X2.079 Y-10.457 E2.13966 F1800.000
G1 X4.080 Y-9.850 E2.38796 F1800.000
G1 X5.923 Y-8.865 E2.63618
G1 X7.539 Y-7.539 E2.88443
G1 X8.865 Y-5.923 E3.13268
G1 X9.850 Y-4.080 E3.38089
G1 X10.457 Y-2.079 E3.62920
G1 X10.663 Y0.001 E3.87742
G1 X10.457 Y2.080 E4.12564
G1 X9.850 Y4.081 E4.37394
G1 X8.865 Y5.924 E4.62216
G1 X7.539 Y7.540 E4.87041
G1 X5.923 Y8.866 E5.11866
G1 X4.080 Y9.851 E5.36687
G1 X2.080 Y10.458 E5.61512
G1 X-0.001 Y10.663 E5.86338
G1 X-2.081 Y10.458 E6.11165
G1 X-4.081 Y9.851 E6.35989
G1 X-5.924 Y8.866 E6.60811
G1 X-7.540 Y7.540 E6.85636
G1 X-8.866 Y5.924 E7.10461
G1 X-9.851 Y4.081 E7.35282
G1 X-10.458 Y2.081 E7.60107
G1 X-10.663 Y0.001 E7.84933
G1 X-10.458 Y-2.080 E8.09760
G1 X-9.851 Y-4.080 E8.34584
G1 X-8.866 Y-5.923 E8.59406
G1 X-7.540 Y-7.539 E8.84231
G1 X-5.924 Y-8.865 E9.09056
G1 X-4.081 Y-9.850 E9.33878
G1 X-2.080 Y-10.457 E9.58708
G1 X-0.001 Y-10.663 E9.83530
G1 X0.849 Y-10.579 E9.93673
G1 X0.979 Y-11.283 F1800.000
G1 X2.219 Y-11.161 E10.08473 F1800.000
G1 X4.355 Y-10.513 E10.34972 F1800.000
G1 X6.322 Y-9.462 E10.61465
G1 X8.046 Y-8.046 E10.87960
G1 X9.462 Y-6.322 E11.14455
G1 X10.513 Y-4.355 E11.40949
G1 X11.161 Y-2.219 E11.67448
G1 X11.380 Y0.001 E11.93942
G1 X11.161 Y2.221 E12.20437
G1 X10.513 Y4.356 E12.46935
G1 X9.462 Y6.323 E12.73429
G1 X8.046 Y8.047 E12.99924
G1 X6.322 Y9.463 E13.26419
G1 X4.355 Y10.514 E13.52913
G1 X2.220 Y11.162 E13.79408
G1 X-0.001 Y11.380 E14.05905
G1 X-2.221 Y11.162 E14.32401
G1 X-4.356 Y10.514 E14.58897
G1 X-6.323 Y9.463 E14.85390
G1 X-8.047 Y8.047 E15.11885
G1 X-9.463 Y6.323 E15.38380
G1 X-10.514 Y4.356 E15.64874
G1 X-11.162 Y2.221 E15.91369
G1 X-11.380 Y0.001 E16.17866
G1 X-11.162 Y-2.220 E16.44362
G1 X-10.514 Y-4.355 E16.70858
G1 X-9.463 Y-6.322 E16.97351
G1 X-8.047 Y-8.046 E17.23846
G1 X-6.323 Y-9.462 E17.50342
G1 X-4.356 Y-10.513 E17.76835
G1 X-2.221 Y-11.161 E18.03334
G1 X-0.001 Y-11.380 E18.29828
G1 X0.920 Y-11.289 E18.40811
G1 X1.050 Y-11.994 F1800.000
G1 X2.301 Y-11.870 E18.55747 F1800.000
G1 X4.629 Y-11.176 E18.84598 F1800.000
G1 X6.721 Y-10.058 E19.12764
G1 X8.553 Y-8.553 E19.40929
G1 X10.058 Y-6.721 E19.69094
G1 X11.176 Y-4.629 E19.97259
G1 X11.865 Y-2.360 E20.25427
G1 X12.098 Y0.001 E20.53594
G1 X11.865 Y2.361 E20.81761
G1 X11.176 Y4.630 E21.09928
G1 X10.058 Y6.722 E21.38094
G1 X8.553 Y8.555 E21.66259
G1 X6.721 Y10.060 E21.94424
G1 X4.629 Y11.177 E22.22589
G1 X2.360 Y11.866 E22.50755
G1 X-0.001 Y12.098 E22.78922
G1 X-2.361 Y11.866 E23.07089
G1 X-4.630 Y11.177 E23.35255
G1 X-6.722 Y10.060 E23.63421
G1 X-8.555 Y8.555 E23.91586
G1 X-10.060 Y6.722 E24.19751
G1 X-11.177 Y4.630 E24.47917
G1 X-11.866 Y2.361 E24.76083
G1 X-12.098 Y0.001 E25.04249
G1 X-11.866 Y-2.360 E25.32416
G1 X-11.177 Y-4.629 E25.60582
G1 X-10.060 Y-6.721 E25.88748
G1 X-8.555 Y-8.553 E26.16913
G1 X-6.722 Y-10.058 E26.45078
G1 X-4.630 Y-11.176 E26.73244
G1 X-2.361 Y-11.865 E27.01411
G1 X-0.001 Y-12.098 E27.29578
G1 X0.990 Y-12.000 E27.41400
G1 X1.215 Y-11.630 F1800.000
G1 X3.788 Y-9.411 F1800.000
G1 X9.411 Y-3.788 E28.36349 F1800.000
G1 X9.881 Y-2.302 E28.54959
G1 X2.302 Y-9.881 E29.82943
G1 X1.064 Y-10.104 E29.97963
G1 X10.104 Y-1.064 E31.50611
G1 X10.216 Y0.063 E31.64133
G1 X-0.063 Y-10.216 E33.37694
G1 X-1.003 Y-10.140 E33.48956
G1 X10.140 Y1.003 E35.37122
G1 X10.049 Y1.927 E35.48209
G1 X-1.927 Y-10.049 E37.50434
G1 X-2.736 Y-9.842 E37.60403
G1 X9.842 Y2.736 E39.72802
G1 X9.606 Y3.515 E39.82524
G1 X-3.515 Y-9.606 E42.04089
G1 X-4.251 Y-9.327 E42.13489
G1 X9.327 Y4.251 E44.42761
G1 X8.973 Y4.912 E44.51720
G1 X-4.912 Y-8.973 E46.86195
G1 X-5.574 Y-8.619 E46.95155
G1 X8.619 Y5.574 E49.34832
G1 X8.189 Y6.159 E49.43505
G1 X-6.159 Y-8.189 E51.85792
G1 X-6.717 Y-7.731 E51.94407
G1 X7.731 Y6.717 E54.38379
G1 X7.259 Y7.260 E54.46973
G1 X-7.260 Y-7.259 E56.92149
G1 X-7.732 Y-6.715 E57.00744
G1 X6.715 Y7.732 E59.44716
G1 X6.158 Y8.190 E59.53330
G1 X-8.190 Y-6.158 E61.95618
G1 X-8.620 Y-5.573 E62.04290
G1 X5.573 Y8.620 E64.43968
G1 X4.911 Y8.974 E64.52927
G1 X-8.974 Y-4.911 E66.87402
G1 X-9.328 Y-4.249 E66.96362
G1 X4.249 Y9.328 E69.25634
G1 X3.513 Y9.607 E69.35033
G1 X-9.607 Y-3.513 E71.56598
G1 X-9.844 Y-2.734 E71.66320
G1 X2.734 Y9.844 E73.78719
G1 X1.925 Y10.050 E73.88689
G1 X-10.050 Y-1.925 E75.90908
G1 X-10.141 Y-1.001 E76.02000
G1 X1.001 Y10.141 E77.90144
G1 X0.060 Y10.216 E78.01412
G1 X-10.216 Y-0.060 E79.74932
G1 X-10.105 Y1.066 E79.88446
G1 X-1.066 Y10.105 E81.41075
G1 X-2.304 Y9.883 E81.56087
G1 X-9.883 Y2.304 E82.84071
G1 X-9.412 Y3.790 E83.02681
G1 X-3.790 Y9.412 E83.97629
G1 X-6.813 Y7.405 F1800.000
G1 X-7.405 Y6.812 E84.07630 F1800.000
G1 X6.811 Y-7.404 F1800.000
G1 X7.404 Y-6.811 E84.17633 F1800.000
G1 Z-0.300 F1800.000
G1 X0.991 Y-11.401 F1800.000
G1 X2.072 Y-11.294 E84.23307 F3600.000
G1 X2.243 Y-11.277 E84.24204 F3600.000
G1 X4.400 Y-10.623 E84.35982
G1 X6.388 Y-9.560 E84.47758
G1 X8.130 Y-8.130 E84.59534
G1 X9.560 Y-6.388 E84.71311
G1 X10.623 Y-4.400 E84.83087
G1 X11.277 Y-2.243 E84.94865
G1 X11.499 Y0.001 E85.06642
G1 X11.277 Y2.244 E85.18418
G1 X10.623 Y4.401 E85.30197
G1 X9.560 Y6.389 E85.41973
G1 X8.130 Y8.131 E85.53749
G1 X6.388 Y9.562 E85.65526
G1 X4.400 Y10.624 E85.77302
G1 X2.243 Y11.278 E85.89079
G1 X-0.001 Y11.499 E86.00856
G1 X-2.244 Y11.278 E86.12633
G1 X-4.401 Y10.624 E86.24410
G1 X-6.389 Y9.562 E86.36186
G1 X-8.131 Y8.131 E86.47963
G1 X-9.562 Y6.389 E86.59740
G1 X-10.624 Y4.401 E86.71516
G1 X-11.278 Y2.244 E86.83292
G1 X-11.499 Y0.001 E86.95070
G1 X-11.278 Y-2.243 E87.06847
G1 X-10.624 Y-4.400 E87.18624
G1 X-9.562 Y-6.388 E87.30400
G1 X-8.131 Y-8.130 E87.42177
G1 X-6.389 Y-9.560 E87.53953
G1 X-4.401 Y-10.623 E87.65729
G1 X-2.244 Y-11.277 E87.77507
G1 X-0.001 Y-11.499 E87.89284
G1 X0.931 Y-11.407 E87.94176
G1 X1.032 Y-11.818 F1800.000
G1 X2.113 Y-11.711 E87.99850 F3600.000
G1 X2.325 Y-11.690 E88.00962 F3600.000
G1 X4.561 Y-11.012 E88.13171
G1 X6.622 Y-9.910 E88.25378
G1 X8.428 Y-8.428 E88.37586
G1 X9.910 Y-6.622 E88.49793
G1 X11.012 Y-4.561 E88.62001
G1 X11.690 Y-2.325 E88.74210
G1 X11.920 Y0.001 E88.86418
G1 X11.690 Y2.326 E88.98626
G1 X11.012 Y4.562 E89.10834
G1 X9.910 Y6.623 E89.23042
G1 X8.428 Y8.429 E89.35249
G1 X6.622 Y9.912 E89.47457
G1 X4.561 Y11.013 E89.59664
G1 X2.325 Y11.691 E89.71872
G1 X-0.001 Y11.920 E89.84081
G1 X-2.326 Y11.691 E89.96289
G1 X-4.562 Y11.013 E90.08497
G1 X-6.623 Y9.912 E90.20704
G1 X-8.429 Y8.429 E90.32912
G1 X-9.912 Y6.623 E90.45119
G1 X-11.013 Y4.562 E90.57327
G1 X-11.691 Y2.326 E90.69535
G1 X-11.920 Y0.001 E90.81743
G1 X-11.691 Y-2.325 E90.93951
G1 X-11.013 Y-4.561 E91.06159
G1 X-9.912 Y-6.622 E91.18366
G1 X-8.429 Y-8.428 E91.30574
G1 X-6.623 Y-9.910 E91.42781
G1 X-4.562 Y-11.012 E91.54989
G1 X-2.326 Y-11.690 E91.67198
G1 X-0.001 Y-11.920 E91.79406
G1 X0.972 Y-11.824 E91.84515
G1 X1.069 Y-12.193 F1800.000
G1 X2.150 Y-12.086 E91.89061 F1800.000
G1 X2.399 Y-12.062 E91.90107 F1800.000
G1 X4.706 Y-11.362 E92.00199
G1 X6.832 Y-10.226 E92.10292
G1 X8.696 Y-8.696 E92.20384
G1 X10.226 Y-6.832 E92.30476
G1 X11.362 Y-4.706 E92.40568
G1 X12.062 Y-2.399 E92.50661
G1 X12.299 Y0.001 E92.60754
G1 X12.062 Y2.400 E92.70847
G1 X11.362 Y4.707 E92.80939
G1 X10.226 Y6.834 E92.91032
G1 X8.696 Y8.697 E93.01123
G1 X6.832 Y10.227 E93.11215
G1 X4.706 Y11.363 E93.21308
G1 X2.399 Y12.063 E93.31400
G1 X-0.001 Y12.299 E93.41493
G1 X-2.400 Y12.063 E93.51585
G1 X-4.707 Y11.363 E93.61678
G1 X-6.834 Y10.227 E93.71770
G1 X-8.697 Y8.697 E93.81862
G1 X-10.227 Y6.834 E93.91954
G1 X-11.363 Y4.707 E94.02047
G1 X-12.063 Y2.400 E94.12139
G1 X-12.299 Y0.001 E94.22232
G1 X-12.063 Y-2.399 E94.32324
G1 X-11.363 Y-4.706 E94.42417
G1 X-10.227 Y-6.832 E94.52509
G1 X-8.697 Y-8.696 E94.62601
G1 X-6.834 Y-10.226 E94.72693
G1 X-4.707 Y-11.362 E94.82785
G1 X-2.400 Y-12.062 E94.92878
G1 X-0.001 Y-12.299 E95.02971
G1 X1.010 Y-12.199 E95.07220
G1 X1.234 Y-11.829 F1800.000
G1 X-5.424 Y-9.736 F1800.000
G1 X-9.738 Y-5.423 E95.39205 F1200.000
G1 X-10.408 Y-4.158 F1800.000
G1 X-4.159 Y-10.407 E95.85544 F1200.000
G1 X-3.306 Y-10.666 E95.90220
G1 X-10.667 Y-3.305 E96.44805
G1 X-10.926 Y-2.451 E96.49481
G1 X-2.452 Y-10.925 E97.12315
G1 X-1.710 Y-11.072 E97.16283
G1 X-11.073 Y-1.709 E97.85713
G1 X-11.138 Y-1.050 E97.89188
G1 X-1.050 Y-11.138 E98.63992
G1 X-0.391 Y-11.203 E98.67468
G1 X-11.203 Y-0.390 E99.47647
G1 X-11.236 Y0.237 E99.50940
G1 X0.237 Y-11.236 E100.36012
G1 X0.778 Y-11.182 E100.38863
G1 X-11.183 Y0.778 E101.27552
G1 X-11.129 Y1.319 E101.30403
G1 X1.319 Y-11.128 E102.22709
G1 X1.860 Y-11.075 E102.25560
G1 X-11.076 Y1.861 E103.21482
G1 X-11.001 Y2.381 E103.24237
G1 X2.379 Y-11.000 E104.23462
G1 X2.836 Y-10.862 E104.25961
G1 X-10.863 Y2.837 E105.27543
G1 X-10.725 Y3.293 E105.30042
G1 X3.292 Y-10.724 E106.33981
G1 X3.748 Y-10.585 E106.36480
G1 X-10.586 Y3.749 E107.42775
G1 X-10.448 Y4.205 E107.45275
G1 X4.204 Y-10.447 E108.53927
G1 X4.615 Y-10.263 E108.56286
G1 X-10.264 Y4.616 E109.66623
G1 X-10.057 Y5.004 E109.68926
G1 X5.003 Y-10.056 E110.80601
G1 X5.390 Y-9.849 E110.82904
G1 X-9.850 Y5.391 E111.95916
G1 X-9.643 Y5.779 E111.98220
G1 X5.777 Y-9.642 E113.12570
G1 X6.165 Y-9.435 E113.14873
G1 X-9.436 Y6.166 E114.30561
G1 X-9.188 Y6.512 E114.32794
G1 X6.511 Y-9.186 E115.49205
G1 X6.837 Y-8.918 E115.51420
G1 X-8.920 Y6.839 E116.68263
G1 X-8.651 Y7.165 E116.70478
G1 X7.164 Y-8.650 E117.87755
G1 X7.490 Y-8.382 E117.89970
G1 X-8.383 Y7.492 E119.07679
G1 X-8.115 Y7.818 E119.09894
G1 X7.817 Y-8.114 E120.28037
G1 X8.114 Y-7.817 E120.30241
G1 X-7.818 Y8.115 E121.48384
G1 X-7.492 Y8.383 E121.50599
G1 X8.382 Y-7.490 E122.68308
G1 X8.650 Y-7.164 E122.70523
G1 X-7.165 Y8.651 E123.87800
G1 X-6.839 Y8.920 E123.90015
G1 X8.918 Y-6.837 E125.06858
G1 X9.186 Y-6.511 E125.09073
G1 X-6.512 Y9.188 E126.25483
G1 X-6.166 Y9.436 E126.27717
G1 X9.435 Y-6.165 E127.43405
G1 X9.642 Y-5.777 E127.45708
G1 X-5.779 Y9.643 E128.60058
G1 X-5.391 Y9.850 E128.62361
G1 X9.849 Y-5.390 E129.75373
G1 X10.056 Y-5.003 E129.77677
G1 X-5.004 Y10.057 E130.89351
G1 X-4.616 Y10.264 E130.91655
G1 X10.263 Y-4.615 E132.01991
G1 X10.447 Y-4.204 E132.04351
G1 X-4.205 Y10.448 E133.13003
G1 X-3.749 Y10.586 E133.15502
G1 X10.585 Y-3.748 E134.21797
G1 X10.724 Y-3.292 E134.24297
G1 X-3.293 Y10.725 E135.28235
G1 X-2.837 Y10.863 E135.30735
G1 X10.862 Y-2.836 E136.32316
G1 X11.000 Y-2.379 E136.34816
G1 X-2.381 Y11.001 E137.34041
G1 X-1.861 Y11.076 E137.36795
G1 X11.075 Y-1.860 E138.32718
G1 X11.128 Y-1.319 E138.35569
G1 X-1.319 Y11.129 E139.27874
G1 X-0.778 Y11.182 E139.30726
G1 X11.182 Y-0.778 E140.19415
G1 X11.236 Y-0.237 E140.22266
G1 X-0.237 Y11.236 E141.07338
G1 X0.390 Y11.203 E141.10631
G1 X11.203 Y0.391 E141.90809
G1 X11.138 Y1.050 E141.94286
G1 X1.050 Y11.138 E142.69090
G1 X1.709 Y11.073 E142.72565
G1 X11.072 Y1.710 E143.41995
G1 X10.925 Y2.452 E143.45963
G1 X2.451 Y10.926 E144.08797
G1 X3.305 Y10.667 E144.13472
G1 X10.666 Y3.306 E144.68058
G1 X10.407 Y4.159 E144.72734
G1 X4.158 Y10.408 E145.19073
G1 X5.423 Y9.738 F1800.000
G1 X9.736 Y5.424 E145.51058 F1200.000
G1 X8.110 Y7.645 F1800.000
G1 X7.643 Y8.112 E145.54521 F1200.000
G1 X-8.112 Y-7.643 F1800.000
G1 X-7.645 Y-8.110 E145.57985 F1200.000
G1 Z0.000 F1800.000
G1 X0.991 Y-11.401 F1800.000
G1 X1.310 Y-11.369 E145.59658 F3600.000
G1 X2.243 Y-11.277 E145.64555 F3600.000
G1 X4.400 Y-10.623 E145.76333
G1 X6.388 Y-9.560 E145.88110
G1 X8.130 Y-8.130 E145.99886
G1 X9.560 Y-6.388 E146.11663
G1 X10.623 Y-4.400 E146.23439
G1 X11.277 Y-2.243 E146.35217
G1 X11.499 Y0.001 E146.46994
G1 X11.277 Y2.244 E146.58770
G1 X10.623 Y4.401 E146.70548
G1 X9.560 Y6.389 E146.82324
G1 X8.130 Y8.131 E146.94101
G1 X6.388 Y9.562 E147.05878
G1 X4.400 Y10.624 E147.17654
G1 X2.243 Y11.278 E147.29431
G1 X-0.001 Y11.499 E147.41208
G1 X-2.244 Y11.278 E147.52985
G1 X-4.401 Y10.624 E147.64762
G1 X-6.389 Y9.562 E147.76538
G1 X-8.131 Y8.131 E147.88315
G1 X-9.562 Y6.389 E148.00091
G1 X-10.624 Y4.401 E148.11867
G1 X-11.278 Y2.244 E148.23644
G1 X-11.499 Y0.001 E148.35422
G1 X-11.278 Y-2.243 E148.47199
G1 X-10.624 Y-4.400 E148.58976
G1 X-9.562 Y-6.388 E148.70752
G1 X-8.131 Y-8.130 E148.82528
G1 X-6.389 Y-9.560 E148.94305
G1 X-4.401 Y-10.623 E149.06081
G1 X-2.244 Y-11.277 E149.17859
G1 X-0.001 Y-11.499 E149.29636
G1 X0.931 Y-11.407 E149.34528
G1 X1.032 Y-11.818 F1800.000
G1 X1.729 Y-11.749 E149.38184 F3600.000
G1 X2.325 Y-11.690 E149.41314 F3600.000
G1 X4.561 Y-11.012 E149.53523
G1 X6.622 Y-9.910 E149.65730
G1 X8.428 Y-8.428 E149.77938
G1 X9.910 Y-6.622 E149.90145
G1 X11.012 Y-4.561 E150.02353
G1 X11.690 Y-2.325 E150.14561
G1 X11.920 Y0.001 E150.26769
G1 X11.690 Y2.326 E150.38978
G1 X11.012 Y4.562 E150.51186
G1 X9.910 Y6.623 E150.63394
G1 X8.428 Y8.429 E150.75601
G1 X6.622 Y9.912 E150.87809
G1 X4.561 Y11.013 E151.00016
G1 X2.325 Y11.691 E151.12224
G1 X-0.001 Y11.920 E151.24432
G1 X-2.326 Y11.691 E151.36641
G1 X-4.562 Y11.013 E151.48848
G1 X-6.623 Y9.912 E151.61056
G1 X-8.429 Y8.429 E151.73263
G1 X-9.912 Y6.623 E151.85471
G1 X-11.013 Y4.562 E151.97679
G1 X-11.691 Y2.326 E152.09886
G1 X-11.920 Y0.001 E152.22095
G1 X-11.691 Y-2.325 E152.34303
G1 X-11.013 Y-4.561 E152.46511
G1 X-9.912 Y-6.622 E152.58718
G1 X-8.429 Y-8.428 E152.70926
G1 X-6.623 Y-9.910 E152.83133
G1 X-4.562 Y-11.012 E152.95341
G1 X-2.326 Y-11.690 E153.07549
G1 X-0.001 Y-11.920 E153.19758
G1 X0.972 Y-11.824 E153.24866
G1 X1.069 Y-12.193 F1800.000
G1 X2.106 Y-12.091 E153.29226 F1800.000
G1 X2.399 Y-12.062 E153.30459 F1800.000
G1 X4.706 Y-11.362 E153.40551
G1 X6.832 Y-10.226 E153.50644
G1 X8.696 Y-8.696 E153.60735
G1 X10.226 Y-6.832 E153.70827
G1 X11.362 Y-4.706 E153.80920
