; generated by Slic3r 1.2.9 on 2022-12-17 at 14:13:42

; external perimeters extrusion width = 0.40mm
; perimeters extrusion width = 0.48mm
; infill extrusion width = 0.48mm
; solid infill extrusion width = 0.48mm
; top infill extrusion width = 0.48mm
; support material extrusion width = 0.40mm

M107
M190 S60 ; set bed temperature
M104 S200 ; set temperature
G28 ; home all axes
G1 Z5 F5000 ; lift nozzle

M109 S200 ; wait for temperature to be reached
G21 ; set units to millimeters
G90 ; use absolute coordinates
M82 ; use absolute distances for extrusion
G92 E0
G1 Z0.400 F1800.000
G1 E-2.00000 F2400.00000
G92 E0
G1 X8.708 Y-14.407 F1800.000
G1 E2.00000 F2400.00000
G1 X13.213 Y-11.684 E2.62517 F1800.000
G1 X13.800 Y-11.285 E2.70953
G1 X14.958 Y-10.407 E2.88211
G1 X16.189 Y-9.192 E3.08754
G1 X17.162 Y-7.946 E3.27532
G1 X18.249 Y-5.908 E3.54954
G1 X18.545 Y-3.090 E3.88617
G1 X17.222 Y9.113 E5.34391
G1 X16.550 Y11.398 E5.62678
G1 X15.443 Y13.606 E5.92008
G1 X13.881 Y15.634 E6.22412
G1 X11.018 Y18.157 E6.67733
G1 X9.140 Y19.327 E6.94013
G1 X5.111 Y20.990 E7.45778
G1 X2.907 Y21.806 E7.73691
G1 X0.591 Y22.218 E8.01629
G1 X-2.605 Y22.218 E8.39578
G1 X-4.604 Y22.097 E8.63372
G1 X-6.847 Y21.547 E8.90794
G1 X-8.869 Y20.174 E9.19826
G1 X-14.611 Y14.488 E10.15794
G1 X-15.450 Y13.539 E10.30839
G1 X-16.018 Y12.804 E10.41875
G1 X-16.336 Y12.353 E10.48434
G1 X-17.010 Y11.279 E10.63486
G1 X-17.558 Y10.240 E10.77441
G1 X-21.303 Y1.893 E11.86096
G1 X-21.871 Y-0.345 E12.13518
G1 X-21.770 Y-2.121 E12.34644
G1 X-20.775 Y-7.292 E12.97182
G1 X-20.184 Y-9.033 E13.19017
G1 X-16.300 Y-16.784 E14.21987
G1 X-14.745 Y-18.805 E14.52265
G1 X-11.876 Y-21.343 E14.97768
G1 X-9.909 Y-22.553 E15.25190
G1 X-7.648 Y-23.025 E15.52613
G1 X-5.362 Y-22.703 E15.80035
G1 X-3.954 Y-22.060 E15.98412 F1800.000
G1 X8.656 Y-14.438 E17.73415
G1 E15.73415 F2400.00000
G92 E0
G1 X-2.626 Y-5.326 F1800.000
G1 E2.00000 F2400.00000
G1 X-1.773 Y-5.303 E2.10127 F1800.000
G1 X-1.276 Y-5.251 E2.16069 F1800.000
G1 X-0.395 Y-5.081 E2.26724
G1 X0.465 Y-4.814 E2.37411
G1 X0.882 Y-4.647 E2.42750
G1 X1.287 Y-4.457 E2.48062
G1 X1.685 Y-4.244 E2.53431
G1 X2.443 Y-3.755 E2.64136
G1 X3.139 Y-3.187 E2.74810
G1 X3.772 Y-2.547 E2.85503
G1 X4.330 Y-1.841 E2.96187
G1 X4.784 Y-1.119 E3.06316
G1 X5.015 Y-0.677 E3.12240
G1 X5.362 Y0.153 E3.22918
G1 X5.501 Y0.580 E3.28257
G1 X5.616 Y1.012 E3.33564
G1 X5.776 Y1.901 E3.44294
G1 X5.819 Y2.344 E3.49581
G1 X5.830 Y3.248 E3.60317
G1 X5.750 Y4.099 E3.70473
G1 X5.664 Y4.588 E3.76370
G1 X5.561 Y5.024 E3.81686
G1 X5.408 Y5.529 E3.87949
G1 X4.846 Y6.701 E4.03391
G1 X4.390 Y7.475 E4.14062
G1 X4.131 Y7.842 E4.19389
G1 X3.852 Y8.194 E4.24729
G1 X3.237 Y8.852 E4.35427
G1 X2.556 Y9.440 E4.46109
G1 X1.812 Y9.949 E4.56810
G1 X1.017 Y10.375 E4.67524
G1 X0.608 Y10.552 E4.72820
G1 X-0.242 Y10.842 E4.83491
G1 X-1.121 Y11.037 E4.94184
G1 X-2.017 Y11.135 E5.04889
G1 X-2.466 Y11.147 E5.10220
G1 X-2.916 Y11.135 E5.15569
G1 X-3.366 Y11.097 E5.20929
G1 X-3.812 Y11.037 E5.26271
G1 X-4.252 Y10.951 E5.31601
G1 X-4.690 Y10.842 E5.36964
G1 X-5.119 Y10.709 E5.42287
G1 X-5.954 Y10.373 E5.52988
G1 X-6.746 Y9.949 E5.63655
G1 X-7.489 Y9.440 E5.74355
G1 X-8.172 Y8.852 E5.85048
G1 X-8.486 Y8.533 E5.90368
G1 X-9.065 Y7.842 E6.01078
G1 X-9.323 Y7.475 E6.06403
G1 X-9.417 Y7.325 E6.08505
G1 X-9.763 Y6.602 E6.18028
G1 X-9.763 Y5.957 E6.25681
G1 X-10.065 Y5.126 E6.36182
G1 X-10.293 Y4.262 E6.46798
G1 X-10.373 Y3.820 E6.52129
G1 X-10.459 Y2.925 E6.62808
G1 X-10.446 Y2.022 E6.73542
G1 X-10.352 Y1.236 E6.82934
G1 X-9.763 Y-0.375 E7.03312
G1 X-9.763 Y-0.781 E7.08134
G1 X-9.380 Y-1.468 E7.17478
G1 X-9.131 Y-1.841 E7.22800
G1 X-8.861 Y-2.203 E7.28157
G1 X-8.266 Y-2.875 E7.38819
G1 X-7.599 Y-3.482 E7.49532
G1 X-7.244 Y-3.755 E7.54852
G1 X-6.485 Y-4.244 E7.65573
G1 X-5.680 Y-4.648 E7.76270
G1 X-4.839 Y-4.960 E7.86927
G1 X-4.407 Y-5.081 E7.92253
G1 X-3.521 Y-5.251 E8.02967
G1 X-2.686 Y-5.322 E8.12926
G1 X-2.626 Y-6.040 F1800.000
G1 X-2.156 Y-6.040 E8.18506 F1800.000
G1 X-1.716 Y-6.015 E8.23740
G1 X-1.180 Y-5.959 E8.30140 F1800.000
G1 X-0.698 Y-5.879 E8.35943
G1 X-0.221 Y-5.774 E8.41739
G1 X0.248 Y-5.642 E8.47531
G1 X0.712 Y-5.484 E8.53356
G1 X1.166 Y-5.302 E8.59164
G1 X1.607 Y-5.096 E8.64948
G1 X2.040 Y-4.864 E8.70776
G1 X2.458 Y-4.609 E8.76596
G1 X2.862 Y-4.333 E8.82403
G1 X3.249 Y-4.035 E8.88197
G1 X3.620 Y-3.716 E8.94016
G1 X3.973 Y-3.377 E8.99830
G1 X4.307 Y-3.020 E9.05631
G1 X4.620 Y-2.646 E9.11430
G1 X4.913 Y-2.253 E9.17249
G1 X5.185 Y-1.846 E9.23055
G1 X5.409 Y-1.466 E9.28299
G1 X5.658 Y-0.989 E9.34690
G1 X5.858 Y-0.545 E9.40476
G1 X6.035 Y-0.087 E9.46302
G1 X6.186 Y0.377 E9.52105
G1 X6.311 Y0.848 E9.57886
G1 X6.411 Y1.329 E9.63724
G1 X6.485 Y1.813 E9.69535
G1 X6.531 Y2.296 E9.75303
G1 X6.544 Y3.277 E9.86953
G1 X6.456 Y4.205 E9.98021
G1 X6.363 Y4.732 E10.04382
G1 X6.251 Y5.207 E10.10173
G1 X6.069 Y5.803 E10.17577
G1 X5.481 Y7.029 E10.33724
G1 X5.245 Y7.455 E10.39508
G1 X4.984 Y7.871 E10.45335
G1 X4.703 Y8.270 E10.51129
G1 X4.400 Y8.653 E10.56937
G1 X4.076 Y9.019 E10.62748
G1 X3.732 Y9.368 E10.68563
G1 X3.370 Y9.697 E10.74371
G1 X2.991 Y10.006 E10.80175
G1 X2.595 Y10.293 E10.85981
G1 X2.184 Y10.559 E10.91803
G1 X1.321 Y11.021 E11.03429
G1 X0.875 Y11.215 E11.09209
G1 X0.415 Y11.386 E11.15034
G1 X-0.050 Y11.530 E11.20814
G1 X-1.005 Y11.742 E11.32432
G1 X-1.978 Y11.849 E11.44056
G1 X-2.466 Y11.861 E11.49855
G1 X-2.956 Y11.849 E11.55672
G1 X-3.444 Y11.807 E11.61490
G1 X-3.928 Y11.742 E11.67296
G1 X-4.407 Y11.648 E11.73090
G1 X-4.883 Y11.530 E11.78909
G1 X-5.349 Y11.385 E11.84706
G1 X-5.808 Y11.215 E11.90526
G1 X-6.257 Y11.020 E11.96335
G1 X-6.693 Y10.802 E12.02125
G1 X-7.118 Y10.559 E12.07938
G1 X-7.529 Y10.293 E12.13759
G1 X-7.925 Y10.006 E12.19565
G1 X-8.304 Y9.696 E12.25379
G1 X-8.667 Y9.368 E12.31188
G1 X-9.009 Y9.020 E12.36978
G1 X-9.333 Y8.653 E12.42802
G1 X-9.637 Y8.269 E12.48612
G1 X-9.918 Y7.871 E12.54405
G1 X-10.044 Y7.670 E12.57221
G1 X-10.477 Y6.763 E12.69151
G1 X-10.477 Y6.083 E12.77233
G1 X-10.744 Y5.349 E12.86505
G1 X-10.880 Y4.884 E12.92258
G1 X-10.993 Y4.407 E12.98078
G1 X-11.079 Y3.927 E13.03872
G1 X-11.139 Y3.441 E13.09691
G1 X-11.173 Y2.954 E13.15485
G1 X-11.179 Y2.465 E13.21298
G1 X-11.159 Y1.974 E13.27137
G1 X-11.113 Y1.489 E13.32921
G1 X-11.022 Y0.894 E13.40067
G1 X-10.988 Y0.894 E13.40482
G1 X-10.477 Y-0.502 E13.58131
G1 X-10.477 Y-0.955 E13.63521
G1 X-10.233 Y-1.426 E13.69815
G1 X-9.985 Y-1.848 E13.75622
G1 X-9.715 Y-2.253 E13.81414
G1 X-9.422 Y-2.646 E13.87231
G1 X-9.108 Y-3.020 E13.93029
G1 X-8.774 Y-3.377 E13.98832
G1 X-8.421 Y-3.716 E14.04646
G1 X-8.050 Y-4.035 E14.10465
G1 X-7.663 Y-4.333 E14.16259
G1 X-7.260 Y-4.609 E14.22066
G1 X-6.840 Y-4.864 E14.27896
G1 X-6.451 Y-5.074 E14.33144
G1 X-5.966 Y-5.303 E14.39519
G1 X-5.513 Y-5.484 E14.45312
G1 X-5.051 Y-5.642 E14.51116
G1 X-4.580 Y-5.774 E14.56917
G1 X-4.103 Y-5.879 E14.62720
G1 X-3.619 Y-5.959 E14.68553
G1 X-3.132 Y-6.013 E14.74367
G1 X-2.686 Y-6.038 E14.79676
G1 X-2.626 Y-6.754 F1800.000
G1 X-2.136 Y-6.754 E14.85491 F1800.000
G1 X-1.658 Y-6.728 E14.91174
G1 X-1.084 Y-6.667 E14.98032 F1800.000
G1 X-0.563 Y-6.581 E15.04307
G1 X-0.048 Y-6.467 E15.10572
G1 X0.460 Y-6.325 E15.16834
G1 X0.960 Y-6.154 E15.23114
G1 X1.451 Y-5.958 E15.29390
G1 X1.928 Y-5.734 E15.35646
G1 X2.394 Y-5.484 E15.41934
G1 X2.846 Y-5.209 E15.48209
G1 X3.282 Y-4.911 E15.54478
G1 X3.700 Y-4.589 E15.60747
G1 X4.101 Y-4.244 E15.67027
G1 X4.481 Y-3.879 E15.73296
G1 X4.842 Y-3.494 E15.79561
G1 X5.181 Y-3.089 E15.85830
G1 X5.497 Y-2.665 E15.92108
G1 X5.790 Y-2.226 E15.98376
G1 X6.034 Y-1.813 E16.04075
G1 X6.301 Y-1.301 E16.10934
G1 X6.517 Y-0.820 E16.17198
G1 X6.708 Y-0.327 E16.23475
G1 X6.872 Y0.175 E16.29743
G1 X7.006 Y0.684 E16.35997
G1 X7.114 Y1.203 E16.42291
G1 X7.194 Y1.725 E16.48561
G1 X7.244 Y2.248 E16.54811
G1 X7.264 Y2.776 E16.61087
G1 X7.258 Y3.306 E16.67378
G1 X7.221 Y3.832 E16.73641
G1 X7.163 Y4.310 E16.79362
G1 X7.063 Y4.876 E16.86188
G1 X6.942 Y5.390 E16.92453
G1 X6.793 Y5.896 E16.98722
G1 X6.528 Y6.607 E17.07728
G1 X6.475 Y6.607 E17.08355
G1 X6.116 Y7.357 E17.18223
G1 X5.860 Y7.818 E17.24487
G1 X5.579 Y8.266 E17.30770
G1 X5.276 Y8.697 E17.37031
G1 X4.948 Y9.111 E17.43306
G1 X4.598 Y9.507 E17.49580
G1 X4.226 Y9.883 E17.55857
G1 X3.836 Y10.238 E17.62119
G1 X3.427 Y10.572 E17.68395
G1 X2.999 Y10.882 E17.74668
G1 X2.555 Y11.169 E17.80946
G1 X2.139 Y11.407 E17.86647
G1 X1.625 Y11.668 E17.93488
G1 X1.141 Y11.878 E17.99751
G1 X0.645 Y12.062 E18.06033
G1 X0.142 Y12.218 E18.12288
G1 X-0.370 Y12.346 E18.18561
G1 X-0.889 Y12.447 E18.24834
G1 X-1.412 Y12.518 E18.31105
G1 X-1.939 Y12.562 E18.37381
G1 X-2.466 Y12.576 E18.43648
G1 X-2.995 Y12.562 E18.49934
G1 X-3.522 Y12.518 E18.56209
G1 X-4.045 Y12.447 E18.62479
G1 X-4.562 Y12.346 E18.68738
G1 X-5.075 Y12.218 E18.75012
G1 X-5.579 Y12.062 E18.81283
G1 X-6.075 Y11.878 E18.87563
G1 X-6.559 Y11.668 E18.93837
G1 X-7.030 Y11.431 E19.00094
G1 X-7.489 Y11.169 E19.06371
G1 X-7.933 Y10.882 E19.12647
G1 X-8.361 Y10.572 E19.18921
G1 X-8.770 Y10.238 E19.25200
G1 X-9.161 Y9.883 E19.31471
G1 X-9.531 Y9.507 E19.37731
G1 X-9.881 Y9.111 E19.44008
G1 X-10.209 Y8.697 E19.50285
G1 X-10.513 Y8.266 E19.56546
G1 X-10.671 Y8.014 E19.60076
G1 X-11.191 Y6.925 E19.74413
G1 X-11.191 Y6.209 E19.82924
G1 X-11.422 Y5.572 E19.90968
G1 X-11.571 Y5.067 E19.97216
G1 X-11.692 Y4.553 E20.03492
G1 X-11.786 Y4.034 E20.09751
G1 X-11.850 Y3.510 E20.16031
G1 X-11.887 Y2.983 E20.22293
G1 X-11.893 Y2.455 E20.28576
G1 X-11.872 Y1.926 E20.34860
G1 X-11.822 Y1.401 E20.41115
G1 X-11.743 Y0.880 E20.47379
G1 X-11.587 Y0.180 E20.55898
G1 X-11.487 Y0.180 E20.57091
G1 X-11.191 Y-0.628 E20.67309
G1 X-11.191 Y-1.103 E20.72949
G1 X-10.858 Y-1.771 E20.81816
G1 X-10.591 Y-2.227 E20.88087
G1 X-10.298 Y-2.665 E20.94350
G1 X-9.982 Y-3.089 E21.00626
G1 X-9.643 Y-3.494 E21.06896
G1 X-9.283 Y-3.879 E21.13162
G1 X-8.902 Y-4.244 E21.19431
G1 X-8.501 Y-4.589 E21.25711
G1 X-8.083 Y-4.911 E21.31980
G1 X-7.647 Y-5.209 E21.38249
G1 X-7.196 Y-5.484 E21.44528
G1 X-6.773 Y-5.711 E21.50222
G1 X-6.252 Y-5.958 E21.57075
G1 X-5.761 Y-6.154 E21.63347
G1 X-5.263 Y-6.325 E21.69608
G1 X-4.754 Y-6.467 E21.75884
G1 X-4.238 Y-6.581 E21.82153
G1 X-3.716 Y-6.667 E21.88437
G1 X-3.191 Y-6.725 E21.94710
G1 X-2.686 Y-6.753 E22.00722
G1 X-2.420 Y-6.411 F1800.000
G1 X-0.016 Y-4.453 F1800.000
G1 X4.970 Y0.533 E22.86134 F1800.000
G1 X5.303 Y1.895 E23.03120
G1 X-1.390 Y-4.797 E24.17763
G1 X-2.506 Y-4.883 E24.31321
G1 X5.390 Y3.012 E25.66574
G1 X5.336 Y3.989 E25.78422
G1 X-3.482 Y-4.830 E27.29493
G1 X-4.356 Y-4.673 E27.40248
G1 X5.182 Y4.865 E29.03654
G1 X4.928 Y5.641 E29.13540
G1 X-5.142 Y-4.429 E30.86045
G1 X-5.874 Y-4.130 E30.95615
G1 X4.594 Y6.337 E32.74935
G1 X4.228 Y7.002 E32.84122
G1 X-6.536 Y-3.763 E34.68532
G1 X-7.154 Y-3.351 E34.77529
G1 X3.823 Y7.627 E36.65582
G1 X3.348 Y8.181 E36.74431
G1 X-7.709 Y-2.875 E38.63840
G1 X-8.224 Y-2.360 E38.72663
G1 X2.833 Y8.696 E40.62066
G1 X2.281 Y9.175 E40.70911
G1 X-8.689 Y-1.795 E42.58835
G1 X-9.104 Y-1.180 E42.67822
G1 X1.660 Y9.584 E44.52225
G1 X1.000 Y9.954 E44.61393
G1 X-9.341 Y-0.387 E46.38529
G1 X-9.616 Y0.368 E46.48257
G1 X0.270 Y10.254 E48.17626
G1 X-0.525 Y10.489 E48.27676
G1 X-9.892 Y1.122 E49.88137
G1 X-10.013 Y2.032 E49.99251
G1 X-1.399 Y10.645 E51.46808
G1 X-2.375 Y10.700 E51.58643
G1 X-9.991 Y3.083 E52.89118
G1 X-9.791 Y4.314 E53.04222
G1 X-3.487 Y10.617 E54.12200
G1 X-4.866 Y10.269 E54.29424
G1 X-9.327 Y5.807 E55.05849
G1 X-8.306 Y7.859 F1800.000
G1 X-7.410 Y8.754 E55.21189 F1800.000
G1 X3.563 Y-1.905 F1800.000
G1 X2.440 Y-3.028 E55.40426 F1800.000
G1 Z0.400 F1800.000
G1 E53.40426 F2400.00000
G92 E0
G1 X7.087 Y-3.833 F1800.000
G1 E2.00000 F2400.00000
G1 X8.478 Y-6.609 E2.36876 F1800.000
G1 X9.740 Y-5.938 E2.53844
G1 X7.298 Y-1.067 E3.18558
G1 X8.649 Y-0.575 E3.35634
G1 X10.897 Y-5.059 E3.95210
G1 X11.870 Y-3.813 E4.13988
G1 X9.907 Y0.103 E4.66015
G1 X7.915 Y0.891 F1800.000
G1 X8.561 Y-0.398 E4.83141 F1800.000
G1 X10.010 Y-0.102 E5.00709
G1 X8.809 Y2.295 E5.32553
G1 E3.32553 F2400.00000
G92 E0
G1 X7.352 Y8.390 F1800.000
G1 E2.00000 F2400.00000
G1 X5.091 Y12.900 E2.59912 F1800.000
G1 X6.578 Y13.121 F1800.000
G1 X8.949 Y8.390 E3.22764 F1800.000
G1 X10.547 Y8.389 E3.41740
G1 X9.441 Y10.597 E3.71070
G1 E1.71070 F2400.00000
G92 E0
G1 X4.537 Y10.818 F1800.000
G1 E2.00000 F2400.00000
G1 X2.549 Y14.784 E2.52685 F1800.000
G1 X0.591 Y15.504 E2.77465
G1 X2.173 Y12.346 E3.19414
G1 X0.228 Y13.039 E3.43938
G1 X-1.007 Y15.504 E3.76679
G1 X-2.605 Y15.504 F1800.000
G1 X-1.513 Y13.326 E4.05604 F1800.000
G1 X-3.116 Y13.336 E4.24634
G1 X-4.150 Y15.399 E4.52042
G1 E2.52042 F2400.00000
G92 E0
G1 X-15.176 Y-0.854 F1800.000
G1 E2.00000 F2400.00000
G1 X-14.727 Y-1.749 E2.11898 F1800.000
G1 X-13.572 Y-0.867 E2.29164
G1 X-8.833 Y-10.321 E3.54752
G1 X-8.592 Y-10.802 F1800.000
G1 X-6.472 Y-15.033 E4.10952 F1800.000
G1 X-7.427 Y-16.314 F1800.000
G1 X-12.900 Y-5.394 E5.56018 F1800.000
G1 X-10.376 Y-4.056 E5.89954
G1 X-5.118 Y-14.545 E7.29302
G1 X-4.181 Y-13.228 E7.48506
G1 X-7.715 Y-6.178 E8.42165
G1 E6.42165 F2400.00000
G92 E0
G1 X-5.674 Y-7.061 F1800.000
G1 E2.00000 F2400.00000
G1 X-5.043 Y-8.321 E2.16739 F1800.000
G1 E0.16739 F2400.00000
G92 E0
G1 X-10.637 Y-13.098 F1800.000
G1 E2.00000 F2400.00000
G1 X-10.297 Y-13.776 E2.09000 F1800.000
G1 E0.09000 F2400.00000
G92 E0
G1 X-13.704 Y-6.979 F1800.000
G1 E2.00000 F2400.00000
G1 X-14.182 Y-6.025 E2.12681 F1800.000
G1 Z0.600 F1800.000
G1 X-13.656 Y-6.027 F1800.000
G1 X-13.656 Y-6.636 E2.14491 F3600.000
G1 X-14.085 Y-6.636 E2.15765
G1 X-14.507 Y-6.446 E2.17139
G1 X-13.656 Y-6.027 E2.19954
G1 E0.19954 F2400.00000
G92 E0
G1 X-8.158 Y-8.199 F1800.000
G1 E2.00000 F2400.00000
G1 X-10.279 Y-10.637 E2.09595 F3600.000
G1 X-10.622 Y-9.059 E2.14389
G1 X-11.135 Y-9.332 E2.16114
G1 X-11.057 Y-8.199 E2.19487
G1 X-8.158 Y-8.199 E2.28093
G1 X-7.613 Y-7.572 F1800.000
G1 X-7.866 Y-7.863 E2.29238 F3600.000
G1 X-11.034 Y-7.863 E2.38643
G1 X-10.984 Y-7.136 E2.40809
G1 X-11.331 Y-6.938 E2.41994
G1 X-11.590 Y-6.703 E2.43032
G1 X-11.800 Y-6.364 E2.44218
G1 X-11.902 Y-6.084 E2.45103
G1 X-11.938 Y-5.708 E2.46225
G1 X-11.907 Y-5.474 E2.46923
G1 X-11.701 Y-4.804 E2.49006
G1 X-12.518 Y-4.801 E2.51432
G1 X-11.635 Y-3.272 E2.56674
G1 X-11.514 Y-3.243 E2.57044
G1 X-11.028 Y-3.915 E2.59506
G1 X-10.641 Y-4.377 E2.61296
G1 X-10.232 Y-4.815 E2.63074
G1 X-9.914 Y-5.120 E2.64381
G1 X-9.342 Y-5.623 E2.66643
G1 X-9.060 Y-5.840 E2.67701
G1 X-9.058 Y-5.859 E2.67757
G1 X-8.370 Y-6.329 E2.70229
G1 X-7.858 Y-6.641 E2.72009
G1 X-7.275 Y-6.950 E2.73971
G1 X-7.356 Y-7.193 E2.74730
G1 X-7.413 Y-7.301 E2.75094
G1 X-7.506 Y-7.462 E2.75645
G1 X-7.613 Y-7.572 E2.76103
G1 E0.76103 F2400.00000
G92 E0
G1 X-6.294 Y-11.035 F1800.000
G1 E2.00000 F2400.00000
G1 X-7.634 Y-13.354 E2.07953 F3600.000
G1 X-8.110 Y-13.343 E2.09368
G1 X-8.110 Y-13.261 E2.09614
G1 X-9.971 Y-13.217 E2.15140
G1 X-9.802 Y-13.027 E2.15895
G1 X-10.077 Y-12.521 E2.17607
G1 X-9.629 Y-12.833 E2.19229
G1 X-7.689 Y-10.655 E2.27890
G1 X-6.391 Y-10.532 E2.31763
G1 X-6.294 Y-10.699 E2.32336
G1 X-5.652 Y-10.699 E2.34244
G1 X-5.523 Y-11.035 E2.35311
G1 X-6.294 Y-11.035 E2.37602
G1 X-4.960 Y-11.456 F1800.000
G1 X-3.978 Y-13.802 E2.45152 F3600.000
G1 X-8.467 Y-13.692 E2.58484
G1 X-8.467 Y-13.609 E2.58730
G1 X-10.751 Y-13.556 E2.65512
G1 X-10.236 Y-12.977 E2.67813
G1 X-11.118 Y-11.353 E2.73300
G1 X-10.486 Y-11.368 E2.75177
G1 X-10.871 Y-9.596 E2.80561
G1 X-11.535 Y-9.949 E2.82796
G1 X-11.355 Y-7.335 E2.90577
G1 X-11.543 Y-7.228 E2.91217
G1 X-11.863 Y-6.938 E2.92500
G1 X-12.126 Y-6.513 E2.93983
G1 X-12.252 Y-6.166 E2.95079
G1 X-12.297 Y-5.692 E2.96493
G1 X-12.259 Y-5.403 E2.97358
G1 X-12.184 Y-5.159 E2.98117
G1 X-12.799 Y-5.157 E2.99943
G1 X-13.135 Y-3.907 E3.03785
G1 X-13.257 Y-3.250 E3.05769
G1 X-13.300 Y-2.786 E3.07152
G1 X-15.393 Y-1.063 E3.15202
G1 X-13.307 Y-1.080 E3.21395
G1 X-13.302 Y-0.691 E3.22552
G1 X-12.366 Y-0.688 E3.25333
G1 X-12.343 Y-0.773 E3.25594
G1 X-12.179 Y-0.773 E3.26080
G1 X-12.115 Y-0.939 E3.26608
G1 X-12.115 Y-1.426 E3.28053
G1 X-11.990 Y-1.704 E3.28960
G1 X-12.160 Y-1.745 E3.29478
G1 X-12.294 Y-1.825 E3.29944
G1 X-12.451 Y-1.990 E3.30617
G1 X-12.504 Y-2.112 E3.31014
