;FLAVOR:Marlin
;TIME:1727
;Filament used: 1.21133m
;Layer height: 0.2
;MINX:-13.437
;MINY:-14.05
;MINZ:0.3
;MAXX:14.176
;MAXY:14.128
;MAXZ:45.3
;Generated with Cura_SteamEngine 5.2.1
M140 S60
M105
M190 S60
M104 S205
M105
M109 S205
M82 ;absolute extrusion mode
G28 ;Home
G1 Z15.0 F6000 ;Move the platform down 15mm
;Prime the extruder
G92 E0
G1 F200 E3
G92 E0
M141 S28
G92 E0
G92 E0
G1 F1500 E-6.5
;LAYER_COUNT:227
;LAYER:0
M107
;MESH:barbarian small.stl
G0 F3600 X-11.994 Y-3.124 Z0.3
;TYPE:WALL-INNER
G1 F1500 E0
G1 F1800 X-12.038 Y-2.981 E0.00746
G1 X-12.226 Y-2.747 E0.02244
G1 X-12.66 Y-2.492 E0.04755
G1 X-12.794 Y-1.795 E0.08296
G1 X-12.863 Y-1.089 E0.11835
G1 X-12.902 Y-.441 E0.15074
G1 X-12.901 Y0.479 E0.19664
G1 X-12.86 Y1.126 E0.22898
G1 X-12.807 Y1.638 E0.25466
G1 X-12.731 Y2.141 E0.28004
G1 X-12.609 Y2.759 E0.31147
G1 X-12.457 Y3.203 E0.33488
G1 X-12.37 Y3.686 E0.35937
G1 X-12.175 Y4.296 E0.39132
G1 X-11.998 Y4.769 E0.41652
G1 X-11.797 Y5.241 E0.44211
G1 X-11.545 Y5.776 E0.47161
G1 X-11.073 Y6.636 E0.52056
G1 X-10.728 Y7.182 E0.55278
G1 X-10.307 Y7.788 E0.58959
G1 X-9.78 Y8.422 E0.63072
G1 X-9.322 Y8.652 E0.65629
G1 X-9.125 Y8.897 E0.67198
G1 X-8.989 Y9.261 E0.69136
G1 X-8.603 Y9.623 E0.71776
G1 X-8.214 Y9.961 E0.74347
G1 X-7.812 Y10.277 E0.76898
G1 X-7.284 Y10.657 E0.80144
G1 X-6.507 Y11.149 E0.84732
G1 X-5.939 Y11.461 E0.87965
G1 X-5.477 Y11.691 E0.9054
G1 X-5.012 Y11.897 E0.93077
G1 X-4.443 Y12.119 E0.96125
G1 X-3.898 Y12.224 E0.98894
G1 X-3.485 Y12.429 E1.01194
G1 X-2.902 Y12.578 E1.04196
G1 X-2.402 Y12.687 E1.06749
G1 X-1.898 Y12.769 E1.09297
G1 X-1.261 Y12.846 E1.12498
G1 X-.69 Y12.861 E1.15348
G1 X-.311 Y12.905 E1.17251
G1 X0.316 Y12.906 E1.20379
G1 X0.831 Y12.885 E1.22951
G1 X1.341 Y12.84 E1.25505
G1 X1.922 Y12.766 E1.28427
G1 X2.889 Y12.581 E1.33339
G1 X3.504 Y12.424 E1.36506
G1 X4.009 Y12.273 E1.39135
G1 X4.811 Y11.99 E1.43378
G1 X4.889 Y11.634 E1.45196
G1 X4.994 Y11.404 E1.46458
G1 X5.166 Y11.248 E1.47616
G1 X5.373 Y11.171 E1.48718
G1 X5.573 Y11.17 E1.49716
G1 X6.138 Y11.352 E1.52677
G1 X6.935 Y10.891 E1.57271
G1 X7.36 Y10.606 E1.59824
G1 X7.833 Y10.26 E1.62748
G1 X8.593 Y9.633 E1.67663
G1 X9.066 Y9.189 E1.709
G1 X9.424 Y8.824 E1.7345
G1 X9.765 Y8.443 E1.76001
G1 X10.163 Y7.957 E1.79135
G1 X10.409 Y7.556 E1.81482
G1 X10.734 Y7.172 E1.83992
G1 X11.225 Y6.394 E1.88582
G1 X11.558 Y5.748 E1.92208
G1 X11.83 Y5.164 E1.95422
G1 X12.172 Y4.303 E2.00044
G1 X12.469 Y3.38 E2.04881
G1 X12.625 Y2.694 E2.08391
G1 X12.727 Y2.148 E2.11162
G1 X12.643 Y1.677 E2.13549
G1 X12.672 Y1.45 E2.14691
G1 X12.865 Y1.04 E2.16952
G1 X12.9 Y0.493 E2.19686
G1 X12.909 Y0.098 E2.21658
G1 X12.899 Y-.531 E2.24796
G1 X12.861 Y-1.119 E2.27736
G1 X12.73 Y-2.151 E2.32926
G1 X12.564 Y-3 E2.37242
G1 X12.362 Y-3.724 E2.40992
G1 X12.165 Y-4.321 E2.44128
G1 X11.95 Y-4.757 E2.46553
G1 X11.806 Y-5.218 E2.48963
G1 X11.542 Y-5.783 E2.52074
G1 X11.306 Y-6.237 E2.54627
G1 X11.048 Y-6.679 E2.5718
G1 X10.73 Y-7.177 E2.60128
G1 X10.155 Y-7.972 E2.65023
G1 X9.742 Y-8.47 E2.68251
G1 X9.399 Y-8.852 E2.70812
G1 X8.767 Y-9.489 E2.75289
G1 X8.211 Y-9.45 E2.7807
G1 X7.981 Y-9.526 E2.79278
G1 X7.83 Y-9.651 E2.80256
G1 X7.711 Y-9.864 E2.81473
G1 X7.648 Y-10.393 E2.84131
G1 X6.901 Y-10.913 E2.88672
G1 X6.464 Y-11.173 E2.91209
G1 X5.892 Y-11.485 E2.9446
G1 X5.003 Y-11.9 E2.99354
G1 X4.455 Y-12.116 E3.02293
G1 X3.792 Y-12.35 E3.05801
G1 X2.871 Y-12.584 E3.10542
G1 X2.401 Y-12.635 E3.129
G1 X1.918 Y-12.765 E3.15396
G1 X1.304 Y-12.843 E3.18483
G1 X0.79 Y-12.887 E3.21057
G1 X0.279 Y-12.907 E3.23609
G1 X-.31 Y-12.907 E3.26547
G1 X-1.291 Y-12.845 E3.31451
G1 X-1.93 Y-12.765 E3.34664
G1 X-2.438 Y-12.679 E3.37234
G1 X-2.937 Y-12.57 E3.39783
G1 X-3.478 Y-12.428 E3.42573
G1 X-3.963 Y-12.11 E3.45467
G1 X-4.535 Y-12.085 E3.48323
G1 X-5.044 Y-11.883 E3.51055
G1 X-5.515 Y-11.674 E3.53626
G1 X-5.973 Y-11.444 E3.56183
G1 X-6.49 Y-11.159 E3.59128
G1 X-7.319 Y-10.634 E3.64024
G1 X-7.84 Y-10.255 E3.67238
G1 X-8.412 Y-9.803 E3.70875
G1 X-9.086 Y-9.168 E3.75495
G1 X-9.39 Y-8.788 E3.77923
G1 X-9.75 Y-8.46 E3.80352
G1 X-10.336 Y-7.749 E3.84949
G1 X-10.748 Y-7.152 E3.88568
G1 X-11.095 Y-6.601 E3.91817
G1 X-11.535 Y-5.794 E3.96402
G1 X-11.809 Y-5.213 E3.99607
G1 X-12.013 Y-4.734 E4.02205
G1 X-12.316 Y-3.91 E4.06585
G1 X-12.024 Y-3.44 E4.09345
G1 X-11.994 Y-3.124 E4.10929
G0 F3600 X-11.608 Y-3.376
G0 X4.626 Y11.442
G0 X5.357 Y11.601
;TYPE:WALL-OUTER
G1 F1800 X5.509 Y11.565 E4.11708
G1 X6.177 Y11.787 E4.1522
G1 X6.717 Y11.49 E4.18295
G1 X7.15 Y11.229 E4.20817
G1 X7.59 Y10.934 E4.2346
G1 X8.079 Y10.576 E4.26483
G1 X8.857 Y9.933 E4.31519
G1 X9.346 Y9.475 E4.34862
G1 X9.716 Y9.098 E4.37497
G1 X10.069 Y8.703 E4.4014
G1 X10.49 Y8.189 E4.43455
G1 X10.755 Y7.761 E4.45966
G1 X11.056 Y7.41 E4.48273
G1 X11.573 Y6.593 E4.53097
G1 X11.917 Y5.924 E4.5685
G1 X12.198 Y5.322 E4.60164
G1 X12.549 Y4.438 E4.64909
G1 X12.855 Y3.486 E4.69898
G1 X13.017 Y2.775 E4.73536
G1 X13.134 Y2.148 E4.76718
G1 X13.045 Y1.601 E4.79483
G1 X13.259 Y1.143 E4.82005
G1 X13.3 Y0.511 E4.85165
G1 X13.309 Y0.108 E4.87176
G1 X13.299 Y-.549 E4.90454
G1 X13.259 Y-1.157 E4.93494
G1 X13.125 Y-2.215 E4.98815
G1 X13.008 Y-2.813 E5.01855
G1 X12.892 Y-3.314 E5.0442
G1 X12.745 Y-3.84 E5.07145
G1 X12.536 Y-4.474 E5.10476
G1 X12.317 Y-4.916 E5.12937
G1 X12.18 Y-5.362 E5.15264
G1 X11.901 Y-5.96 E5.18556
G1 X11.656 Y-6.43 E5.21201
G1 X11.39 Y-6.887 E5.23839
G1 X11.061 Y-7.402 E5.26888
G1 X10.471 Y-8.217 E5.31907
G1 X10.045 Y-8.732 E5.35242
G1 X9.69 Y-9.126 E5.37888
G1 X9.318 Y-9.503 E5.4053
G1 X8.89 Y-9.903 E5.43453
G1 X8.303 Y-9.846 E5.46395
G1 X8.167 Y-9.882 E5.47097
G1 X8.088 Y-9.977 E5.47713
G1 X8.03 Y-10.61 E5.50885
G1 X7.557 Y-10.955 E5.53805
G1 X7.115 Y-11.251 E5.56459
G1 X6.662 Y-11.521 E5.5909
G1 X6.072 Y-11.842 E5.62441
G1 X5.161 Y-12.268 E5.67459
G1 X4.595 Y-12.491 E5.70494
G1 X4.079 Y-12.673 E5.73224
G1 X3.587 Y-12.815 E5.75778
G1 X2.942 Y-12.979 E5.79099
G1 X2.438 Y-13.036 E5.81629
G1 X1.997 Y-13.158 E5.83912
G1 X1.346 Y-13.241 E5.87186
G1 X0.815 Y-13.287 E5.89845
G1 X0.287 Y-13.307 E5.92481
G1 X-.322 Y-13.307 E5.9552
G1 X-1.329 Y-13.243 E6.00554
G1 X-1.988 Y-13.161 E6.03867
G1 X-2.514 Y-13.072 E6.06528
G1 X-3.031 Y-12.959 E6.09169
G1 X-3.653 Y-12.796 E6.12376
G1 X-4.06 Y-12.502 E6.14881
G1 X-4.609 Y-12.486 E6.17622
G1 X-5.144 Y-12.275 E6.20491
G1 X-5.686 Y-12.036 E6.23446
G1 X-6.159 Y-11.798 E6.26088
G1 X-6.694 Y-11.503 E6.29136
G1 X-7.544 Y-10.965 E6.34154
G1 X-8.082 Y-10.574 E6.37473
G1 X-8.674 Y-10.106 E6.41237
G1 X-9.381 Y-9.44 E6.46083
G1 X-9.685 Y-9.058 E6.48519
G1 X-10.04 Y-8.737 E6.50907
G1 X-10.656 Y-7.991 E6.55733
G1 X-11.082 Y-7.372 E6.59482
G1 X-11.44 Y-6.803 E6.62836
G1 X-11.892 Y-5.975 E6.67542
G1 X-12.174 Y-5.377 E6.70841
G1 X-12.385 Y-4.882 E6.73525
G1 X-12.567 Y-4.386 E6.76161
G1 X-12.744 Y-3.833 E6.79058
G1 X-12.388 Y-3.293 E6.82285
G1 X-12.401 Y-3.149 E6.83006
G1 X-12.466 Y-3.067 E6.83528
G1 X-13.019 Y-2.748 E6.86713
G1 X-13.19 Y-1.852 E6.91264
G1 X-13.262 Y-1.121 E6.94929
G1 X-13.302 Y-.453 E6.98268
G1 X-13.301 Y0.491 E7.02977
G1 X-13.259 Y1.16 E7.06321
G1 X-13.204 Y1.688 E7.0897
G1 X-13.125 Y2.21 E7.11604
G1 X-12.996 Y2.863 E7.14925
G1 X-12.835 Y3.34 E7.17436
G1 X-12.76 Y3.781 E7.19668
G1 X-12.553 Y4.427 E7.23052
G1 X-12.37 Y4.918 E7.25667
G1 X-12.162 Y5.405 E7.28309
G1 X-11.902 Y5.958 E7.31357
G1 X-11.418 Y6.84 E7.36376
G1 X-11.062 Y7.403 E7.397
G1 X-10.626 Y8.03 E7.4351
G1 X-10.032 Y8.745 E7.48147
G1 X-9.551 Y8.98 E7.50818
G1 X-9.331 Y9.489 E7.53585
G1 X-8.871 Y9.92 E7.5673
G1 X-8.469 Y10.269 E7.59385
G1 X-8.052 Y10.597 E7.62032
G1 X-7.508 Y10.989 E7.65378
G1 X-6.711 Y11.493 E7.70082
G1 X-6.125 Y11.815 E7.73418
G1 X-5.647 Y12.053 E7.76082
G1 X-5.166 Y12.267 E7.78709
G1 X-4.554 Y12.505 E7.81985
G1 X-4.031 Y12.606 E7.84642
G1 X-3.625 Y12.806 E7.869
G1 X-2.994 Y12.967 E7.90149
G1 X-2.477 Y13.08 E7.92789
G1 X-1.954 Y13.165 E7.95433
G1 X-1.29 Y13.246 E7.9877
G1 X-.705 Y13.261 E8.01689
G1 X-.335 Y13.305 E8.03548
G1 X0.324 Y13.306 E8.06836
G1 X0.857 Y13.284 E8.09498
G1 X1.384 Y13.238 E8.12137
G1 X1.985 Y13.161 E8.1516
G1 X2.976 Y12.971 E8.20194
G1 X3.61 Y12.81 E8.23457
G1 X4.133 Y12.654 E8.2618
G1 X4.651 Y12.471 E8.28921
G1 X5.161 Y12.265 E8.31665
G1 X5.28 Y11.72 E8.34448
G1 X5.357 Y11.601 E8.35155
G0 F3600 X5.509 Y11.565
G0 X5.55 Y11.578
G0 X5.188 Y10.824
;TYPE:SKIN
G1 F1800 X5.64 Y10.796 E8.37415
G1 X6.094 Y10.938 E8.39788
G1 X6.696 Y10.592 E8.43252
G1 X7.143 Y10.294 E8.45932
G1 X7.599 Y9.961 E8.48749
G1 X8.341 Y9.346 E8.53557
G1 X9.007 Y8.721 E8.58114
G1 X9.477 Y8.195 E8.61633
G1 X9.854 Y7.736 E8.64597
G1 X10.106 Y7.324 E8.67006
G1 X10.428 Y6.944 E8.69491
G1 X10.896 Y6.204 E8.73859
G1 X11.216 Y5.58 E8.77358
G1 X11.478 Y5.018 E8.80451
G1 X11.815 Y4.175 E8.84981
G1 X12.106 Y3.267 E8.89738
G1 X12.347 Y2.189 E8.95249
G1 X12.265 Y1.724 E8.97604
G1 X12.291 Y1.395 E8.99251
G1 X12.49 Y0.944 E9.0171
G1 X12.529 Y0.091 E9.0597
G1 X12.519 Y-.513 E9.08984
G1 X12.482 Y-1.081 E9.11824
G1 X12.354 Y-2.088 E9.16888
G1 X12.189 Y-2.923 E9.21135
G1 X12.001 Y-3.6 E9.2464
G1 X11.814 Y-4.177 E9.27666
G1 X11.575 Y-4.67 E9.304
G1 X11.449 Y-5.084 E9.32558
G1 X11.092 Y-5.847 E9.36761
G1 X10.724 Y-6.481 E9.40418
G1 X10.416 Y-6.962 E9.43268
G1 X9.855 Y-7.738 E9.48045
G1 X9.275 Y-8.438 E9.52581
G1 X8.612 Y-9.092 E9.57227
G1 X8.07 Y-9.09 E9.59931
G1 X7.707 Y-9.25 E9.6191
G1 X7.527 Y-9.418 E9.63138
G1 X7.361 Y-9.715 E9.64836
G1 X7.286 Y-10.197 E9.67269
G1 X6.525 Y-10.707 E9.7184
G1 X5.719 Y-11.145 E9.76416
G1 X4.853 Y-11.551 E9.81188
G1 X4.308 Y-11.767 E9.84113
G1 X3.675 Y-11.985 E9.87453
G1 X2.801 Y-12.209 E9.91954
G1 X2.302 Y-12.265 E9.94459
G1 X1.84 Y-12.391 E9.96849
G1 X1.264 Y-12.465 E9.99746
G1 X0.565 Y-12.525 E10.03246
G1 X-.296 Y-12.527 E10.07542
G1 X-1.254 Y-12.466 E10.12331
G1 X-1.874 Y-12.389 E10.15448
G1 X-2.545 Y-12.276 E10.18842
G1 X-3.316 Y-12.075 E10.22818
G1 X-3.615 Y-11.859 E10.24658
G1 X-3.88 Y-11.733 E10.26122
G1 X-4.461 Y-11.706 E10.29023
G1 X-5.174 Y-11.42 E10.32856
G1 X-5.797 Y-11.107 E10.36335
G1 X-6.297 Y-10.83 E10.39186
G1 X-7.106 Y-10.318 E10.43963
G1 X-7.608 Y-9.953 E10.47059
G1 X-8.161 Y-9.515 E10.50579
G1 X-8.805 Y-8.91 E10.54987
G1 X-9.083 Y-8.56 E10.57217
G1 X-9.475 Y-8.196 E10.59886
G1 X-10.035 Y-7.519 E10.64269
G1 X-10.431 Y-6.943 E10.67757
G1 X-10.767 Y-6.407 E10.70913
G1 X-11.196 Y-5.622 E10.75376
G1 X-11.461 Y-5.057 E10.78489
G1 X-11.661 Y-4.592 E10.81014
G1 X-11.895 Y-3.956 E10.84395
G1 X-11.668 Y-3.572 E10.86621
G1 X-11.609 Y-3.312 E10.87951
G1 X-11.632 Y-3.001 E10.89507
G1 X-11.748 Y-2.717 E10.91037
G1 X-12.002 Y-2.438 E10.9292
G1 X-12.319 Y-2.251 E10.94756
G1 X-12.417 Y-1.741 E10.97347
G1 X-12.484 Y-1.059 E11.00766
G1 X-12.522 Y-.431 E11.03905
G1 X-12.521 Y0.467 E11.08385
G1 X-12.464 Y1.368 E11.12889
G1 X-12.356 Y2.074 E11.16452
G1 X-12.239 Y2.661 E11.19438
G1 X-12.071 Y3.173 E11.22127
G1 X-12.002 Y3.583 E11.24201
G1 X-11.755 Y4.373 E11.2833
G1 X-11.449 Y5.084 E11.32192
G1 X-11.206 Y5.604 E11.35056
G1 X-10.746 Y6.443 E11.39829
G1 X-10.413 Y6.97 E11.42939
G1 X-10.006 Y7.556 E11.46499
G1 X-9.541 Y8.115 E11.50127
G1 X-9.066 Y8.363 E11.528
G1 X-8.824 Y8.65 E11.54673
G1 X-8.655 Y9.072 E11.56941
G1 X-7.798 Y9.817 E11.62606
G1 X-7.07 Y10.342 E11.67084
G1 X-6.315 Y10.819 E11.7154
G1 X-5.762 Y11.124 E11.7469
G1 X-5.079 Y11.464 E11.78497
G1 X-4.339 Y11.751 E11.82456
G1 X-3.837 Y11.849 E11.85008
G1 X-3.354 Y12.07 E11.87658
G1 X-2.499 Y12.286 E11.92058
G1 X-1.844 Y12.392 E11.95368
G1 X-1.234 Y12.467 E11.98434
G1 X-.655 Y12.482 E12.01324
G1 X-.287 Y12.525 E12.03172
G1 X0.577 Y12.525 E12.07483
G1 X1.302 Y12.462 E12.11114
G1 X1.858 Y12.39 E12.13911
G1 X2.687 Y12.233 E12.1812
G1 X3.402 Y12.057 E12.21794
G1 X3.888 Y11.913 E12.24323
G1 X4.493 Y11.688 E12.27543
G1 X4.608 Y11.305 E12.29538
G1 X4.762 Y11.089 E12.30861
G1 X5.188 Y10.824 E12.33364
G0 F3600 X5.22 Y10.728
G0 X-6.516 Y10.453
G1 F1800 X-10.476 Y6.494 E12.61301
G1 X-10.546 Y6.424
G0 F3600 X-11.146 Y5.258
G1 F1800 X-5.271 Y11.133 E13.02752
G1 X-5.201 Y11.203
G0 F3600 X-4.281 Y11.557
G1 F1800 X-11.58 Y4.258 E13.5425
G1 X-11.65 Y4.188
G0 F3600 X-11.821 Y3.452
G1 F1800 X-3.483 Y11.789 E14.13076
G1 X-3.413 Y11.859
G0 F3600 X-2.673 Y12.034
G1 F1800 X-12.017 Y2.689 E14.79007
G0 F3600 X-12.168 Y1.973
G1 F1800 X-1.974 Y12.167 E15.50931
G0 F3600 X-1.322 Y12.254
G1 F1800 X-12.266 Y1.309 E16.2815
G0 F3600 X-12.305 Y0.705
G1 F1800 X-.732 Y12.278 E17.09804
G0 F3600 X-.12 Y12.324
G1 F1800 X-12.321 Y0.123 E17.95889
G0 F3600 X-12.32 Y-.441
G1 F1800 X0.444 Y12.324 E18.85949
G0 F3600 X0.975 Y12.288
G1 F1800 X-12.288 Y-.975 E19.79527
G0 F3600 X-12.24 Y-1.491
G1 F1800 X1.487 Y12.235 E20.76374
G0 F3600 X1.979 Y12.161
G1 F1800 X-12.166 Y-1.984 E21.76175
G0 F3600 X-11.889 Y-2.272
G1 F1800 X2.455 Y12.071 E22.77376
G0 F3600 X2.918 Y11.969
G1 F1800 X-11.617 Y-2.566 E23.79928
G0 F3600 X-11.439 Y-2.954
G1 F1800 X3.372 Y11.857 E24.84428
G0 F3600 X3.808 Y11.728
G1 F1800 X-11.457 Y-3.538 E25.92134
G0 F3600 X-11.58 Y-4.227
G1 F1800 X4.221 Y11.575 E27.03623
G0 F3600 X4.43 Y11.218
G1 F1800 X-11.429 Y-4.641 E28.15516
G0 F3600 X-11.252 Y-5.029
G1 F1800 X4.679 Y10.902 E29.27918
G0 F3600 X5.04 Y10.697
G1 F1800 X-11.071 Y-5.415 E30.41593
G0 F3600 X-10.878 Y-5.786
G1 F1800 X5.514 Y10.605 E31.57244
G0 F3600 X6.149 Y10.674
G1 F1800 X-10.678 Y-6.152 E32.75964
G0 F3600 X-10.468 Y-6.508
G1 F1800 X6.508 Y10.468 E33.95739
G0 F3600 X6.851 Y10.245
G1 F1800 X-10.248 Y-6.854 E35.16382
G0 F3600 X-10.018 Y-7.189
G1 F1800 X7.185 Y10.014 E36.37758
G0 F3600 X7.51 Y9.773
G1 F1800 X-9.777 Y-7.515 E37.59731
G0 F3600 X-9.521 Y-7.824
G1 F1800 X7.819 Y9.516 E38.82074
G0 F3600 X8.129 Y9.26
G1 F1800 X-9.256 Y-8.124 E40.04731
G0 F3600 X-8.961 Y-8.396
G1 F1800 X8.425 Y8.99 E41.27399
G0 F3600 X8.717 Y8.717
G1 F1800 X-8.709 Y-8.709 E42.50349
G0 F3600 X-8.425 Y-8.99
G1 F1800 X8.996 Y8.43 E43.7326
G0 F3600 X9.263 Y8.132
G1 F1800 X-8.133 Y-9.264 E44.95998
G0 F3600 X-7.826 Y-9.523
G1 F1800 X9.521 Y7.824 E46.1839
G0 F3600 X9.763 Y7.5
G1 F1800 X-7.51 Y-9.773 E47.40261
G0 F3600 X-7.184 Y-10.012
G1 F1800 X9.985 Y7.156 E48.61394
G0 F3600 X10.244 Y6.85
G1 F1800 X-6.849 Y-10.243 E49.81994
G0 F3600 X-6.502 Y-10.462
G1 F1800 X10.467 Y6.507 E51.01719
G0 F3600 X10.686 Y6.161
G1 F1800 X-6.153 Y-10.679 E52.20531
G0 F3600 X-5.789 Y-10.88
G1 F1800 X10.882 Y5.791 E53.38154
G0 F3600 X11.071 Y5.415
G1 F1800 X-5.424 Y-11.081 E54.54539
G0 F3600 X-5.026 Y-11.249
G1 F1800 X11.251 Y5.028 E55.69382
G0 F3600 X11.417 Y4.629
G1 F1800 X-4.629 Y-11.417 E56.82595
G0 F3600 X-4.166 Y-11.52
G1 F1800 X11.579 Y4.225 E57.93685
G0 F3600 X11.723 Y3.804
G1 F1800 X-3.688 Y-11.608 E59.02421
G0 F3600 X-3.331 Y-11.816
G1 F1800 X11.861 Y3.375 E60.09605
G0 F3600 X11.976 Y2.926
G1 F1800 X-2.918 Y-11.969 E61.14694
G0 F3600 X-2.467 Y-12.084
G1 F1800 X12.08 Y2.463 E62.17331
G0 F3600 X12.102 Y1.919
G1 F1800 X-1.983 Y-12.165 E63.16705
G0 F3600 X-1.486 Y-12.234
G1 F1800 X12.097 Y1.349 E64.1254
G0 F3600 X12.267 Y0.953
G1 F1800 X-.968 Y-12.282 E65.0592
G0 F3600 X-.436 Y-12.316
G1 F1800 X12.312 Y0.432 E65.95864
G0 F3600 X12.334 Y-.111
G1 F1800 X0.12 Y-12.324 E66.82037
G0 F3600 X0.699 Y-12.311
G1 F1800 X12.305 Y-.704 E67.63927
G0 F3600 X12.248 Y-1.327
G1 F1800 X1.321 Y-12.254 E68.41023
G0 F3600 X2.005 Y-12.136
G1 F1800 X12.165 Y-1.976 E69.12707
G0 F3600 X12.033 Y-2.674
G1 F1800 X2.688 Y-12.019 E69.78641
G0 F3600 X3.434 Y-11.839
G1 F1800 X11.837 Y-3.435 E70.37933
G1 X11.907 Y-3.365
G0 F3600 X11.524 Y-4.314
G1 F1800 X4.274 Y-11.564 E70.89085
G1 X4.204 Y-11.634
G0 F3600 X5.272 Y-11.131
G1 F1800 X11.146 Y-5.258 E71.30526
G1 X11.216 Y-5.188
G0 F3600 X10.479 Y-6.491
G1 F1800 X8.061 Y-8.908 E71.47583
G1 X7.991 Y-8.978
G0 F3600 X7.135 Y-9.835
G1 F1800 X6.462 Y-10.507 E71.52328
G1 X6.392 Y-10.577
G0 F3600 X6.366 Y-10.535
;MESH:NONMESH
G0 F600 X6.366 Y-10.535 Z0.5
G0 F3600 X4.629 Y11.425
G0 X5.029 Y11.512
;TIME_ELAPSED:52.410384
;LAYER:1
;TYPE:WALL-INNER
;MESH:barbarian small.stl
G1 F2700 X5.158 Y11.38 E71.52941
G1 X5.357 Y11.267 E71.53703
G1 X5.651 Y11.216 E71.54695
G1 X6.148 Y11.364 E71.5642
G1 X6.93 Y10.896 E71.59451
G1 X7.73 Y10.353 E71.62667
G1 X8.77 Y9.488 E71.67166
G1 X9.421 Y8.83 E71.70245
G1 X10.124 Y8.037 E71.73769
G1 X10.463 Y7.492 E71.75904
G1 X10.804 Y7.092 E71.77652
