;FLAVOR:Marlin
;TIME:2175
;Filament used: 1.47623m
;Layer height: 0.2
;MINX:-13.335
;MINY:-18.099
;MINZ:0.3
;MAXX:13.186
;MAXY:16.947
;MAXZ:40.3
;Generated with Cura_SteamEngine 5.2.1
M140 S60
M105
M190 S60
M104 S205
M105
M109 S205
M82 ;absolute extrusion mode
G28 ;Home
G1 Z15.0 F6000 ;Move the platform down 15mm
;Prime the extruder
G92 E0
G1 F200 E3
G92 E0
M141 S28
G92 E0
G92 E0
G1 F1500 E-6.5
;LAYER_COUNT:201
;LAYER:0
M107
G0 F3600 X5.248 Y-8.001 Z0.3
;TYPE:SUPPORT
G1 F1500 E0
G1 F1800 X7.434 Y-8 E0.10906
G0 F3600 X5.334 Y-7.974
G1 F1800 X5.334 Y-11.567 E0.28832
G0 F3600 X4.933 Y-10.668
G1 F1800 X7.588 Y-10.668 E0.42077
G0 F3600 X8.001 Y-11.434
G1 F1800 X8.001 Y-13.82 E0.53981
G0 F3600 X8.001 Y-14.408
G1 F1800 X8.001 Y-18.099 E0.72396
G0 F3600 X6.84 Y-16.002
G1 F1800 X11.015 Y-16.002 E0.93225
G0 F3600 X10.668 Y-15.01
G1 F1800 X10.668 Y-17.241 E1.04355
G1 F1500 E-5.45645
G0 F3600 X9.277 Y-13.335
G1 F1500 E1.04355
G1 F1800 X7.434 Y-13.335 E1.1355
G1 F1500 E-5.3645
G0 F3600 X-5.633 Y-6.728
G0 X-7.284 Y-5.608
G0 X-8.756 Y-4.238
G0 X-9.999 Y-2.663
G0 X-10.98 Y-.935
G0 X-11.686 Y0.915
G0 X-12.097 Y2.776
G0 X-12.239 Y4.902
G0 X-12.021 Y7.029
G0 X-11.07 Y10.668
G1 F1500 E1.1355
G1 F1800 X-12.318 Y10.668 E1.19776
G0 F3600 X-10.668 Y11.409
G1 F1800 X-10.668 Y14.192 E1.33661
G0 F3600 X-11.955 Y13.335
G1 F1800 X-9.302 Y13.335 E1.46897
G1 F1500 E-5.03103
G0 F3600 X-13.335 Y12.461
G1 F1500 E1.46897
G1 F1800 X-13.335 Y12.273 E1.47835
G1 F1500 E-5.02165
G0 F3600 X-8.001 Y14.669
G1 F1500 E1.47835
G1 F1800 X-8.001 Y15.02 E1.49586
G1 F1500 E-5.00414
;MESH:wizard good.stl
G0 F3600 X-7.704 Y13.108
G0 X-10.675 Y4.874
G1 F1500 E1.49586
G0 F3600 X-10.974 Y4.878
;TYPE:WALL-INNER
G1 F1800 X-10.927 Y5.653 E1.53459
G1 X-10.865 Y6.228 E1.56345
G1 X-10.776 Y6.8 E1.59233
G1 X-10.662 Y7.345 E1.62011
G1 X-10.525 Y7.881 E1.64771
G1 X-10.355 Y8.439 E1.67681
G1 X-10.157 Y8.981 E1.7056
G1 X-9.931 Y9.523 E1.73489
G1 X-9.676 Y10.056 E1.76437
G1 X-9.395 Y10.576 E1.79386
G1 X-9.084 Y11.086 E1.82366
G1 X-8.744 Y11.586 E1.85383
G1 X-8.383 Y12.066 E1.88379
G1 X-7.99 Y12.534 E1.91428
G1 X-7.58 Y12.977 E1.9444
G1 X-7.143 Y13.4 E1.97474
G1 X-6.688 Y13.798 E2.0049
G1 X-6.212 Y14.173 E2.03513
G1 X-5.721 Y14.52 E2.06513
G1 X-5.214 Y14.844 E2.09514
G1 X-4.695 Y15.137 E2.12488
G1 X-4.158 Y15.41 E2.15493
G1 X-3.605 Y15.652 E2.18505
G1 X-3.048 Y15.867 E2.21484
G1 X-2.475 Y16.052 E2.24488
G1 X-1.924 Y16.2 E2.27334
G1 X-1.362 Y16.324 E2.30205
G1 X-.805 Y16.419 E2.33024
G1 X-.251 Y16.486 E2.35808
G1 X0.327 Y16.528 E2.387
G1 X1.115 Y16.547 E2.42632
G1 X1.892 Y16.501 E2.46515
G1 X2.465 Y16.44 E2.4939
G1 X3.038 Y16.35 E2.52284
G1 X3.582 Y16.236 E2.55057
G1 X4.131 Y16.095 E2.57885
G1 X4.664 Y15.932 E2.60665
G1 X5.221 Y15.73 E2.63621
G1 X5.759 Y15.505 E2.66531
G1 X6.292 Y15.25 E2.69479
G1 X6.817 Y14.967 E2.72454
G1 X7.327 Y14.657 E2.75432
G1 X7.826 Y14.319 E2.78439
G1 X8.306 Y13.957 E2.81438
G1 X8.768 Y13.565 E2.84461
G1 X9.214 Y13.152 E2.87493
G1 X9.637 Y12.715 E2.90528
G1 X10.035 Y12.26 E2.93544
G1 X10.411 Y11.783 E2.96574
G1 X10.761 Y11.293 E2.99578
G1 X11.083 Y10.787 E3.0257
G1 X11.375 Y10.269 E3.05537
G1 X11.648 Y9.73 E3.08551
G1 X11.889 Y9.179 E3.11552
G1 X12.108 Y8.608 E3.14603
G1 X12.284 Y8.062 E3.17465
G1 X12.437 Y7.497 E3.20385
G1 X12.561 Y6.936 E3.23251
G1 X12.656 Y6.378 E3.26075
G1 X12.723 Y5.825 E3.28854
G1 X12.766 Y5.245 E3.31756
G1 X12.773 Y4.958 E3.33188
G1 X12.786 Y4.454 E3.35704
G1 X12.738 Y3.682 E3.39563
G1 X12.676 Y3.109 E3.42438
G1 X12.587 Y2.535 E3.45336
G1 X12.474 Y1.991 E3.48108
G1 X12.337 Y1.457 E3.50858
G1 X12.166 Y0.897 E3.53779
G1 X11.969 Y0.353 E3.56666
G1 X11.742 Y-.185 E3.59579
G1 X11.487 Y-.719 E3.62532
G1 X11.206 Y-1.241 E3.65489
G1 X10.896 Y-1.751 E3.68467
G1 X10.557 Y-2.25 E3.71476
G1 X10.194 Y-2.729 E3.74475
G1 X9.801 Y-3.197 E3.77524
G1 X9.388 Y-3.642 E3.80553
G1 X8.955 Y-4.063 E3.83566
G1 X8.497 Y-4.463 E3.86599
G1 X8.023 Y-4.837 E3.89612
G1 X7.533 Y-5.184 E3.92607
G1 X7.025 Y-5.507 E3.95611
G1 X6.506 Y-5.802 E3.98589
G1 X5.969 Y-6.074 E4.01592
G1 X5.417 Y-6.315 E4.04597
G1 X4.86 Y-6.53 E4.07576
G1 X4.286 Y-6.716 E4.10586
G1 X3.737 Y-6.862 E4.1342
G1 X3.173 Y-6.987 E4.16302
G1 X2.617 Y-7.082 E4.19116
G1 X2.062 Y-7.149 E4.21905
G1 X1.485 Y-7.192 E4.24792
G1 X0.691 Y-7.212 E4.28755
G1 X-0.081 Y-7.164 E4.32614
G1 X-.653 Y-7.102 E4.35484
G1 X-1.228 Y-7.013 E4.38387
G1 X-1.772 Y-6.9 E4.41159
G1 X-2.32 Y-6.759 E4.43982
G1 X-2.853 Y-6.595 E4.46764
G1 X-3.409 Y-6.394 E4.49714
G1 X-3.948 Y-6.168 E4.5263
G1 X-4.481 Y-5.914 E4.55575
G1 X-5.005 Y-5.63 E4.58549
G1 X-5.515 Y-5.321 E4.61524
G1 X-6.014 Y-4.983 E4.64531
G1 X-6.495 Y-4.62 E4.67537
G1 X-6.957 Y-4.228 E4.7056
G1 X-7.403 Y-3.815 E4.73592
G1 X-7.825 Y-3.379 E4.7662
G1 X-8.224 Y-2.923 E4.79643
G1 X-8.599 Y-2.447 E4.82666
G1 X-8.949 Y-1.956 E4.85674
G1 X-9.272 Y-1.45 E4.88669
G1 X-9.563 Y-.933 E4.91629
G1 X-9.836 Y-.393 E4.94648
G1 X-10.078 Y0.157 E4.97645
G1 X-10.297 Y0.727 E5.00692
G1 X-10.472 Y1.275 E5.03562
G1 X-10.626 Y1.84 E5.06483
G1 X-10.75 Y2.401 E5.0935
G1 X-10.845 Y2.959 E5.12174
G1 X-10.912 Y3.512 E5.14953
G1 X-10.954 Y4.091 E5.17849
G1 X-10.974 Y4.878 E5.21777
G0 F3600 X-11.374 Y4.885
;TYPE:WALL-OUTER
G1 F1800 X-11.326 Y5.687 E5.25785
G1 X-11.262 Y6.28 E5.28761
G1 X-11.17 Y6.872 E5.3175
G1 X-11.052 Y7.436 E5.34624
G1 X-10.91 Y7.989 E5.37473
G1 X-10.735 Y8.566 E5.40481
G1 X-10.529 Y9.127 E5.43463
G1 X-10.296 Y9.686 E5.46484
G1 X-10.033 Y10.237 E5.4953
G1 X-9.742 Y10.776 E5.52586
G1 X-9.42 Y11.303 E5.55667
G1 X-9.07 Y11.819 E5.58778
G1 X-8.696 Y12.315 E5.61877
G1 X-8.29 Y12.799 E5.65029
G1 X-7.866 Y13.257 E5.68143
G1 X-7.414 Y13.694 E5.71279
G1 X-6.944 Y14.106 E5.74397
G1 X-6.452 Y14.493 E5.7752
G1 X-5.945 Y14.852 E5.8062
G1 X-5.42 Y15.187 E5.83727
G1 X-4.884 Y15.49 E5.86799
G1 X-4.329 Y15.772 E5.89904
G1 X-3.757 Y16.022 E5.93019
G1 X-3.182 Y16.244 E5.96094
G1 X-2.589 Y16.436 E5.99204
G1 X-2.019 Y16.588 E6.02147
G1 X-1.439 Y16.717 E6.05111
G1 X-.863 Y16.815 E6.08026
G1 X-.29 Y16.884 E6.10905
G1 X0.308 Y16.928 E6.13897
G1 X1.122 Y16.947 E6.17959
G1 X1.925 Y16.9 E6.21972
G1 X2.517 Y16.836 E6.24943
G1 X3.11 Y16.744 E6.27937
G1 X3.673 Y16.626 E6.30807
G1 X4.239 Y16.48 E6.33723
G1 X4.79 Y16.312 E6.36597
G1 X5.367 Y16.103 E6.39658
G1 X5.923 Y15.87 E6.42666
G1 X6.474 Y15.607 E6.45712
G1 X7.016 Y15.314 E6.48786
G1 X7.543 Y14.994 E6.51862
G1 X8.059 Y14.644 E6.54972
G1 X8.556 Y14.269 E6.58079
G1 X9.034 Y13.865 E6.61201
G1 X9.494 Y13.438 E6.64332
G1 X9.931 Y12.986 E6.67469
G1 X10.343 Y12.516 E6.70587
G1 X10.731 Y12.023 E6.73717
G1 X11.093 Y11.517 E6.76821
G1 X11.426 Y10.993 E6.79919
G1 X11.728 Y10.458 E6.82984
G1 X12.01 Y9.901 E6.86098
G1 X12.259 Y9.331 E6.89202
G1 X12.486 Y8.741 E6.92355
G1 X12.668 Y8.176 E6.95317
G1 X12.825 Y7.593 E6.98329
G1 X12.954 Y7.013 E7.01293
G1 X13.052 Y6.436 E7.04213
G1 X13.121 Y5.864 E7.07088
G1 X13.166 Y5.265 E7.10085
G1 X13.173 Y4.968 E7.11567
G1 X13.186 Y4.447 E7.14167
G1 X13.137 Y3.648 E7.18161
G1 X13.073 Y3.057 E7.21126
G1 X12.981 Y2.463 E7.24125
G1 X12.864 Y1.901 E7.26989
G1 X12.722 Y1.349 E7.29833
G1 X12.546 Y0.771 E7.32847
G1 X12.341 Y0.207 E7.35841
G1 X12.107 Y-.349 E7.38851
G1 X11.844 Y-.9 E7.41897
G1 X11.553 Y-1.44 E7.44957
G1 X11.232 Y-1.967 E7.48035
G1 X10.882 Y-2.483 E7.51146
G1 X10.507 Y-2.978 E7.54244
G1 X10.101 Y-3.462 E7.57396
G1 X9.674 Y-3.922 E7.60527
G1 X9.226 Y-4.357 E7.63643
G1 X8.753 Y-4.771 E7.66779
G1 X8.263 Y-5.157 E7.69891
G1 X7.756 Y-5.516 E7.7299
G1 X7.231 Y-5.85 E7.76095
G1 X6.695 Y-6.154 E7.79169
G1 X6.14 Y-6.436 E7.82275
G1 X5.569 Y-6.685 E7.85382
G1 X4.994 Y-6.907 E7.88458
G1 X4.4 Y-7.1 E7.91574
G1 X3.832 Y-7.251 E7.94506
G1 X3.25 Y-7.38 E7.9748
G1 X2.675 Y-7.478 E8.0039
G1 X2.101 Y-7.547 E8.03274
G1 X1.505 Y-7.592 E8.06256
G1 X0.684 Y-7.612 E8.10353
G1 X-.115 Y-7.563 E8.14347
G1 X-.705 Y-7.499 E8.17308
G1 X-1.3 Y-7.407 E8.20312
G1 X-1.862 Y-7.29 E8.23175
G1 X-2.428 Y-7.144 E8.26092
G1 X-2.979 Y-6.975 E8.28967
G1 X-3.555 Y-6.767 E8.32022
G1 X-4.112 Y-6.533 E8.35036
G1 X-4.663 Y-6.27 E8.38083
G1 X-5.204 Y-5.977 E8.41152
G1 X-5.731 Y-5.658 E8.44225
G1 X-6.247 Y-5.308 E8.47336
G1 X-6.745 Y-4.932 E8.50449
G1 X-7.223 Y-4.528 E8.53572
G1 X-7.683 Y-4.101 E8.56703
G1 X-8.119 Y-3.65 E8.59833
G1 X-8.532 Y-3.179 E8.62958
G1 X-8.919 Y-2.687 E8.66081
G1 X-9.281 Y-2.18 E8.69189
G1 X-9.615 Y-1.656 E8.72289
G1 X-9.916 Y-1.121 E8.75351
G1 X-10.198 Y-.564 E8.78466
G1 X-10.448 Y0.005 E8.81567
G1 X-10.675 Y0.595 E8.84721
G1 X-10.856 Y1.161 E8.87685
G1 X-11.014 Y1.744 E8.90699
G1 X-11.143 Y2.324 E8.93663
G1 X-11.241 Y2.901 E8.96583
G1 X-11.31 Y3.473 E8.99458
G1 X-11.354 Y4.071 E9.02449
G1 X-11.374 Y4.885 E9.06511
G0 F3600 X-11.363 Y5.084
G0 X-10.593 Y4.873
;TYPE:SKIN
G1 F1800 X-10.548 Y5.622 E9.10255
G1 X-10.488 Y6.176 E9.13035
G1 X-10.402 Y6.73 E9.15832
G1 X-10.29 Y7.259 E9.1853
G1 X-10.157 Y7.779 E9.21207
G1 X-9.996 Y8.317 E9.24009
G1 X-9.802 Y8.839 E9.26787
G1 X-9.583 Y9.367 E9.29639
G1 X-9.337 Y9.883 E9.32491
G1 X-9.066 Y10.386 E9.35342
G1 X-8.764 Y10.878 E9.38222
G1 X-8.435 Y11.364 E9.4115
G1 X-8.086 Y11.829 E9.4405
G1 X-7.705 Y12.282 E9.47004
G1 X-7.308 Y12.71 E9.49916
G1 X-6.885 Y13.119 E9.52852
G1 X-6.445 Y13.504 E9.55768
G1 X-5.985 Y13.868 E9.58695
G1 X-5.509 Y14.204 E9.61602
G1 X-5.018 Y14.517 E9.64507
G1 X-4.515 Y14.801 E9.67389
G1 X-3.996 Y15.066 E9.70296
G1 X-3.459 Y15.302 E9.73222
G1 X-2.923 Y15.509 E9.76089
G1 X-2.368 Y15.687 E9.78997
G1 X-1.833 Y15.829 E9.81758
G1 X-1.289 Y15.951 E9.8454
G1 X-.751 Y16.043 E9.87263
G1 X-.214 Y16.107 E9.89961
G1 X0.346 Y16.148 E9.92762
G1 X1.107 Y16.166 E9.9656
G1 X1.859 Y16.122 E10.00318
G1 X2.415 Y16.062 E10.03108
G1 X2.968 Y15.976 E10.059
G1 X3.496 Y15.864 E10.08593
G1 X4.015 Y15.731 E10.11266
G1 X4.542 Y15.572 E10.14012
G1 X5.083 Y15.375 E10.16885
G1 X5.603 Y15.157 E10.19698
G1 X6.12 Y14.911 E10.22554
G1 X6.629 Y14.635 E10.25443
G1 X7.122 Y14.338 E10.28314
G1 X7.606 Y14.009 E10.31234
G1 X8.069 Y13.66 E10.34127
G1 X8.517 Y13.281 E10.37054
G1 X8.946 Y12.88 E10.39984
G1 X9.357 Y12.455 E10.42934
G1 X9.742 Y12.016 E10.45847
G1 X10.107 Y11.553 E10.48788
G1 X10.446 Y11.08 E10.51691
G1 X10.757 Y10.59 E10.54587
G1 X11.039 Y10.089 E10.57455
G1 X11.304 Y9.566 E10.6038
G1 X11.539 Y9.033 E10.63286
G1 X11.756 Y8.469 E10.66301
G1 X11.918 Y7.953 E10.68999
G1 X12.066 Y7.405 E10.71831
G1 X12.188 Y6.863 E10.74603
G1 X12.279 Y6.324 E10.7733
G1 X12.344 Y5.787 E10.80029
G1 X12.386 Y5.227 E10.82831
G1 X12.393 Y4.952 E10.84203
G1 X12.405 Y4.461 E10.86653
G1 X12.359 Y3.714 E10.90387
G1 X12.299 Y3.158 E10.93177
G1 X12.213 Y2.604 E10.95974
G1 X12.102 Y2.077 E10.98661
G1 X11.973 Y1.573 E11.01257
G1 X11.806 Y1.02 E11.04139
G1 X11.614 Y0.493 E11.06937
G1 X11.394 Y-0.028 E11.09758
G1 X11.148 Y-.546 E11.12619
G1 X10.875 Y-1.052 E11.15488
G1 X10.575 Y-1.544 E11.18363
G1 X10.247 Y-2.028 E11.2128
G1 X9.898 Y-2.488 E11.2416
G1 X9.517 Y-2.947 E11.27136
G1 X9.115 Y-3.375 E11.30066
G1 X8.697 Y-3.783 E11.3298
G1 X8.254 Y-4.17 E11.35915
G1 X7.795 Y-4.532 E11.38831
G1 X7.321 Y-4.867 E11.41727
G1 X6.829 Y-5.18 E11.44636
G1 X6.325 Y-5.466 E11.47527
G1 X5.807 Y-5.73 E11.50428
G1 X5.271 Y-5.965 E11.53348
G1 X4.734 Y-6.172 E11.56219
G1 X4.165 Y-6.355 E11.59201
G1 X3.647 Y-6.492 E11.61874
G1 X3.099 Y-6.614 E11.64675
G1 X2.562 Y-6.706 E11.67393
G1 X2.023 Y-6.77 E11.70101
G1 X1.467 Y-6.812 E11.72883
G1 X0.699 Y-6.831 E11.76716
G1 X-0.049 Y-6.785 E11.80454
G1 X-.602 Y-6.725 E11.8323
G1 X-1.16 Y-6.639 E11.86046
G1 X-1.672 Y-6.532 E11.88656
G1 X-2.203 Y-6.395 E11.91392
G1 X-2.731 Y-6.235 E11.94144
G1 X-3.269 Y-6.04 E11.96999
G1 X-3.791 Y-5.82 E11.99825
G1 X-4.309 Y-5.574 E12.02686
G1 X-4.815 Y-5.3 E12.05557
G1 X-5.307 Y-5.002 E12.08427
G1 X-5.791 Y-4.673 E12.11347
G1 X-6.254 Y-4.324 E12.14239
G1 X-6.707 Y-3.944 E12.17189
G1 X-7.137 Y-3.543 E12.20123
G1 X-7.545 Y-3.121 E12.23051
G1 X-7.929 Y-2.68 E12.25968
G1 X-8.295 Y-2.217 E12.28913
G1 X-8.634 Y-1.743 E12.3182
G1 X-8.946 Y-1.253 E12.34718
G1 X-9.228 Y-.752 E12.37587
G1 X-9.492 Y-.229 E12.40509
G1 X-9.727 Y0.302 E12.43406
G1 X-9.944 Y0.868 E12.46431
G1 X-10.106 Y1.383 E12.49124
G1 X-10.256 Y1.932 E12.51963
G1 X-10.377 Y2.475 E12.54739
G1 X-10.469 Y3.013 E12.57462
G1 X-10.533 Y3.549 E12.60155
G1 X-10.574 Y4.109 E12.62956
G1 X-10.593 Y4.873 E12.66769
G0 F3600 X-8.805 Y10.427
G1 F1800 X-4.856 Y14.376 E12.94631
G1 X-4.786 Y14.446
G0 F3600 X-3.683 Y14.984
G1 F1800 X-9.411 Y9.256 E13.35046
G1 X-9.481 Y9.186
G0 F3600 X-9.78 Y8.321
G1 F1800 X-2.747 Y15.354 E13.84667
G1 X-2.677 Y15.424
G0 F3600 X-1.944 Y15.591
G1 F1800 X-10.015 Y7.52 E14.41613
G0 F3600 X-10.185 Y6.785
G1 F1800 X-1.209 Y15.76 E15.0494
G0 F3600 X-.539 Y15.865
G1 F1800 X-10.293 Y6.111 E15.73759
G0 F3600 X-10.356 Y5.482
G1 F1800 X0.088 Y15.927 E16.47451
G0 F3600 X0.681 Y15.955
G1 F1800 X-10.391 Y4.881 E17.25577
G0 F3600 X-10.378 Y4.328
G1 F1800 X1.248 Y15.956 E18.07612
G0 F3600 X1.782 Y15.924
G1 F1800 X-10.349 Y3.792 E18.93206
G0 F3600 X-10.299 Y3.277
G1 F1800 X2.295 Y15.872 E19.82067
G0 F3600 X2.789 Y15.8
G1 F1800 X-10.226 Y2.783 E20.73902
G0 F3600 X-10.135 Y2.309
G1 F1800 X3.262 Y15.707 E21.68428
G0 F3600 X3.719 Y15.598
G1 F1800 X-10.026 Y1.852 E22.6541
G0 F3600 X-9.904 Y1.409
G1 F1800 X4.162 Y15.475 E23.64654
G0 F3600 X4.591 Y15.339
G1 F1800 X-9.769 Y0.978 E24.65975
G0 F3600 X-9.614 Y0.567
G1 F1800 X5.006 Y15.188 E25.6913
G0 F3600 X5.405 Y15.021
G1 F1800 X-9.448 Y0.168 E26.73926
G0 F3600 X-9.271 Y-.22
G1 F1800 X5.792 Y14.843 E27.80204
G0 F3600 X6.169 Y14.654
G1 F1800 X-9.082 Y-.596 E28.87804
G0 F3600 X-8.88 Y-.96
G1 F1800 X6.536 Y14.456 E29.96572
G0 F3600 X6.89 Y14.243
G1 F1800 X-8.669 Y-1.315 E31.06346
G0 F3600 X-8.447 Y-1.659
G1 F1800 X7.232 Y14.02 E32.1697
G0 F3600 X7.565 Y13.787
G1 F1800 X-8.212 Y-1.989 E33.28282
G0 F3600 X-7.966 Y-2.31
G1 F1800 X7.888 Y13.545 E34.40144
G0 F3600 X8.197 Y13.288
G1 F1800 X-7.713 Y-2.622 E35.52397
G0 F3600 X-7.45 Y-2.925
G1 F1800 X8.498 Y13.023 E36.64919
G0 F3600 X8.79 Y12.75
G1 F1800 X-7.175 Y-3.215 E37.77561
G0 F3600 X-6.891 Y-3.497
G1 F1800 X9.07 Y12.464 E38.90174
G0 F3600 X9.341 Y12.17
G1 F1800 X-6.598 Y-3.77 E40.02636
G0 F3600 X-6.291 Y-4.029
G1 F1800 X9.603 Y11.866 E41.1478
G0 F3600 X9.853 Y11.55
G1 F1800 X-5.977 Y-4.28 E42.26469
G0 F3600 X-5.654 Y-4.522
G1 F1800 X10.094 Y11.226 E43.3758
G0 F3600 X10.327 Y10.892
G1 F1800 X-5.317 Y-4.751 E44.47953
G0 F3600 X-4.97 Y-4.97
G1 F1800 X10.547 Y10.547 E45.57434
G0 F3600 X10.753 Y10.187
G1 F1800 X-4.614 Y-5.18 E46.65857
G0 F3600 X-4.247 Y-5.378
G1 F1800 X10.95 Y9.819 E47.7308
G0 F3600 X11.139 Y9.441
G1 F1800 X-3.865 Y-5.562 E48.78938
G0 F3600 X-3.473 Y-5.736
G1 F1800 X11.313 Y9.05 E49.83261
G0 F3600 X11.473 Y8.645
G1 F1800 X-3.07 Y-5.898 E50.8587
G0 F3600 X-2.654 Y-6.048
G1 F1800 X11.622 Y8.227 E51.86591
G0 F3600 X11.753 Y7.793
G1 F1800 X-2.219 Y-6.179 E52.85171
G0 F3600 X-1.772 Y-6.298
G1 F1800 X11.873 Y7.347 E53.81444
G0 F3600 X11.977 Y6.886
G1 F1800 X-1.31 Y-6.401 E54.75191
G0 F3600 X-.829 Y-6.486
G1 F1800 X12.061 Y6.404 E55.66137
G0 F3600 X12.128 Y5.905
G1 F1800 X-.329 Y-6.552 E56.54027
G0 F3600 X0.19 Y-6.598
G1 F1800 X12.172 Y5.384 E57.38567
G0 F3600 X12.194 Y4.84
G1 F1800 X0.724 Y-6.629 E58.1949
G0 F3600 X1.304 Y-6.614
G1 F1800 X12.193 Y4.273 E58.96311
G0 F3600 X12.153 Y3.667
G1 F1800 X1.907 Y-6.577 E59.68595
G0 F3600 X2.546 Y-6.503
G1 F1800 X12.075 Y3.025 E60.35824
G0 F3600 X11.951 Y2.334
G1 F1800 X3.239 Y-6.376 E60.97285
G0 F3600 X3.988 Y-6.194
G1 F1800 X11.766 Y1.584 E61.52163
G1 X11.836 Y1.654
G0 F3600 X11.491 Y0.743
G1 F1800 X4.828 Y-5.919 E61.9917
G1 X4.758 Y-5.989
G0 F3600 X5.81 Y-5.503
G1 F1800 X11.069 Y-.243 E62.36279
G1 X11.139 Y-.173
G0 F3600 X10.328 Y-1.551
G1 F1800 X7.124 Y-4.754 E62.58881
G1 X7.054 Y-4.824
G0 F3600 X7.034 Y-4.792
G1 F1500 E56.08881
;MESH:NONMESH
G0 F600 X7.034 Y-4.792 Z0.5
G0 F3600 X6.047 Y-6.237
G0 X6.481 Y-7.231
G0 X5.334 Y-11.275
;TIME_ELAPSED:49.782838
;LAYER:1
;TYPE:SUPPORT
G1 F1500 E62.58881
G1 F2700 X5.334 Y-8.182 E62.69169
G1 X4.366 Y-8.496 E62.72553
G1 X4.525 Y-8.946 E62.74141
G1 X5.112 Y-9.679 E62.77264
G1 X5.181 Y-10.767 E62.8089
G1 X5.316 Y-11.262 E62.82597
G1 X6.038 Y-11.764 E62.85521
G1 X6.088 Y-11.842 E62.8583
G1 X6.504 Y-12.157 E62.87565
G1 X6.797 Y-12.473 E62.88998
