; generated by Slic3r 1.2.9 on 2022-12-17 at 14:49:28

; external perimeters extrusion width = 0.40mm
; perimeters extrusion width = 0.48mm
; infill extrusion width = 0.48mm
; solid infill extrusion width = 0.48mm
; top infill extrusion width = 0.48mm
; support material extrusion width = 0.40mm

M107
M190 S60 ; set bed temperature
M104 S200 ; set temperature
G28 ; home all axes
G1 Z5 F5000 ; lift nozzle

M109 S200 ; wait for temperature to be reached
G21 ; set units to millimeters
G90 ; use absolute coordinates
M82 ; use absolute distances for extrusion
G92 E0
G1 Z0.400 F1800.000
G1 E-2.00000 F2400.00000
G92 E0
G1 X-8.252 Y-10.457 F1800.000
G1 E2.00000 F2400.00000
G1 X2.741 Y-19.132 E3.66317 F1800.000
G1 X4.772 Y-20.229 E3.93740
G1 X7.056 Y-20.574 E4.21162
G1 X9.030 Y-20.229 E4.44972
G1 X10.399 Y-19.771 E4.62108 F1800.000
G1 X12.430 Y-18.673 E4.89530
G1 X14.326 Y-16.301 E5.25596
G1 X15.106 Y-14.669 E5.47070
G1 X15.725 Y-12.489 E5.73992
G1 X17.299 Y2.190 E7.49320
G1 X17.354 Y2.976 E7.58676
G1 X17.370 Y3.898 E7.69639
G1 X17.307 Y5.196 E7.85071
G1 X17.173 Y6.295 E7.98221
G1 X16.928 Y7.552 E8.13428
G1 X16.722 Y8.342 E8.23124
G1 X16.362 Y9.447 E8.36927
G1 X16.055 Y10.229 E8.46904
G1 X15.705 Y11.000 E8.56959
G1 X15.478 Y11.452 E8.62963
G1 X15.072 Y12.186 E8.72927
G1 X14.437 Y13.182 E8.86956
G1 X13.940 Y13.868 E8.97018
G1 X13.406 Y14.530 E9.07115
G1 X13.071 Y14.913 E9.13159
G1 X12.484 Y15.531 E9.23281
G1 X11.866 Y16.118 E9.33405
G1 X10.952 Y16.885 E9.47576
G1 X10.548 Y17.191 E9.53598
G1 X9.853 Y17.673 E9.63643
G1 X8.846 Y18.285 E9.77638
G1 X8.109 Y18.674 E9.87537
G1 X7.359 Y19.024 E9.97358
G1 X6.601 Y19.333 E10.07084
G1 X5.836 Y19.601 E10.16714
G1 X5.068 Y19.830 E10.26227
G1 X4.300 Y20.020 E10.35625
G1 X3.526 Y20.172 E10.44994
G1 X2.721 Y20.291 E10.54657
G1 X1.451 Y20.397 E10.69799
G1 X0.528 Y20.414 E10.80763
G1 X-8.570 Y20.173 E11.88849
G1 X-10.833 Y19.716 E12.16271
G1 X-12.028 Y19.105 E12.32210
G1 X-15.651 Y16.771 E12.83397
G1 X-17.348 Y15.205 E13.10820
G1 X-18.414 Y13.157 E13.38242
G1 X-18.724 Y10.869 E13.65665
G1 X-18.431 Y9.150 E13.86373
G1 X-15.091 Y-1.661 E15.20756
G1 X-14.801 Y-2.445 E15.30690
G1 X-14.468 Y-3.222 E15.40728
G1 X-13.936 Y-4.281 E15.54798
G1 X-13.515 Y-5.006 E15.64755
G1 X-13.244 Y-5.430 E15.70734
G1 X-12.557 Y-6.398 E15.84830
G1 X-12.024 Y-7.060 E15.94927
G1 X-11.689 Y-7.443 E16.00972
G1 X-10.856 Y-8.301 E16.15168
G1 X-10.483 Y-8.648 E16.21217
G1 X-9.837 Y-9.202 E16.31327
G1 X-8.299 Y-10.419 E16.54622
G1 E14.54622 F2400.00000
G92 E0
G1 X-4.050 Y-2.879 F1800.000
G1 E2.00000 F2400.00000
G1 X-3.378 Y-3.312 E2.09494 F1800.000
G1 X-2.634 Y-3.690 E2.19405
G1 X-1.892 Y-3.980 E2.28866
G1 X-1.144 Y-4.192 E2.38100
G1 X-0.378 Y-4.331 E2.47352
G1 X0.406 Y-4.397 E2.56689
G1 X0.996 Y-4.395 E2.63692
G1 X1.841 Y-4.321 E2.73771 F1800.000
G1 X2.629 Y-4.167 E2.83310
G1 X3.422 Y-3.931 E2.93129
G1 X3.783 Y-3.793 E2.97721
G1 X4.530 Y-3.441 E3.07532
G1 X5.232 Y-3.018 E3.17258
G1 X5.894 Y-2.523 E3.27084
G1 X6.207 Y-2.249 E3.32020
G1 X6.505 Y-1.959 E3.36960
G1 X7.056 Y-1.337 E3.46827
G1 X7.305 Y-1.006 E3.51745
G1 X7.738 Y-0.334 E3.61239
G1 X8.117 Y0.409 E3.71149
G1 X8.406 Y1.151 E3.80610
G1 X8.618 Y1.900 E3.89844
G1 X8.757 Y2.666 E3.99096
G1 X8.823 Y3.447 E4.08401
G1 X8.818 Y4.126 E4.16471
G1 X8.743 Y4.907 E4.25782
G1 X8.593 Y5.673 E4.35055
G1 X8.357 Y6.465 E4.44874
G1 X8.219 Y6.826 E4.49466
G1 X8.052 Y7.205 E4.54376
G1 X7.665 Y7.929 E4.64124
G1 X7.206 Y8.612 E4.73909
G1 X6.675 Y9.250 E4.83765
G1 X6.385 Y9.549 E4.88705
G1 X5.763 Y10.099 E4.98572
G1 X5.433 Y10.349 E5.03490
G1 X4.761 Y10.782 E5.12984
G1 X4.017 Y11.160 E5.22894
G1 X3.275 Y11.450 E5.32355
G1 X2.527 Y11.661 E5.41589
G1 X1.760 Y11.801 E5.50841
G1 X0.980 Y11.866 E5.60146
G1 X0.300 Y11.862 E5.68216
G1 X-0.480 Y11.786 E5.77527
G1 X-1.247 Y11.637 E5.86800
G1 X-2.039 Y11.400 E5.96619
G1 X-2.778 Y11.096 E6.06118
G1 X-3.502 Y10.709 E6.15866
G1 X-4.186 Y10.249 E6.25650
G1 X-4.511 Y9.992 E6.30574
G1 X-5.123 Y9.429 E6.40447
G1 X-5.406 Y9.124 E6.45386
G1 X-5.923 Y8.476 E6.55231
G1 X-6.355 Y7.804 E6.64726
G1 X-6.734 Y7.061 E6.74636
G1 X-7.024 Y6.318 E6.84097
G1 X-7.235 Y5.570 E6.93331
G1 X-7.374 Y4.804 E7.02583
G1 X-7.440 Y4.023 E7.11888
G1 X-7.436 Y3.344 E7.19958
G1 X-7.360 Y2.563 E7.29268
G1 X-7.211 Y1.797 E7.38542
G1 X-6.974 Y1.005 E7.48361
G1 X-6.670 Y0.265 E7.57859
G1 X-6.484 Y-0.104 E7.62764
G1 X-6.062 Y-0.805 E7.72489
G1 X-5.566 Y-1.468 E7.82316
G1 X-5.292 Y-1.780 E7.87251
G1 X-4.698 Y-2.362 E7.97128
G1 X-4.098 Y-2.843 E8.06261
G1 X-4.481 Y-3.449 F1800.000
G1 X-3.726 Y-3.936 E8.16932 F1800.000
G1 X-2.927 Y-4.343 E8.27581
G1 X-2.120 Y-4.658 E8.37872
G1 X-1.305 Y-4.888 E8.47923
G1 X-0.471 Y-5.040 E8.57988
G1 X0.377 Y-5.111 E8.68102
G1 X1.019 Y-5.109 E8.75731
G1 X1.559 Y-5.074 E8.82156 F1800.000
G1 X1.953 Y-5.027 E8.86860
G1 X2.800 Y-4.861 E8.97116
G1 X3.651 Y-4.607 E9.07666
G1 X4.054 Y-4.454 E9.12787
G1 X4.867 Y-4.071 E9.23457
G1 X5.630 Y-3.611 E9.34039
G1 X6.351 Y-3.072 E9.44728
G1 X6.691 Y-2.774 E9.50096
G1 X7.016 Y-2.459 E9.55470
G1 X7.614 Y-1.782 E9.66203
G1 X7.886 Y-1.423 E9.71552
G1 X8.362 Y-0.682 E9.82009
G1 X8.769 Y0.117 E9.92657
G1 X9.084 Y0.924 E10.02948
G1 X9.314 Y1.738 E10.13000
G1 X9.466 Y2.572 E10.23064
G1 X9.537 Y3.419 E10.33159
G1 X9.532 Y4.163 E10.41995
G1 X9.450 Y5.010 E10.52095
G1 X9.288 Y5.844 E10.62189
G1 X9.034 Y6.695 E10.72739
G1 X8.880 Y7.098 E10.77861
G1 X8.699 Y7.509 E10.83200
G1 X8.278 Y8.297 E10.93805
G1 X7.777 Y9.040 E11.04449
G1 X7.200 Y9.734 E11.15169
G1 X6.885 Y10.059 E11.20543
G1 X6.208 Y10.658 E11.31277
G1 X5.849 Y10.929 E11.36625
G1 X5.109 Y11.406 E11.47082
G1 X4.310 Y11.813 E11.57730
G1 X3.502 Y12.128 E11.68022
G1 X2.688 Y12.358 E11.78073
G1 X1.854 Y12.509 E11.88138
G1 X1.007 Y12.581 E11.98232
G1 X0.263 Y12.576 E12.07068
G1 X-0.583 Y12.494 E12.17169
G1 X-1.417 Y12.331 E12.27263
G1 X-2.269 Y12.077 E12.37812
G1 X-3.083 Y11.742 E12.48270
G1 X-3.870 Y11.321 E12.58875
G1 X-4.614 Y10.821 E12.69518
G1 X-4.968 Y10.542 E12.74874
G1 X-5.633 Y9.929 E12.85613
G1 X-5.941 Y9.598 E12.90986
G1 X-6.503 Y8.892 E13.01695
G1 X-6.980 Y8.152 E13.12152
G1 X-7.386 Y7.353 E13.22800
G1 X-7.702 Y6.546 E13.33091
G1 X-7.932 Y5.732 E13.43143
G1 X-8.083 Y4.898 E13.53207
G1 X-8.154 Y4.051 E13.63302
G1 X-8.150 Y3.307 E13.72138
G1 X-8.068 Y2.460 E13.82238
G1 X-7.905 Y1.626 E13.92333
G1 X-7.651 Y0.775 E14.02882
G1 X-7.316 Y-0.039 E14.13340
G1 X-7.114 Y-0.441 E14.18674
G1 X-6.655 Y-1.204 E14.29255
G1 X-6.115 Y-1.925 E14.39944
G1 X-5.818 Y-2.265 E14.45313
G1 X-5.171 Y-2.898 E14.56056
G1 X-4.529 Y-3.412 E14.65837
G1 X-4.911 Y-4.018 F1800.000
G1 X-4.482 Y-4.312 E14.72024 F1800.000
G1 X-4.074 Y-4.560 E14.77690
G1 X-3.220 Y-4.995 E14.89076
G1 X-2.347 Y-5.336 E15.00198
G1 X-1.467 Y-5.585 E15.11067
G1 X-0.565 Y-5.748 E15.21944
G1 X0.348 Y-5.825 E15.32835
G1 X1.043 Y-5.823 E15.41089
G1 X1.625 Y-5.786 E15.48013 F1800.000
G1 X2.064 Y-5.733 E15.53265
G1 X2.971 Y-5.556 E15.64238
G1 X3.881 Y-5.284 E15.75518
G1 X4.326 Y-5.114 E15.81170
G1 X5.204 Y-4.701 E15.92698
G1 X6.029 Y-4.204 E16.04136
G1 X6.808 Y-3.621 E16.15687
G1 X7.175 Y-3.299 E16.21488
G1 X7.526 Y-2.959 E16.27296
G1 X8.173 Y-2.227 E16.38895
G1 X8.466 Y-1.839 E16.44675
G1 X8.987 Y-1.030 E16.56094
G1 X9.422 Y-0.176 E16.67480
G1 X9.762 Y0.696 E16.78602
G1 X10.011 Y1.577 E16.89471
G1 X10.175 Y2.478 E17.00348
G1 X10.251 Y3.391 E17.11232
G1 X10.246 Y4.200 E17.20834
G1 X10.158 Y5.113 E17.31725
G1 X9.982 Y6.015 E17.42640
G1 X9.710 Y6.925 E17.53919
G1 X9.541 Y7.369 E17.59572
G1 X9.345 Y7.814 E17.65341
G1 X8.890 Y8.665 E17.76802
G1 X8.349 Y9.469 E17.88304
G1 X7.726 Y10.219 E17.99890
G1 X7.385 Y10.570 E18.05698
G1 X6.653 Y11.216 E18.17297
G1 X6.265 Y11.510 E18.23077
G1 X5.457 Y12.030 E18.34496
G1 X4.602 Y12.465 E18.45882
G1 X3.730 Y12.806 E18.57004
G1 X2.849 Y13.055 E18.67872
G1 X1.948 Y13.218 E18.78750
G1 X1.035 Y13.295 E18.89633
G1 X0.226 Y13.290 E18.99236
G1 X-0.686 Y13.201 E19.10127
G1 X-1.588 Y13.026 E19.21042
G1 X-2.498 Y12.754 E19.32321
G1 X-3.388 Y12.388 E19.43739
G1 X-4.239 Y11.933 E19.55200
G1 X-5.042 Y11.393 E19.66702
G1 X-5.425 Y11.091 E19.72490
G1 X-6.143 Y10.429 E19.84095
G1 X-6.476 Y10.071 E19.89901
G1 X-7.084 Y9.309 E20.01475
G1 X-7.604 Y8.500 E20.12894
G1 X-8.039 Y7.646 E20.24280
G1 X-8.379 Y6.773 E20.35402
G1 X-8.628 Y5.893 E20.46270
G1 X-8.792 Y4.992 E20.57148
G1 X-8.869 Y4.078 E20.68031
G1 X-8.864 Y3.270 E20.77633
G1 X-8.775 Y2.357 E20.88524
G1 X-8.599 Y1.455 E20.99439
G1 X-8.328 Y0.545 E21.10719
G1 X-7.962 Y-0.344 E21.22136
G1 X-7.744 Y-0.778 E21.27899
G1 X-7.248 Y-1.603 E21.39337
G1 X-6.665 Y-2.381 E21.50888
G1 X-6.343 Y-2.749 E21.56690
G1 X-5.644 Y-3.433 E21.68299
G1 X-4.959 Y-3.982 E21.78730
G1 X-4.547 Y-3.854 F1800.000
G1 X3.047 Y-3.536 F1800.000
G1 X7.955 Y1.371 E22.61429 F1800.000
G1 X8.295 Y2.725 E22.78067
G1 X1.697 Y-3.873 E23.89258
G1 X0.596 Y-3.960 E24.02414
G1 X8.386 Y3.829 E25.33679
G1 X8.331 Y4.788 E25.45117
G1 X-0.364 Y-3.907 E26.91640
G1 X-1.224 Y-3.753 E27.02046
G1 X8.181 Y5.651 E28.60527
G1 X7.949 Y6.433 E28.70244
G1 X-2.002 Y-3.518 E30.37935
G1 X-2.716 Y-3.219 E30.47162
G1 X7.650 Y7.147 E32.21847
G1 X7.295 Y7.805 E32.30757
G1 X-3.375 Y-2.865 E34.10557
G1 X-3.980 Y-2.456 E34.19255
G1 X6.887 Y8.411 E36.02386
G1 X6.416 Y8.953 E36.10946
G1 X-4.527 Y-1.990 E37.95360
G1 X-5.034 Y-1.483 E38.03898
G1 X5.910 Y9.460 E39.88312
G1 X5.363 Y9.926 E39.96877
G1 X-5.504 Y-0.941 E41.80008
G1 X-5.912 Y-0.335 E41.88708
G1 X4.758 Y10.334 E43.68509
G1 X4.098 Y10.689 E43.77425
G1 X-6.267 Y0.323 E45.52109
G1 X-6.567 Y1.037 E45.61336
G1 X3.384 Y10.988 E47.29026
G1 X2.606 Y11.223 E47.38711
G1 X-6.798 Y1.819 E48.97192
G1 X-6.948 Y2.682 E49.07632
G1 X1.747 Y11.377 E50.54155
G1 X0.785 Y11.429 E50.65632
G1 X-7.003 Y3.641 E51.96874
G1 X-6.913 Y4.744 E52.10072
G1 X-0.314 Y11.343 E53.21263
G1 X-1.664 Y11.006 E53.37843
G1 X-6.572 Y6.099 E54.20542
G1 X-5.183 Y8.500 F1800.000
G1 X-4.106 Y9.578 E54.38697 F1800.000
G1 X6.566 Y-1.030 F1800.000
G1 X5.489 Y-2.108 E54.56854 F1800.000
G1 Z0.400 F1800.000
G1 E52.56854 F2400.00000
G92 E0
G1 X6.983 Y-4.464 F1800.000
G1 E2.00000 F2400.00000
G1 X7.427 Y-5.348 E2.11751 F1800.000
G1 X8.827 Y-4.954 E2.29026
G1 X8.405 Y-4.112 E2.40203
G1 E0.40203 F2400.00000
G92 E0
G1 X8.245 Y-10.168 F1800.000
G1 E2.00000 F2400.00000
G1 X9.049 Y-11.772 E2.21311 F1800.000
G1 X8.269 Y-13.404 E2.42785
G1 X7.139 Y-11.150 E2.72727
G1 X5.717 Y-11.501 F1800.000
G1 X6.900 Y-13.861 E3.04089 F1800.000
G1 E1.04089 F2400.00000
G92 E0
G1 X5.521 Y-11.110 F1800.000
G1 E2.00000 F2400.00000
G1 X5.226 Y-10.520 E2.07838 F1800.000
G1 E0.07838 F2400.00000
G92 E0
G1 X-9.460 Y6.030 F1800.000
G1 E2.00000 F2400.00000
G1 X-12.015 Y11.127 E2.67709 F1800.000
G1 X-10.802 Y11.896 E2.84759
G1 X-8.808 Y7.917 E3.37614
G1 X-7.965 Y9.423 E3.58106
G1 X-9.359 Y12.204 E3.95061
G1 X-8.392 Y13.461 E4.13901
G1 X-6.989 Y10.663 E4.51070
G1 X-5.907 Y11.692 E4.68800
G1 X-6.287 Y12.451 E4.78885
G1 Z0.500 F1800.000
G1 X-7.621 Y13.222 F1800.000
G1 X-7.376 Y12.971 E4.79437 F3600.000
G1 X-8.021 Y12.971 E4.80451
G1 X-7.621 Y13.222 E4.81195
G1 E2.81195 F2400.00000
G92 E0
G1 X-8.467 Y9.622 F1800.000
G1 E2.00000 F2400.00000
G1 X-8.507 Y9.557 E2.00121 F3600.000
G1 X-9.590 Y9.557 E2.01825
G1 X-10.041 Y10.338 E2.03246
G1 X-9.951 Y10.513 E2.03555
G1 X-9.898 Y10.753 E2.03942
G1 X-9.745 Y11.047 E2.04463
G1 X-9.523 Y11.280 E2.04969
G1 X-9.292 Y11.424 E2.05399
G1 X-8.984 Y11.532 E2.05913
G1 X-8.836 Y11.550 E2.06146
G1 X-8.731 Y11.593 E2.06325
G1 X-8.431 Y11.583 E2.06797
G1 X-8.345 Y11.614 E2.06941
G1 X-6.743 Y11.726 E2.09469
G1 X-6.982 Y11.588 E2.09904
G1 X-7.133 Y11.469 E2.10207
G1 X-7.363 Y11.225 E2.10734
G1 X-7.363 Y11.056 E2.11000
G1 X-7.823 Y10.520 E2.12111
G1 X-8.157 Y10.078 E2.12983
G1 X-8.467 Y9.622 E2.13851
G1 X-9.089 Y8.512 F1800.000
G1 X-9.168 Y8.615 E2.14056 F3600.000
G1 X-9.409 Y8.795 E2.14529
G1 X-9.548 Y8.939 E2.14844
G1 X-9.655 Y9.107 E2.15158
G1 X-9.590 Y9.221 E2.15365
G1 X-8.715 Y9.221 E2.16741
G1 X-9.089 Y8.512 E2.18002
G1 X-8.899 Y8.031 F1800.000
G1 X-8.935 Y7.945 E2.18150 F3600.000
G1 X-9.077 Y8.056 E2.18434
G1 X-9.361 Y8.226 E2.18955
G1 X-9.439 Y8.339 E2.19170
G1 X-9.666 Y8.517 E2.19625
G1 X-9.846 Y8.703 E2.20032
G1 X-10.093 Y9.065 E2.20722
G1 X-10.355 Y9.366 E2.21349
G1 X-10.419 Y9.902 E2.22200
G1 X-10.436 Y10.397 E2.22979
G1 X-10.311 Y10.642 E2.23413
G1 X-10.257 Y10.883 E2.23802
G1 X-10.056 Y11.269 E2.24487
G1 X-9.764 Y11.576 E2.25153
G1 X-9.459 Y11.766 E2.25718
G1 X-9.207 Y11.859 E2.26141
G1 X-9.070 Y11.903 E2.26368
G1 X-8.933 Y11.919 E2.26585
G1 X-8.793 Y11.977 E2.26823
G1 X-8.477 Y11.968 E2.27320
G1 X-8.414 Y11.991 E2.27425
G1 X-6.750 Y12.105 E2.30050
G1 X-6.584 Y12.165 E2.30328
G1 X-6.584 Y12.593 E2.31000
G1 X-9.337 Y12.593 E2.35332
G1 X-7.564 Y13.705 E2.38626
G1 X-6.632 Y12.750 E2.40726
G1 X-5.917 Y11.902 E2.42472
G1 X-6.445 Y11.448 E2.43569
G1 X-6.478 Y11.450 E2.43621
G1 X-6.753 Y11.283 E2.44127
G1 X-6.880 Y11.186 E2.44379
G1 X-6.984 Y11.075 E2.44619
G1 X-6.984 Y10.907 E2.44883
G1 X-7.527 Y10.284 E2.46183
G1 X-7.849 Y9.858 E2.47024
G1 X-8.148 Y9.417 E2.47862
G1 X-8.423 Y8.965 E2.48696
G1 X-8.674 Y8.502 E2.49523
G1 X-8.899 Y8.031 E2.50345
G1 X-10.734 Y8.443 F1800.000
G1 X-10.734 Y7.191 E2.52314 F3600.000
G1 X-11.530 Y8.443 E2.54648
G1 X-10.734 Y8.443 E2.55899
G1 E0.55899 F2400.00000
G92 E0
G1 X7.193 Y-13.633 F1800.000
G1 E2.00000 F2400.00000
G1 X7.166 Y-13.637 E2.00044 F3600.000
G1 X7.166 Y-11.557 E2.03317
G1 X8.936 Y-11.557 E2.06103
G1 X8.857 Y-12.049 E2.06887
G1 X8.783 Y-12.293 E2.07288
G1 X8.668 Y-12.563 E2.07750
G1 X8.523 Y-12.803 E2.08191
G1 X8.415 Y-12.940 E2.08465
G1 X8.309 Y-13.064 E2.08723
G1 X8.072 Y-13.273 E2.09221
G1 X7.753 Y-13.467 E2.09808
G1 X7.387 Y-13.599 E2.10419
G1 X7.193 Y-13.633 E2.10729
G1 Z0.700 F1800.000
G1 E0.10729 F2400.00000
G92 E0
G1 X-4.517 Y-3.496 F1800.000
G1 E2.00000 F2400.00000
G1 X-4.138 Y-3.755 E2.02396 F3600.000
G1 X-3.351 Y-4.207 E2.07138
G1 X-2.547 Y-4.567 E2.11740
G1 X-1.729 Y-4.841 E2.16249
G1 X-0.910 Y-5.031 E2.20639
G1 X-0.037 Y-5.147 E2.25238
G1 X0.820 Y-5.173 E2.29718
G1 X1.558 Y-5.134 E2.33579
G1 X2.393 Y-5.012 E2.37990 F3600.000
G1 X3.237 Y-4.805 E2.42528
G1 X4.088 Y-4.504 E2.47247
G1 X4.491 Y-4.326 E2.49547
G1 X5.284 Y-3.902 E2.54244
G1 X6.033 Y-3.399 E2.58958
G1 X6.731 Y-2.818 E2.63706
G1 X7.058 Y-2.501 E2.66086
G1 X7.369 Y-2.167 E2.68465
G1 X7.934 Y-1.457 E2.73208
G1 X8.181 Y-1.094 E2.75502
G1 X8.633 Y-0.307 E2.80243
G1 X8.993 Y0.497 E2.84845
G1 X9.268 Y1.315 E2.89354
G1 X9.457 Y2.134 E2.93744
G1 X9.572 Y2.997 E2.98296
G1 X9.603 Y3.731 E3.02135
G1 X9.560 Y4.604 E3.06697
G1 X9.438 Y5.437 E3.11096
G1 X9.231 Y6.280 E3.15634
G1 X8.930 Y7.132 E3.20353
G1 X8.753 Y7.535 E3.22653
G1 X8.550 Y7.939 E3.25015
G1 X8.087 Y8.707 E3.29702
G1 X7.544 Y9.433 E3.34435
G1 X6.927 Y10.102 E3.39191
G1 X6.594 Y10.412 E3.41571
G1 X5.884 Y10.978 E3.46314
G1 X5.521 Y11.225 E3.48607
G1 X4.733 Y11.676 E3.53349
G1 X3.930 Y12.037 E3.57951
G1 X3.111 Y12.311 E3.62460
G1 X2.293 Y12.501 E3.66850
G1 X1.429 Y12.616 E3.71402
G1 X0.695 Y12.646 E3.75241
G1 X-0.177 Y12.604 E3.79803
G1 X-1.010 Y12.482 E3.84202
G1 X-1.854 Y12.275 E3.88740
G1 X-2.706 Y11.974 E3.93459
G1 X-3.512 Y11.593 E3.98120
G1 X-4.281 Y11.131 E4.02806
G1 X-5.006 Y10.588 E4.07540
G1 X-5.349 Y10.288 E4.09917
G1 X-5.676 Y9.971 E4.12297
G1 X-6.278 Y9.289 E4.17051
G1 X-6.798 Y8.564 E4.21712
G1 X-7.250 Y7.777 E4.26453
G1 X-7.610 Y6.973 E4.31055
G1 X-7.885 Y6.155 E4.35564
G1 X-8.075 Y5.336 E4.39955
G1 X-8.189 Y4.473 E4.44506
G1 X-8.220 Y3.738 E4.48345
G1 X-8.177 Y2.866 E4.52907
G1 X-8.056 Y2.033 E4.57306
G1 X-7.848 Y1.190 E4.61844
G1 X-7.547 Y0.338 E4.66563
G1 X-7.167 Y-0.469 E4.71224
G1 X-6.946 Y-0.858 E4.73560
G1 X-6.443 Y-1.606 E4.78274
G1 X-5.862 Y-2.305 E4.83021
G1 X-5.211 Y-2.942 E4.87779
G1 X-4.565 Y-3.460 E4.92106
G1 X-4.769 Y-3.830 F1800.000
G1 X-4.360 Y-4.110 E4.94696 F3600.000
G1 X-3.541 Y-4.580 E4.99630
G1 X-2.700 Y-4.958 E5.04448
G1 X-1.843 Y-5.245 E5.09169
G1 X-0.985 Y-5.444 E5.13769
G1 X-0.078 Y-5.564 E5.18552
G1 X0.830 Y-5.592 E5.23294
G1 X1.599 Y-5.551 E5.27320
G1 X2.474 Y-5.424 E5.31936 F3600.000
G1 X3.357 Y-5.207 E5.36688
G1 X4.243 Y-4.894 E5.41598
G1 X4.670 Y-4.705 E5.44036
G1 X5.500 Y-4.262 E5.48953
G1 X6.284 Y-3.734 E5.53888
