;FLAVOR:Marlin
;TIME:951
;Filament used: 0.733639m
;Layer height: 0.2
;MINX:-60.094
;MINY:-8.888
;MINZ:0.3
;MAXX:41.122
;MAXY:13.063
;MAXZ:5.9
;Generated with Cura_SteamEngine 5.2.1
M140 S60
M105
M190 S60
M104 S200
M105
M109 S200
M82 ;absolute extrusion mode
G28 ;Home
G1 Z15.0 F6000 ;Move the platform down 15mm
;Prime the extruder
G92 E0
G1 F200 E3
G92 E0
M141 S28
G92 E0
G92 E0
G1 F1500 E-1
;LAYER_COUNT:24
;LAYER:0
M107
G1 F600 Z1.3
G0 F3600 X33.321 Y-8.888 Z1.3
;TYPE:SKIRT
G1 F600 Z0.3
G1 F1500 E0
G1 F1800 X34.11 Y-8.848 E0.03941
G1 X34.89 Y-8.729 E0.07878
G1 X35.655 Y-8.531 E0.1182
G1 X36.395 Y-8.257 E0.15757
G1 X37.104 Y-7.909 E0.19697
G1 X37.775 Y-7.491 E0.23641
G1 X38.399 Y-7.008 E0.27578
G1 X38.972 Y-6.465 E0.31517
G1 X39.487 Y-5.866 E0.35458
G1 X39.938 Y-5.218 E0.39397
G1 X40.322 Y-4.527 E0.43341
G1 X40.634 Y-3.802 E0.47278
G1 X40.871 Y-3.049 E0.51217
G1 X41.03 Y-2.275 E0.55159
G1 X41.121 Y-1.394 E0.59578
G1 X41.122 Y5.262 E0.92784
G1 X41.082 Y6.05 E0.96721
G1 X40.963 Y6.831 E1.00662
G1 X40.765 Y7.596 E1.04605
G1 X40.491 Y8.336 E1.08541
G1 X40.144 Y9.045 E1.1248
G1 X39.726 Y9.716 E1.16424
G1 X39.243 Y10.34 E1.2036
G1 X38.699 Y10.913 E1.24302
G1 X38.101 Y11.428 E1.2824
G1 X37.453 Y11.879 E1.32178
G1 X36.763 Y12.263 E1.36118
G1 X36.037 Y12.575 E1.4006
G1 X35.284 Y12.812 E1.43999
G1 X34.51 Y12.972 E1.47942
G1 X33.628 Y13.063 E1.52366
G1 X-52.294 Y13.063 E5.81032
G1 X-53.083 Y13.023 E5.84974
G1 X-53.863 Y12.904 E5.8891
G1 X-54.628 Y12.706 E5.92852
G1 X-55.368 Y12.432 E5.96789
G1 X-56.077 Y12.084 E6.0073
G1 X-56.748 Y11.666 E6.04674
G1 X-57.372 Y11.183 E6.0861
G1 X-57.945 Y10.64 E6.12549
G1 X-58.46 Y10.041 E6.1649
G1 X-58.911 Y9.393 E6.20429
G1 X-59.295 Y8.702 E6.24373
G1 X-59.607 Y7.977 E6.2831
G1 X-59.844 Y7.224 E6.32249
G1 X-60.003 Y6.45 E6.36191
G1 X-60.094 Y5.568 E6.40615
G1 X-60.094 Y-1.088 E6.73822
G1 X-60.054 Y-1.877 E6.77763
G1 X-59.935 Y-2.657 E6.81699
G1 X-59.737 Y-3.422 E6.85642
G1 X-59.463 Y-4.162 E6.89579
G1 X-59.115 Y-4.871 E6.93519
G1 X-58.697 Y-5.542 E6.97463
G1 X-58.214 Y-6.166 E7.014
G1 X-57.671 Y-6.739 E7.05338
G1 X-57.072 Y-7.254 E7.09279
G1 X-56.424 Y-7.705 E7.13218
G1 X-55.733 Y-8.089 E7.17162
G1 X-55.008 Y-8.401 E7.211
G1 X-54.255 Y-8.638 E7.25038
G1 X-53.481 Y-8.797 E7.2898
G1 X-52.599 Y-8.888 E7.33404
G1 X33.321 Y-8.888 E11.62061
G0 F3600 X33.321 Y-8.488
G1 F1800 X34.089 Y-8.448 E11.65897
G1 X34.849 Y-8.329 E11.69735
G1 X35.592 Y-8.131 E11.73572
G1 X36.311 Y-7.857 E11.7741
G1 X36.997 Y-7.51 E11.81246
G1 X37.644 Y-7.094 E11.85083
G1 X38.244 Y-6.613 E11.8892
G1 X38.791 Y-6.072 E11.92758
G1 X39.279 Y-5.477 E11.96597
G1 X39.702 Y-4.835 E12.00433
G1 X40.057 Y-4.152 E12.04273
G1 X40.338 Y-3.437 E12.08106
G1 X40.544 Y-2.695 E12.11948
G1 X40.672 Y-1.937 E12.15783
G1 X40.721 Y-1.089 E12.20021
G1 X40.722 Y5.262 E12.51706
G1 X40.682 Y6.03 E12.55543
G1 X40.563 Y6.79 E12.59381
G1 X40.365 Y7.533 E12.63217
G1 X40.092 Y8.252 E12.67054
G1 X39.745 Y8.938 E12.70889
G1 X39.328 Y9.585 E12.74729
G1 X38.847 Y10.185 E12.78566
G1 X38.307 Y10.732 E12.82401
G1 X37.712 Y11.22 E12.8624
G1 X37.07 Y11.644 E12.90078
G1 X36.387 Y11.998 E12.93916
G1 X35.672 Y12.28 E12.97751
G1 X34.931 Y12.486 E13.01588
G1 X34.172 Y12.614 E13.05428
G1 X33.322 Y12.663 E13.09676
G1 X-52.294 Y12.663 E17.36816
G1 X-53.062 Y12.623 E17.40653
G1 X-53.822 Y12.504 E17.4449
G1 X-54.565 Y12.306 E17.48327
G1 X-55.284 Y12.032 E17.52165
G1 X-55.97 Y11.685 E17.56001
G1 X-56.617 Y11.269 E17.59838
G1 X-57.217 Y10.788 E17.63675
G1 X-57.764 Y10.247 E17.67513
G1 X-58.252 Y9.652 E17.71352
G1 X-58.675 Y9.01 E17.75188
G1 X-59.03 Y8.327 E17.79028
G1 X-59.311 Y7.612 E17.82861
G1 X-59.517 Y6.87 E17.86703
G1 X-59.645 Y6.112 E17.90538
G1 X-59.694 Y5.263 E17.94781
G1 X-59.694 Y-1.088 E18.26466
G1 X-59.654 Y-1.856 E18.30303
G1 X-59.535 Y-2.616 E18.34141
G1 X-59.337 Y-3.359 E18.37977
G1 X-59.063 Y-4.078 E18.41816
G1 X-58.716 Y-4.764 E18.45651
G1 X-58.3 Y-5.411 E18.49489
G1 X-57.819 Y-6.011 E18.53325
G1 X-57.278 Y-6.558 E18.57164
G1 X-56.683 Y-7.046 E18.61003
G1 X-56.041 Y-7.469 E18.64838
G1 X-55.358 Y-7.824 E18.68679
G1 X-54.643 Y-8.105 E18.72511
G1 X-53.901 Y-8.311 E18.76353
G1 X-53.143 Y-8.439 E18.80189
G1 X-52.294 Y-8.488 E18.84431
G1 X33.321 Y-8.488 E23.11566
G0 F3600 X33.321 Y-8.088
G1 F1800 X34.068 Y-8.048 E23.15298
G1 X34.806 Y-7.929 E23.19028
G1 X35.528 Y-7.731 E23.22763
G1 X36.224 Y-7.458 E23.26493
G1 X36.887 Y-7.111 E23.30226
G1 X37.51 Y-6.696 E23.33961
G1 X38.084 Y-6.217 E23.37691
G1 X38.605 Y-5.68 E23.41423
G1 X39.064 Y-5.09 E23.45153
G1 X39.459 Y-4.454 E23.48888
G1 X39.783 Y-3.78 E23.52619
G1 X40.033 Y-3.075 E23.56351
G1 X40.207 Y-2.347 E23.60085
G1 X40.302 Y-1.605 E23.63817
G1 X40.321 Y-1.089 E23.66393
G1 X40.322 Y5.262 E23.98079
G1 X40.282 Y6.009 E24.01811
G1 X40.163 Y6.747 E24.0554
G1 X39.965 Y7.469 E24.09275
G1 X39.692 Y8.165 E24.13005
G1 X39.346 Y8.828 E24.16736
G1 X38.931 Y9.451 E24.20471
G1 X38.452 Y10.026 E24.24204
G1 X37.915 Y10.546 E24.27934
G1 X37.325 Y11.006 E24.31666
G1 X36.689 Y11.4 E24.35399
G1 X36.015 Y11.724 E24.3913
G1 X35.31 Y11.975 E24.42863
G1 X34.582 Y12.149 E24.46598
G1 X33.84 Y12.244 E24.5033
G1 X33.322 Y12.263 E24.52916
G1 X-52.294 Y12.263 E28.80056
G1 X-53.041 Y12.223 E28.83788
G1 X-53.779 Y12.104 E28.87517
G1 X-54.501 Y11.906 E28.91252
G1 X-55.197 Y11.633 E28.94982
G1 X-55.86 Y11.286 E28.98716
G1 X-56.483 Y10.871 E29.0245
G1 X-57.057 Y10.392 E29.0618
G1 X-57.578 Y9.855 E29.09913
G1 X-58.037 Y9.265 E29.13642
G1 X-58.432 Y8.629 E29.17377
G1 X-58.756 Y7.955 E29.21108
G1 X-59.006 Y7.25 E29.2484
G1 X-59.18 Y6.522 E29.28574
G1 X-59.275 Y5.78 E29.32307
G1 X-59.294 Y5.263 E29.34888
G1 X-59.294 Y-1.088 E29.66573
G1 X-59.254 Y-1.835 E29.70305
G1 X-59.135 Y-2.573 E29.74034
G1 X-58.937 Y-3.295 E29.7777
G1 X-58.664 Y-3.991 E29.81499
G1 X-58.317 Y-4.654 E29.85233
G1 X-57.902 Y-5.277 E29.88967
G1 X-57.423 Y-5.851 E29.92697
G1 X-56.886 Y-6.372 E29.9643
G1 X-56.296 Y-6.831 E30.00159
G1 X-55.66 Y-7.226 E30.03895
G1 X-54.986 Y-7.55 E30.07626
G1 X-54.281 Y-7.8 E30.11357
G1 X-53.553 Y-7.974 E30.15092
G1 X-52.811 Y-8.069 E30.18824
G1 X-52.294 Y-8.088 E30.21405
G1 X33.321 Y-8.088 E34.4854
G0 F3600 X33.321 Y-7.688
G1 F1800 X34.046 Y-7.648 E34.52162
G1 X34.763 Y-7.529 E34.55788
G1 X35.462 Y-7.331 E34.59413
G1 X36.135 Y-7.058 E34.63036
G1 X36.774 Y-6.713 E34.66659
G1 X37.371 Y-6.299 E34.70284
G1 X37.919 Y-5.823 E34.73905
G1 X38.412 Y-5.289 E34.77531
G1 X38.842 Y-4.704 E34.81153
G1 X39.206 Y-4.075 E34.84779
G1 X39.499 Y-3.41 E34.88404
G1 X39.717 Y-2.717 E34.92029
G1 X39.857 Y-2.005 E34.95649
G1 X39.921 Y-1.089 E35.0023
G1 X39.922 Y5.262 E35.31915
G1 X39.882 Y5.987 E35.35538
G1 X39.763 Y6.704 E35.39164
G1 X39.566 Y7.403 E35.42787
G1 X39.293 Y8.076 E35.4641
G1 X38.947 Y8.715 E35.50036
G1 X38.534 Y9.312 E35.53658
G1 X38.057 Y9.86 E35.57282
G1 X37.524 Y10.353 E35.60904
G1 X36.939 Y10.784 E35.6453
G1 X36.31 Y11.148 E35.68155
G1 X35.645 Y11.441 E35.71781
G1 X34.953 Y11.658 E35.75399
G1 X34.24 Y11.799 E35.79025
G1 X33.322 Y11.863 E35.83616
G1 X-52.294 Y11.863 E40.10756
G1 X-53.019 Y11.823 E40.14378
G1 X-53.736 Y11.704 E40.18004
G1 X-54.435 Y11.506 E40.21629
G1 X-55.108 Y11.233 E40.25252
G1 X-55.747 Y10.888 E40.28875
G1 X-56.344 Y10.474 E40.325
G1 X-56.892 Y9.998 E40.36121
G1 X-57.385 Y9.464 E40.39747
G1 X-57.815 Y8.879 E40.43369
G1 X-58.179 Y8.25 E40.46995
G1 X-58.472 Y7.585 E40.5062
G1 X-58.69 Y6.892 E40.54245
G1 X-58.83 Y6.18 E40.57865
G1 X-58.894 Y5.263 E40.62451
G1 X-58.894 Y-1.088 E40.94136
G1 X-58.854 Y-1.813 E40.97759
G1 X-58.735 Y-2.53 E41.01385
G1 X-58.537 Y-3.229 E41.0501
G1 X-58.264 Y-3.902 E41.08633
G1 X-57.919 Y-4.541 E41.12256
G1 X-57.505 Y-5.138 E41.1588
G1 X-57.029 Y-5.686 E41.19502
G1 X-56.495 Y-6.179 E41.23128
G1 X-55.91 Y-6.609 E41.2675
G1 X-55.281 Y-6.973 E41.30375
G1 X-54.616 Y-7.266 E41.34001
G1 X-53.923 Y-7.484 E41.37625
G1 X-53.211 Y-7.624 E41.41246
G1 X-52.294 Y-7.688 E41.45832
G1 X33.321 Y-7.688 E45.72967
G0 F3600 X33.321 Y-7.288
G1 F1800 X34.024 Y-7.248 E45.7648
G1 X34.718 Y-7.129 E45.79992
G1 X35.393 Y-6.931 E45.83502
G1 X36.042 Y-6.659 E45.87013
G1 X36.656 Y-6.314 E45.90526
G1 X37.227 Y-5.903 E45.94036
G1 X37.748 Y-5.429 E45.9755
G1 X38.212 Y-4.899 E46.01065
G1 X38.612 Y-4.32 E46.04576
G1 X38.944 Y-3.699 E46.08089
G1 X39.204 Y-3.045 E46.116
G1 X39.388 Y-2.365 E46.15115
G1 X39.494 Y-1.669 E46.18627
G1 X39.521 Y-1.089 E46.21524
G1 X39.522 Y5.262 E46.53209
G1 X39.482 Y5.965 E46.56722
G1 X39.363 Y6.659 E46.60235
G1 X39.166 Y7.335 E46.63748
G1 X38.893 Y7.984 E46.6726
G1 X38.549 Y8.598 E46.70772
G1 X38.137 Y9.169 E46.74285
G1 X37.663 Y9.689 E46.77795
G1 X37.134 Y10.153 E46.81305
G1 X36.555 Y10.554 E46.84819
G1 X35.934 Y10.886 E46.88332
G1 X35.28 Y11.146 E46.91844
G1 X34.6 Y11.33 E46.95358
G1 X33.904 Y11.436 E46.98871
G1 X33.322 Y11.463 E47.01777
G1 X-52.294 Y11.463 E51.28917
G1 X-52.997 Y11.423 E51.3243
G1 X-53.691 Y11.304 E51.35943
G1 X-54.366 Y11.106 E51.39453
G1 X-55.015 Y10.834 E51.42963
G1 X-55.629 Y10.489 E51.46477
G1 X-56.2 Y10.078 E51.49987
G1 X-56.721 Y9.604 E51.53501
G1 X-57.185 Y9.074 E51.57015
G1 X-57.585 Y8.495 E51.60526
G1 X-57.917 Y7.874 E51.64039
G1 X-58.177 Y7.22 E51.67551
G1 X-58.361 Y6.54 E51.71065
G1 X-58.467 Y5.844 E51.74578
G1 X-58.494 Y5.263 E51.77479
G1 X-58.494 Y-1.088 E52.09165
G1 X-58.454 Y-1.791 E52.12678
G1 X-58.335 Y-2.485 E52.1619
G1 X-58.137 Y-3.16 E52.197
G1 X-57.865 Y-3.809 E52.23211
G1 X-57.52 Y-4.423 E52.26724
G1 X-57.109 Y-4.994 E52.30234
G1 X-56.635 Y-5.515 E52.33748
G1 X-56.105 Y-5.979 E52.37263
G1 X-55.526 Y-6.379 E52.40774
G1 X-54.905 Y-6.711 E52.44287
G1 X-54.251 Y-6.971 E52.47798
G1 X-53.571 Y-7.155 E52.51313
G1 X-52.875 Y-7.261 E52.54825
G1 X-52.294 Y-7.288 E52.57727
G1 X33.321 Y-7.288 E56.84862
G0 F3600 X33.321 Y-6.888
G1 F1800 X34.001 Y-6.848 E56.8826
G1 X34.671 Y-6.729 E56.91655
G1 X35.323 Y-6.532 E56.95053
G1 X35.947 Y-6.26 E56.98449
G1 X36.535 Y-5.916 E57.01848
G1 X37.079 Y-5.506 E57.05246
G1 X37.57 Y-5.035 E57.08641
G1 X38.004 Y-4.51 E57.12039
G1 X38.373 Y-3.938 E57.15435
G1 X38.672 Y-3.326 E57.18833
G1 X38.897 Y-2.684 E57.22227
G1 X39.046 Y-2.019 E57.25627
G1 X39.121 Y-1.089 E57.30282
G1 X39.122 Y5.262 E57.61967
G1 X39.082 Y5.942 E57.65366
G1 X38.963 Y6.612 E57.68761
G1 X38.766 Y7.264 E57.72159
G1 X38.494 Y7.888 E57.75555
G1 X38.151 Y8.476 E57.78951
G1 X37.741 Y9.02 E57.8235
G1 X37.27 Y9.512 E57.85748
G1 X36.745 Y9.945 E57.89143
G1 X36.173 Y10.314 E57.92539
G1 X35.561 Y10.613 E57.95937
G1 X34.919 Y10.839 E57.99333
G1 X34.254 Y10.988 E58.02733
G1 X33.322 Y11.063 E58.07397
G1 X-52.294 Y11.063 E62.34537
G1 X-52.974 Y11.023 E62.37936
G1 X-53.644 Y10.904 E62.41331
G1 X-54.296 Y10.707 E62.44729
G1 X-54.92 Y10.435 E62.48125
G1 X-55.508 Y10.091 E62.51523
G1 X-56.052 Y9.681 E62.54922
G1 X-56.543 Y9.21 E62.58316
G1 X-56.977 Y8.685 E62.61715
G1 X-57.346 Y8.113 E62.65111
G1 X-57.645 Y7.501 E62.68509
G1 X-57.87 Y6.859 E62.71903
G1 X-58.019 Y6.194 E62.75303
G1 X-58.094 Y5.263 E62.79963
G1 X-58.094 Y-1.088 E63.11648
G1 X-58.054 Y-1.768 E63.15046
G1 X-57.935 Y-2.438 E63.18441
G1 X-57.738 Y-3.09 E63.21839
G1 X-57.466 Y-3.714 E63.25235
G1 X-57.122 Y-4.302 E63.28634
G1 X-56.712 Y-4.846 E63.32033
G1 X-56.241 Y-5.337 E63.35427
G1 X-55.716 Y-5.771 E63.38825
G1 X-55.144 Y-6.14 E63.42221
G1 X-54.532 Y-6.439 E63.4562
G1 X-53.89 Y-6.664 E63.49014
G1 X-53.225 Y-6.813 E63.52414
G1 X-52.294 Y-6.888 E63.57073
G1 X33.321 Y-6.888 E67.84208
G0 F3600 X33.321 Y-6.488
G1 F1800 X33.977 Y-6.448 E67.87487
G1 X34.623 Y-6.329 E67.90764
G1 X35.25 Y-6.132 E67.94043
G1 X35.848 Y-5.86 E67.97321
G1 X36.409 Y-5.518 E68.00599
G1 X36.924 Y-5.11 E68.03877
G1 X37.386 Y-4.643 E68.07154
G1 X37.787 Y-4.123 E68.1043
G1 X38.123 Y-3.559 E68.13705
G1 X38.387 Y-2.957 E68.16985
G1 X38.577 Y-2.328 E68.20263
G1 X38.688 Y-1.681 E68.23538
G1 X38.721 Y-1.089 E68.26496
G1 X38.722 Y5.262 E68.58181
G1 X38.682 Y5.918 E68.6146
G1 X38.563 Y6.564 E68.64737
G1 X38.366 Y7.191 E68.68016
G1 X38.095 Y7.789 E68.71292
G1 X37.753 Y8.35 E68.7457
G1 X37.345 Y8.865 E68.77848
G1 X36.878 Y9.327 E68.81125
G1 X36.358 Y9.729 E68.84404
G1 X35.793 Y10.064 E68.87681
G1 X35.192 Y10.329 E68.90958
G1 X34.563 Y10.518 E68.94235
G1 X33.916 Y10.63 E68.97511
G1 X33.322 Y10.663 E69.00479
G1 X-52.294 Y10.663 E73.27619
G1 X-52.95 Y10.623 E73.30898
G1 X-53.596 Y10.504 E73.34175
G1 X-54.223 Y10.307 E73.37454
G1 X-54.821 Y10.035 E73.40731
G1 X-55.382 Y9.693 E73.44009
G1 X-55.897 Y9.285 E73.47287
G1 X-56.359 Y8.818 E73.50564
G1 X-56.76 Y8.298 E73.53841
G1 X-57.096 Y7.734 E73.57116
G1 X-57.36 Y7.132 E73.60395
G1 X-57.55 Y6.503 E73.63673
G1 X-57.661 Y5.856 E73.66948
G1 X-57.694 Y5.263 E73.69912
G1 X-57.694 Y-1.088 E74.01597
G1 X-57.654 Y-1.744 E74.04876
G1 X-57.535 Y-2.39 E74.08153
G1 X-57.338 Y-3.017 E74.11432
G1 X-57.066 Y-3.615 E74.14709
G1 X-56.724 Y-4.176 E74.17987
G1 X-56.316 Y-4.691 E74.21265
G1 X-55.849 Y-5.153 E74.24542
G1 X-55.329 Y-5.554 E74.27819
G1 X-54.765 Y-5.89 E74.31094
G1 X-54.163 Y-6.154 E74.34373
G1 X-53.534 Y-6.344 E74.37651
G1 X-52.887 Y-6.455 E74.40927
G1 X-52.294 Y-6.488 E74.4389
G1 X33.321 Y-6.488 E78.71025
G0 F3600 X33.321 Y-6.088
G1 F1800 X33.952 Y-6.048 E78.74179
G1 X34.573 Y-5.929 E78.77334
G1 X35.173 Y-5.732 E78.80484
G1 X35.745 Y-5.461 E78.83642
G1 X36.277 Y-5.121 E78.86792
G1 X36.762 Y-4.715 E78.89947
G1 X37.192 Y-4.252 E78.931
G1 X37.561 Y-3.738 E78.96257
G1 X37.861 Y-3.182 E78.99409
G1 X38.089 Y-2.593 E79.0256
G1 X38.241 Y-1.979 E79.05715
G1 X38.321 Y-1.089 E79.10173
G1 X38.322 Y5.262 E79.41859
G1 X38.282 Y5.893 E79.45013
G1 X38.163 Y6.514 E79.48168
G1 X37.966 Y7.115 E79.51323
G1 X37.696 Y7.686 E79.54474
G1 X37.355 Y8.218 E79.57627
G1 X36.95 Y8.704 E79.60783
G1 X36.487 Y9.134 E79.63935
G1 X35.973 Y9.502 E79.67089
G1 X35.417 Y9.803 E79.70244
G1 X34.827 Y10.031 E79.73399
G1 X34.214 Y10.183 E79.7655
G1 X33.322 Y10.263 E79.81018
G1 X-52.294 Y10.263 E84.08158
G1 X-52.925 Y10.223 E84.11312
G1 X-53.546 Y10.104 E84.14467
G1 X-54.146 Y9.907 E84.17618
G1 X-54.718 Y9.636 E84.20775
G1 X-55.25 Y9.296 E84.23925
G1 X-55.735 Y8.89 E84.27081
G1 X-56.165 Y8.427 E84.30233
G1 X-56.534 Y7.913 E84.3339
G1 X-56.834 Y7.357 E84.36542
G1 X-57.062 Y6.768 E84.39693
G1 X-57.214 Y6.154 E84.42849
G1 X-57.294 Y5.263 E84.47312
G1 X-57.294 Y-1.088 E84.78997
G1 X-57.254 Y-1.719 E84.82152
G1 X-57.135 Y-2.34 E84.85306
G1 X-56.938 Y-2.94 E84.88457
G1 X-56.667 Y-3.512 E84.91615
G1 X-56.327 Y-4.044 E84.94764
G1 X-55.921 Y-4.529 E84.9792
G1 X-55.458 Y-4.959 E85.01072
G1 X-54.944 Y-5.328 E85.04229
G1 X-54.388 Y-5.628 E85.07381
G1 X-53.799 Y-5.856 E85.10532
G1 X-53.185 Y-6.008 E85.13688
G1 X-52.294 Y-6.088 E85.18151
G1 X33.321 Y-6.088 E89.45286
G0 F3600 X33.321 Y-5.688
G1 F1800 X33.926 Y-5.648 E89.48311
G1 X34.52 Y-5.529 E89.51333
G1 X35.094 Y-5.333 E89.54359
G1 X35.637 Y-5.062 E89.57387
G1 X36.14 Y-4.723 E89.60413
G1 X36.593 Y-4.321 E89.63435
G1 X36.99 Y-3.863 E89.66459
G1 X37.323 Y-3.356 E89.69485
G1 X37.587 Y-2.81 E89.72511
G1 X37.776 Y-2.234 E89.75535
G1 X37.888 Y-1.638 E89.78561
G1 X37.921 Y-1.089 E89.81304
G1 X37.922 Y5.262 E90.1299
G1 X37.882 Y5.867 E90.16015
G1 X37.763 Y6.462 E90.19042
G1 X37.567 Y7.035 E90.22063
G1 X37.297 Y7.578 E90.25089
G1 X36.958 Y8.081 E90.28115
G1 X36.556 Y8.535 E90.3114
G1 X36.097 Y8.932 E90.34168
G1 X35.591 Y9.265 E90.3719
G1 X35.045 Y9.528 E90.40214
G1 X34.469 Y9.718 E90.4324
G1 X33.873 Y9.83 E90.46265
G1 X33.322 Y9.863 E90.49019
G1 X-52.294 Y9.863 E94.76159
G1 X-52.899 Y9.823 E94.79184
G1 X-53.493 Y9.704 E94.82206
G1 X-54.067 Y9.508 E94.85232
G1 X-54.61 Y9.237 E94.8826
G1 X-55.113 Y8.898 E94.91286
G1 X-55.566 Y8.496 E94.94308
G1 X-55.963 Y8.038 E94.97332
G1 X-56.296 Y7.531 E95.00358
G1 X-56.56 Y6.985 E95.03384
G1 X-56.749 Y6.409 E95.06408
G1 X-56.861 Y5.813 E95.09434
G1 X-56.894 Y5.263 E95.12182
G1 X-56.894 Y-1.088 E95.43868
G1 X-56.854 Y-1.693 E95.46893
G1 X-56.735 Y-2.287 E95.49915
G1 X-56.539 Y-2.861 E95.52941
G1 X-56.268 Y-3.404 E95.55969
G1 X-55.929 Y-3.907 E95.58995
G1 X-55.527 Y-4.36 E95.62017
G1 X-55.069 Y-4.757 E95.6504
G1 X-54.562 Y-5.09 E95.68067
G1 X-54.016 Y-5.354 E95.71092
G1 X-53.44 Y-5.543 E95.74117
G1 X-52.844 Y-5.655 E95.77142
G1 X-52.294 Y-5.688 E95.79891
G1 X33.321 Y-5.688 E100.07026
G0 F3600 X33.321 Y-5.288
