;FLAVOR:Marlin
;TIME:4445
;Filament used: 8.70208m
;Layer height: 0.4
;MINX:-50.433
;MINY:-46.535
;MINZ:0.3
;MAXX:50.001
;MAXY:46.535
;MAXZ:25.5
;Generated with Cura_SteamEngine 5.2.1
M140 S60
M105
M190 S60
M104 S200
M105
M109 S200
M82 ;absolute extrusion mode
G28 ;Home
G1 Z15.0 F6000 ;Move the platform down 15mm
;Prime the extruder
G92 E0
G1 F200 E3
G92 E0
M141 S28
G92 E0
G92 E0
G1 F1500 E-6.5
;LAYER_COUNT:64
;LAYER:0
M107
G0 F3600 X-12.579 Y10.597 Z0.3
;TYPE:SKIRT
G1 F1500 E0
G1 F1800 X-12.579 Y38.735 E1.40381
G1 X-12.619 Y39.524 E1.44322
G1 X-12.738 Y40.304 E1.48259
G1 X-12.936 Y41.069 E1.52201
G1 X-13.21 Y41.809 E1.56138
G1 X-13.558 Y42.518 E1.60078
G1 X-13.976 Y43.189 E1.64022
G1 X-14.459 Y43.813 E1.67959
G1 X-15.002 Y44.386 E1.71898
G1 X-15.601 Y44.901 E1.75839
G1 X-16.249 Y45.352 E1.79778
G1 X-16.94 Y45.736 E1.83722
G1 X-17.665 Y46.048 E1.87659
G1 X-18.418 Y46.285 E1.91598
G1 X-19.192 Y46.444 E1.9554
G1 X-20.074 Y46.535 E1.99964
G1 X-42.633 Y46.535 E3.12511
G1 X-43.422 Y46.495 E3.16452
G1 X-44.202 Y46.376 E3.20389
G1 X-44.967 Y46.178 E3.24331
G1 X-45.707 Y45.904 E3.28268
G1 X-46.416 Y45.556 E3.32208
G1 X-47.087 Y45.138 E3.36152
G1 X-47.711 Y44.655 E3.40089
G1 X-48.284 Y44.112 E3.44027
G1 X-48.799 Y43.513 E3.47969
G1 X-49.25 Y42.865 E3.51907
G1 X-49.634 Y42.174 E3.55851
G1 X-49.946 Y41.449 E3.59789
G1 X-50.183 Y40.696 E3.63728
G1 X-50.342 Y39.922 E3.6767
G1 X-50.433 Y39.04 E3.72093
G1 X-50.433 Y-28.38 E7.08453
G1 X-50.393 Y-29.169 E7.12394
G1 X-50.274 Y-29.949 E7.16331
G1 X-50.076 Y-30.714 E7.20273
G1 X-49.802 Y-31.454 E7.2421
G1 X-49.454 Y-32.163 E7.2815
G1 X-49.036 Y-32.834 E7.32095
G1 X-48.553 Y-33.458 E7.36031
G1 X-48.01 Y-34.031 E7.3997
G1 X-47.411 Y-34.546 E7.43911
G1 X-46.763 Y-34.997 E7.4785
G1 X-46.072 Y-35.381 E7.51794
G1 X-45.347 Y-35.693 E7.55731
G1 X-44.594 Y-35.93 E7.5967
G1 X-43.82 Y-36.089 E7.63612
G1 X-42.938 Y-36.18 E7.68036
G1 X-29.039 Y-36.18 E8.37378
G1 X-29.039 Y-38.735 E8.50125
G1 X-28.999 Y-39.524 E8.54066
G1 X-28.88 Y-40.304 E8.58003
G1 X-28.682 Y-41.069 E8.61945
G1 X-28.408 Y-41.809 E8.65882
G1 X-28.06 Y-42.518 E8.69822
G1 X-27.642 Y-43.189 E8.73766
G1 X-27.159 Y-43.813 E8.77703
G1 X-26.616 Y-44.386 E8.81642
G1 X-26.017 Y-44.901 E8.85583
G1 X-25.369 Y-45.352 E8.89521
G1 X-24.678 Y-45.736 E8.93465
G1 X-23.953 Y-46.048 E8.97403
G1 X-23.2 Y-46.285 E9.01342
G1 X-22.426 Y-46.444 E9.05284
G1 X-21.544 Y-46.535 E9.09707
G1 X42.201 Y-46.535 E12.27733
G1 X42.99 Y-46.495 E12.31674
G1 X43.77 Y-46.376 E12.3561
G1 X44.535 Y-46.178 E12.39553
G1 X45.275 Y-45.904 E12.4349
G1 X45.984 Y-45.556 E12.4743
G1 X46.655 Y-45.138 E12.51374
G1 X47.279 Y-44.655 E12.55311
G1 X47.852 Y-44.112 E12.59249
G1 X48.367 Y-43.513 E12.6319
G1 X48.818 Y-42.865 E12.67129
G1 X49.202 Y-42.174 E12.71073
G1 X49.514 Y-41.449 E12.75011
G1 X49.751 Y-40.696 E12.78949
G1 X49.91 Y-39.922 E12.82891
G1 X50.001 Y-39.04 E12.87315
G1 X50.001 Y2.797 E14.96041
G1 X49.961 Y3.586 E14.99982
G1 X49.842 Y4.366 E15.03919
G1 X49.644 Y5.131 E15.07861
G1 X49.37 Y5.871 E15.11798
G1 X49.022 Y6.58 E15.15738
G1 X48.604 Y7.251 E15.19682
G1 X48.121 Y7.875 E15.23619
G1 X47.578 Y8.448 E15.27557
G1 X46.979 Y8.963 E15.31498
G1 X46.331 Y9.414 E15.35437
G1 X45.64 Y9.798 E15.39381
G1 X44.915 Y10.11 E15.43319
G1 X44.162 Y10.347 E15.47257
G1 X43.388 Y10.506 E15.51199
G1 X42.506 Y10.597 E15.55623
G1 X-12.579 Y10.597 E18.30443
G0 F3600 X-12.979 Y10.197
G1 F1800 X-12.979 Y38.735 E19.7282
G1 X-13.019 Y39.503 E19.76657
G1 X-13.138 Y40.263 E19.80495
G1 X-13.336 Y41.006 E19.84331
G1 X-13.61 Y41.725 E19.8817
G1 X-13.957 Y42.411 E19.92005
G1 X-14.373 Y43.058 E19.95843
G1 X-14.854 Y43.658 E19.99679
G1 X-15.395 Y44.205 E20.03517
G1 X-15.99 Y44.693 E20.07357
G1 X-16.632 Y45.116 E20.11192
G1 X-17.315 Y45.471 E20.15032
G1 X-18.03 Y45.752 E20.18865
G1 X-18.772 Y45.958 E20.22707
G1 X-19.53 Y46.086 E20.26542
G1 X-20.379 Y46.135 E20.30785
G1 X-42.633 Y46.135 E21.41811
G1 X-43.401 Y46.095 E21.45647
G1 X-44.161 Y45.976 E21.49485
G1 X-44.904 Y45.778 E21.53322
G1 X-45.623 Y45.504 E21.5716
G1 X-46.309 Y45.157 E21.60996
G1 X-46.956 Y44.741 E21.64833
G1 X-47.556 Y44.26 E21.6867
G1 X-48.103 Y43.719 E21.72508
G1 X-48.591 Y43.124 E21.76347
G1 X-49.014 Y42.482 E21.80183
G1 X-49.369 Y41.799 E21.84023
G1 X-49.65 Y41.084 E21.87856
G1 X-49.856 Y40.342 E21.91698
G1 X-49.984 Y39.584 E21.95533
G1 X-50.033 Y38.735 E21.99776
G1 X-50.033 Y-28.38 E25.34614
G1 X-49.993 Y-29.148 E25.38451
G1 X-49.874 Y-29.908 E25.42288
G1 X-49.676 Y-30.651 E25.46125
G1 X-49.402 Y-31.37 E25.49963
G1 X-49.055 Y-32.056 E25.53799
G1 X-48.639 Y-32.703 E25.57636
G1 X-48.158 Y-33.303 E25.61473
G1 X-47.617 Y-33.85 E25.65311
G1 X-47.022 Y-34.338 E25.6915
G1 X-46.38 Y-34.761 E25.72986
G1 X-45.697 Y-35.116 E25.76826
G1 X-44.982 Y-35.397 E25.80659
G1 X-44.24 Y-35.603 E25.84501
G1 X-43.482 Y-35.731 E25.88336
G1 X-42.633 Y-35.78 E25.92579
G1 X-28.639 Y-35.78 E26.62395
G1 X-28.639 Y-38.735 E26.77138
G1 X-28.599 Y-39.503 E26.80975
G1 X-28.48 Y-40.263 E26.84812
G1 X-28.282 Y-41.006 E26.88649
G1 X-28.008 Y-41.725 E26.92487
G1 X-27.661 Y-42.411 E26.96323
G1 X-27.245 Y-43.058 E27.0016
G1 X-26.764 Y-43.658 E27.03997
G1 X-26.223 Y-44.205 E27.07835
G1 X-25.628 Y-44.693 E27.11674
G1 X-24.986 Y-45.116 E27.1551
G1 X-24.303 Y-45.471 E27.1935
G1 X-23.588 Y-45.752 E27.23183
G1 X-22.846 Y-45.958 E27.27025
G1 X-22.088 Y-46.086 E27.3086
G1 X-21.239 Y-46.135 E27.35103
G1 X42.201 Y-46.135 E30.51606
G1 X42.969 Y-46.095 E30.55443
G1 X43.729 Y-45.976 E30.59281
G1 X44.472 Y-45.778 E30.63117
G1 X45.191 Y-45.504 E30.66956
G1 X45.877 Y-45.157 E30.70791
G1 X46.524 Y-44.741 E30.74629
G1 X47.124 Y-44.26 E30.78465
G1 X47.671 Y-43.719 E30.82304
G1 X48.159 Y-43.124 E30.86143
G1 X48.582 Y-42.482 E30.89979
G1 X48.937 Y-41.799 E30.93819
G1 X49.218 Y-41.084 E30.97652
G1 X49.424 Y-40.342 E31.01493
G1 X49.552 Y-39.584 E31.05329
G1 X49.601 Y-38.735 E31.09571
G1 X49.601 Y2.797 E33.16775
G1 X49.561 Y3.565 E33.20612
G1 X49.442 Y4.325 E33.2445
G1 X49.244 Y5.068 E33.28286
G1 X48.97 Y5.787 E33.32125
G1 X48.623 Y6.473 E33.3596
G1 X48.207 Y7.12 E33.39798
G1 X47.726 Y7.72 E33.43634
G1 X47.185 Y8.267 E33.47473
G1 X46.59 Y8.755 E33.51312
G1 X45.948 Y9.178 E33.55148
G1 X45.265 Y9.533 E33.58988
G1 X44.55 Y9.814 E33.62821
G1 X43.808 Y10.02 E33.66662
G1 X43.05 Y10.148 E33.70498
G1 X42.201 Y10.197 E33.7474
G1 X-12.979 Y10.197 E36.50035
G0 F3600 X-13.379 Y9.797
G1 F1800 X-13.379 Y38.735 E37.94407
G1 X-13.419 Y39.482 E37.98139
G1 X-13.538 Y40.22 E38.01868
G1 X-13.736 Y40.942 E38.05603
G1 X-14.009 Y41.638 E38.09333
G1 X-14.356 Y42.301 E38.13067
G1 X-14.771 Y42.924 E38.16801
G1 X-15.25 Y43.498 E38.20531
G1 X-15.787 Y44.019 E38.24264
G1 X-16.377 Y44.478 E38.27993
G1 X-17.013 Y44.873 E38.31729
G1 X-17.687 Y45.197 E38.3546
G1 X-18.392 Y45.447 E38.39191
G1 X-19.12 Y45.621 E38.42926
G1 X-19.862 Y45.716 E38.46658
G1 X-20.379 Y45.735 E38.49239
G1 X-42.633 Y45.735 E39.60264
G1 X-43.38 Y45.695 E39.63997
G1 X-44.118 Y45.576 E39.67726
G1 X-44.84 Y45.378 E39.71461
G1 X-45.536 Y45.105 E39.75191
G1 X-46.199 Y44.758 E39.78924
G1 X-46.822 Y44.343 E39.82659
G1 X-47.396 Y43.864 E39.86389
G1 X-47.917 Y43.327 E39.90122
G1 X-48.376 Y42.737 E39.93851
G1 X-48.771 Y42.101 E39.97586
G1 X-49.095 Y41.427 E40.01317
G1 X-49.345 Y40.722 E40.05049
G1 X-49.519 Y39.994 E40.08783
G1 X-49.614 Y39.252 E40.12515
G1 X-49.633 Y38.735 E40.15097
G1 X-49.633 Y-28.38 E43.49935
G1 X-49.593 Y-29.127 E43.53667
G1 X-49.474 Y-29.865 E43.57396
G1 X-49.276 Y-30.587 E43.61131
G1 X-49.003 Y-31.283 E43.64861
G1 X-48.656 Y-31.946 E43.68595
G1 X-48.241 Y-32.569 E43.72329
G1 X-47.762 Y-33.143 E43.76059
G1 X-47.225 Y-33.664 E43.79792
G1 X-46.635 Y-34.123 E43.83521
G1 X-45.999 Y-34.518 E43.87256
G1 X-45.325 Y-34.842 E43.90987
G1 X-44.62 Y-35.092 E43.94719
G1 X-43.892 Y-35.266 E43.98453
G1 X-43.15 Y-35.361 E44.02186
G1 X-42.633 Y-35.38 E44.04767
G1 X-28.239 Y-35.38 E44.76579
G1 X-28.239 Y-38.735 E44.93317
G1 X-28.199 Y-39.482 E44.97049
G1 X-28.08 Y-40.22 E45.00778
G1 X-27.882 Y-40.942 E45.04513
G1 X-27.609 Y-41.638 E45.08243
G1 X-27.262 Y-42.301 E45.11977
G1 X-26.847 Y-42.924 E45.15711
G1 X-26.368 Y-43.498 E45.19441
G1 X-25.831 Y-44.019 E45.23174
G1 X-25.241 Y-44.478 E45.26903
G1 X-24.605 Y-44.873 E45.30638
G1 X-23.931 Y-45.197 E45.34369
G1 X-23.226 Y-45.447 E45.38101
G1 X-22.498 Y-45.621 E45.41836
G1 X-21.756 Y-45.716 E45.45568
G1 X-21.239 Y-45.735 E45.48149
G1 X42.201 Y-45.735 E48.64652
G1 X42.948 Y-45.695 E48.68384
G1 X43.686 Y-45.576 E48.72114
G1 X44.408 Y-45.378 E48.75849
G1 X45.104 Y-45.105 E48.79579
G1 X45.767 Y-44.758 E48.83312
G1 X46.39 Y-44.343 E48.87047
G1 X46.964 Y-43.864 E48.90777
G1 X47.485 Y-43.327 E48.94509
G1 X47.944 Y-42.737 E48.98239
G1 X48.339 Y-42.101 E49.01974
G1 X48.663 Y-41.427 E49.05705
G1 X48.913 Y-40.722 E49.09437
G1 X49.087 Y-39.994 E49.13171
G1 X49.182 Y-39.252 E49.16903
G1 X49.201 Y-38.735 E49.19484
G1 X49.201 Y2.797 E51.26688
G1 X49.161 Y3.544 E51.3042
G1 X49.042 Y4.282 E51.3415
G1 X48.844 Y5.004 E51.37885
G1 X48.571 Y5.7 E51.41615
G1 X48.224 Y6.363 E51.45348
G1 X47.809 Y6.986 E51.49083
G1 X47.33 Y7.56 E51.52813
G1 X46.793 Y8.081 E51.56545
G1 X46.203 Y8.54 E51.60275
G1 X45.567 Y8.935 E51.6401
G1 X44.893 Y9.259 E51.67741
G1 X44.188 Y9.509 E51.71473
G1 X43.46 Y9.683 E51.75207
G1 X42.718 Y9.778 E51.78939
G1 X42.201 Y9.797 E51.8152
G1 X-13.379 Y9.797 E54.5881
G0 F3600 X-13.779 Y9.397
G1 F1800 X-13.779 Y38.735 E56.05178
G1 X-13.819 Y39.46 E56.088
G1 X-13.938 Y40.177 E56.12426
G1 X-14.136 Y40.876 E56.16051
G1 X-14.409 Y41.549 E56.19674
G1 X-14.754 Y42.188 E56.23297
G1 X-15.168 Y42.785 E56.26922
G1 X-15.644 Y43.333 E56.30543
G1 X-16.178 Y43.826 E56.34169
G1 X-16.763 Y44.256 E56.37791
G1 X-17.392 Y44.62 E56.41417
G1 X-18.057 Y44.913 E56.45042
G1 X-18.75 Y45.131 E56.48667
G1 X-19.462 Y45.271 E56.52287
G1 X-20.379 Y45.335 E56.56873
G1 X-42.633 Y45.335 E57.67899
G1 X-43.358 Y45.295 E57.71521
G1 X-44.075 Y45.176 E57.75147
G1 X-44.774 Y44.978 E57.78772
G1 X-45.447 Y44.705 E57.82395
G1 X-46.086 Y44.36 E57.86018
G1 X-46.683 Y43.946 E57.89643
G1 X-47.231 Y43.47 E57.93264
G1 X-47.724 Y42.936 E57.9689
G1 X-48.154 Y42.351 E58.00512
G1 X-48.518 Y41.722 E58.04138
G1 X-48.811 Y41.057 E58.07763
G1 X-49.029 Y40.364 E58.11388
G1 X-49.169 Y39.652 E58.15008
G1 X-49.233 Y38.735 E58.19594
G1 X-49.233 Y-28.38 E61.54432
G1 X-49.193 Y-29.105 E61.58055
G1 X-49.074 Y-29.822 E61.61681
G1 X-48.876 Y-30.521 E61.65305
G1 X-48.603 Y-31.194 E61.68928
G1 X-48.258 Y-31.833 E61.72551
G1 X-47.844 Y-32.43 E61.76176
G1 X-47.368 Y-32.978 E61.79797
G1 X-46.834 Y-33.471 E61.83423
G1 X-46.249 Y-33.901 E61.87045
G1 X-45.62 Y-34.265 E61.90671
G1 X-44.955 Y-34.558 E61.94297
G1 X-44.262 Y-34.776 E61.97921
G1 X-43.55 Y-34.916 E62.01541
G1 X-42.633 Y-34.98 E62.06127
G1 X-27.839 Y-34.98 E62.79935
G1 X-27.839 Y-38.735 E62.98669
G1 X-27.799 Y-39.46 E63.02291
G1 X-27.68 Y-40.177 E63.05917
G1 X-27.482 Y-40.876 E63.09542
G1 X-27.209 Y-41.549 E63.13165
G1 X-26.864 Y-42.188 E63.16788
G1 X-26.45 Y-42.785 E63.20413
G1 X-25.974 Y-43.333 E63.24034
G1 X-25.44 Y-43.826 E63.2766
G1 X-24.855 Y-44.256 E63.31282
G1 X-24.226 Y-44.62 E63.34908
G1 X-23.561 Y-44.913 E63.38533
G1 X-22.868 Y-45.131 E63.42158
G1 X-22.156 Y-45.271 E63.45778
G1 X-21.239 Y-45.335 E63.50364
G1 X42.201 Y-45.335 E66.66867
G1 X42.926 Y-45.295 E66.7049
G1 X43.643 Y-45.176 E66.74116
G1 X44.342 Y-44.978 E66.7774
G1 X45.015 Y-44.705 E66.81364
G1 X45.654 Y-44.36 E66.84987
G1 X46.251 Y-43.946 E66.88611
G1 X46.799 Y-43.47 E66.92233
G1 X47.292 Y-42.936 E66.95858
G1 X47.722 Y-42.351 E66.99481
G1 X48.086 Y-41.722 E67.03106
G1 X48.379 Y-41.057 E67.06732
G1 X48.597 Y-40.364 E67.10356
G1 X48.737 Y-39.652 E67.13976
G1 X48.801 Y-38.735 E67.18563
G1 X48.801 Y2.797 E69.25766
G1 X48.761 Y3.522 E69.29389
G1 X48.642 Y4.239 E69.33015
G1 X48.444 Y4.938 E69.3664
G1 X48.171 Y5.611 E69.40263
G1 X47.826 Y6.25 E69.43886
G1 X47.412 Y6.847 E69.4751
G1 X46.936 Y7.395 E69.51132
G1 X46.402 Y7.888 E69.54758
G1 X45.817 Y8.318 E69.5838
G1 X45.188 Y8.682 E69.62006
G1 X44.523 Y8.975 E69.65631
G1 X43.83 Y9.193 E69.69255
G1 X43.118 Y9.333 E69.72876
G1 X42.201 Y9.397 E69.77462
G1 X-13.779 Y9.397 E72.56747
G0 F3600 X-14.179 Y8.997
G1 F1800 X-14.179 Y38.735 E74.05111
G1 X-14.219 Y39.438 E74.08624
G1 X-14.338 Y40.132 E74.12136
G1 X-14.536 Y40.807 E74.15646
G1 X-14.808 Y41.456 E74.19157
G1 X-15.153 Y42.07 E74.2267
G1 X-15.564 Y42.641 E74.2618
G1 X-16.038 Y43.162 E74.29694
G1 X-16.568 Y43.626 E74.33209
G1 X-17.147 Y44.026 E74.3672
G1 X-17.768 Y44.358 E74.40233
G1 X-18.422 Y44.618 E74.43744
G1 X-19.102 Y44.802 E74.47259
G1 X-19.798 Y44.908 E74.50771
G1 X-20.379 Y44.935 E74.53673
G1 X-42.633 Y44.935 E75.64698
G1 X-43.336 Y44.895 E75.68211
G1 X-44.03 Y44.776 E75.71724
G1 X-44.705 Y44.578 E75.75234
G1 X-45.354 Y44.306 E75.78744
G1 X-45.968 Y43.961 E75.82258
G1 X-46.539 Y43.55 E75.85768
G1 X-47.06 Y43.076 E75.89282
G1 X-47.524 Y42.546 E75.92796
G1 X-47.924 Y41.967 E75.96307
G1 X-48.256 Y41.346 E75.99821
G1 X-48.516 Y40.692 E76.03332
G1 X-48.7 Y40.012 E76.06846
G1 X-48.806 Y39.316 E76.10359
G1 X-48.833 Y38.735 E76.1326
G1 X-48.833 Y-28.38 E79.48099
G1 X-48.793 Y-29.083 E79.51611
G1 X-48.674 Y-29.777 E79.55124
G1 X-48.476 Y-30.452 E79.58634
G1 X-48.204 Y-31.101 E79.62145
G1 X-47.859 Y-31.715 E79.65658
G1 X-47.448 Y-32.286 E79.69168
G1 X-46.974 Y-32.807 E79.72682
G1 X-46.444 Y-33.271 E79.76197
G1 X-45.865 Y-33.671 E79.79708
G1 X-45.244 Y-34.003 E79.83221
G1 X-44.59 Y-34.263 E79.86732
G1 X-43.91 Y-34.447 E79.90246
G1 X-43.214 Y-34.553 E79.93759
G1 X-42.633 Y-34.58 E79.96661
G1 X-27.439 Y-34.58 E80.72464
G1 X-27.439 Y-38.735 E80.93193
G1 X-27.399 Y-39.438 E80.96706
G1 X-27.28 Y-40.132 E81.00219
G1 X-27.082 Y-40.807 E81.03729
G1 X-26.81 Y-41.456 E81.07239
G1 X-26.465 Y-42.07 E81.10753
G1 X-26.054 Y-42.641 E81.14263
G1 X-25.58 Y-43.162 E81.17777
G1 X-25.05 Y-43.626 E81.21291
G1 X-24.471 Y-44.026 E81.24802
G1 X-23.85 Y-44.358 E81.28315
G1 X-23.196 Y-44.618 E81.31827
G1 X-22.516 Y-44.802 E81.35341
G1 X-21.82 Y-44.908 E81.38854
G1 X-21.239 Y-44.935 E81.41755
G1 X42.201 Y-44.935 E84.58259
G1 X42.904 Y-44.895 E84.61772
G1 X43.598 Y-44.776 E84.65285
G1 X44.273 Y-44.578 E84.68794
G1 X44.922 Y-44.306 E84.72305
G1 X45.536 Y-43.961 E84.75819
G1 X46.107 Y-43.55 E84.79328
G1 X46.628 Y-43.076 E84.82843
G1 X47.092 Y-42.546 E84.86357
G1 X47.492 Y-41.967 E84.89868
G1 X47.824 Y-41.346 E84.93381
G1 X48.084 Y-40.692 E84.96892
G1 X48.268 Y-40.012 E85.00407
G1 X48.374 Y-39.316 E85.03919
G1 X48.401 Y-38.735 E85.06821
G1 X48.401 Y2.797 E87.14025
G1 X48.361 Y3.5 E87.17538
G1 X48.242 Y4.194 E87.21051
G1 X48.044 Y4.869 E87.2456
G1 X47.772 Y5.518 E87.28071
G1 X47.427 Y6.132 E87.31585
G1 X47.016 Y6.703 E87.35095
G1 X46.542 Y7.224 E87.38609
G1 X46.012 Y7.688 E87.42123
G1 X45.433 Y8.088 E87.45634
G1 X44.812 Y8.42 E87.49147
G1 X44.158 Y8.68 E87.52658
G1 X43.478 Y8.864 E87.56173
G1 X42.782 Y8.97 E87.59685
G1 X42.201 Y8.997 E87.62587
G1 X-14.179 Y8.997 E90.43868
G0 F3600 X-14.579 Y8.597
G1 F1800 X-14.579 Y38.735 E91.94227
G1 X-14.619 Y39.415 E91.97625
G1 X-14.738 Y40.085 E92.0102
G1 X-14.935 Y40.737 E92.04418
G1 X-15.207 Y41.361 E92.07814
G1 X-15.551 Y41.949 E92.11213
G1 X-15.961 Y42.493 E92.14612
G1 X-16.432 Y42.984 E92.18006
G1 X-16.957 Y43.418 E92.21404
G1 X-17.529 Y43.787 E92.248
G1 X-18.141 Y44.086 E92.28199
G1 X-18.783 Y44.311 E92.31593
G1 X-19.448 Y44.46 E92.34993
G1 X-20.379 Y44.535 E92.39652
G1 X-42.633 Y44.535 E93.50678
G1 X-43.313 Y44.495 E93.54076
G1 X-43.983 Y44.376 E93.57471
G1 X-44.635 Y44.179 E93.60869
G1 X-45.259 Y43.907 E93.64266
G1 X-45.847 Y43.563 E93.67664
G1 X-46.391 Y43.153 E93.71063
G1 X-46.882 Y42.682 E93.74457
G1 X-47.316 Y42.157 E93.77856
G1 X-47.685 Y41.585 E93.81252
G1 X-47.984 Y40.973 E93.8465
G1 X-48.209 Y40.331 E93.88044
G1 X-48.358 Y39.666 E93.91444
G1 X-48.433 Y38.735 E93.96103
G1 X-48.433 Y-28.38 E97.30942
G1 X-48.393 Y-29.06 E97.3434
G1 X-48.274 Y-29.73 E97.37735
G1 X-48.077 Y-30.382 E97.41133
G1 X-47.805 Y-31.006 E97.44529
G1 X-47.461 Y-31.594 E97.47928
G1 X-47.051 Y-32.138 E97.51326
G1 X-46.58 Y-32.629 E97.54721
G1 X-46.055 Y-33.063 E97.58119
G1 X-45.483 Y-33.432 E97.61515
G1 X-44.871 Y-33.731 E97.64913
G1 X-44.229 Y-33.956 E97.68307
