;FLAVOR:Marlin
;TIME:1059
;Filament used: 0.358137m
;Layer height: 0.1
;MINX:-14.166
;MINY:-14.166
;MINZ:0.3
;MAXX:14.166
;MAXY:14.166
;MAXZ:12
;Generated with Cura_SteamEngine 5.2.1
M140 S60
M105
M190 S60
M104 S210
M105
M109 S210
M82 ;absolute extrusion mode
G28 ;Home
G1 Z15.0 F6000 ;Move the platform down 15mm
;Prime the extruder
G92 E0
G1 F200 E3
G92 E0
M141 S28
G92 E0
G92 E0
;LAYER_COUNT:118
;LAYER:0
M107
G0 F3600 X9.453 Y-10.527 Z0.3
;TYPE:SKIRT
G1 F1800 X10.037 Y-9.996 E0.03938
G1 X10.524 Y-9.457 E0.07562
G1 X11.316 Y-8.494 E0.13783
G1 X11.786 Y-7.859 E0.17724
G1 X12.17 Y-7.218 E0.21452
G1 X12.76 Y-6.115 E0.27693
G1 X13.097 Y-5.401 E0.31632
G1 X13.347 Y-4.697 E0.35359
G1 X13.708 Y-3.505 E0.41572
G1 X13.898 Y-2.738 E0.45515
G1 X14.005 Y-2.013 E0.49171
G1 X14.128 Y-.771 E0.55398
G1 X14.166 Y0.018 E0.59338
G1 X14.128 Y0.765 E0.6307
G1 X14.005 Y2.01 E0.69312
G1 X13.888 Y2.791 E0.73252
G1 X13.709 Y3.502 E0.76909
G1 X13.348 Y4.695 E0.83128
G1 X13.081 Y5.438 E0.87067
G1 X12.761 Y6.113 E0.90794
G1 X12.172 Y7.215 E0.97028
G1 X11.765 Y7.891 E1.00964
G1 X11.318 Y8.492 E1.04701
G1 X10.527 Y9.454 E1.10915
G1 X9.995 Y10.038 E1.14856
G1 X9.457 Y10.524 E1.18473
G1 X8.494 Y11.316 E1.24693
G1 X7.859 Y11.786 E1.28635
G1 X7.218 Y12.17 E1.32363
G1 X6.115 Y12.76 E1.38603
G1 X5.401 Y13.097 E1.42542
G1 X4.695 Y13.348 E1.46281
G1 X3.502 Y13.709 E1.52499
G1 X2.736 Y13.899 E1.56436
G1 X2.011 Y14.005 E1.60092
G1 X0.768 Y14.128 E1.66324
G1 X-0.021 Y14.166 E1.70265
G1 X-.768 Y14.128 E1.73996
G1 X-2.011 Y14.005 E1.80228
G1 X-2.792 Y13.888 E1.84168
G1 X-3.502 Y13.709 E1.87821
G1 X-4.695 Y13.348 E1.94039
G1 X-5.438 Y13.081 E1.97978
G1 X-6.115 Y12.76 E2.01716
G1 X-7.218 Y12.17 E2.07957
G1 X-7.895 Y11.763 E2.11898
G1 X-8.494 Y11.316 E2.15627
G1 X-9.457 Y10.524 E2.21847
G1 X-10.04 Y9.992 E2.25785
G1 X-10.527 Y9.454 E2.29405
G1 X-11.318 Y8.492 E2.35619
G1 X-11.788 Y7.857 E2.3956
G1 X-12.172 Y7.215 E2.43292
G1 X-12.761 Y6.113 E2.49526
G1 X-13.098 Y5.398 E2.5347
G1 X-13.348 Y4.695 E2.57192
G1 X-13.709 Y3.502 E2.63411
G1 X-13.899 Y2.736 E2.67348
G1 X-14.005 Y2.012 E2.70998
G1 X-14.128 Y0.771 E2.7722
G1 X-14.166 Y-0.017 E2.81156
G1 X-14.128 Y-.764 E2.84888
G1 X-14.005 Y-2.01 E2.91134
G1 X-13.888 Y-2.791 E2.95074
G1 X-13.708 Y-3.505 E2.98748
G1 X-13.347 Y-4.697 E3.04961
G1 X-13.08 Y-5.44 E3.089
G1 X-12.76 Y-6.115 E3.12627
G1 X-12.17 Y-7.218 E3.18868
G1 X-11.763 Y-7.895 E3.22809
G1 X-11.317 Y-8.492 E3.26527
G1 X-10.527 Y-9.453 E3.32733
G1 X-9.996 Y-10.037 E3.36671
G1 X-9.457 Y-10.524 E3.40295
G1 X-8.494 Y-11.316 E3.46516
G1 X-7.859 Y-11.786 E3.50457
G1 X-7.218 Y-12.17 E3.54185
G1 X-6.115 Y-12.76 E3.60426
G1 X-5.401 Y-13.097 E3.64365
G1 X-4.695 Y-13.348 E3.68103
G1 X-3.502 Y-13.709 E3.74321
G1 X-2.736 Y-13.899 E3.78259
G1 X-2.011 Y-14.005 E3.81914
G1 X-.768 Y-14.128 E3.88146
G1 X0.021 Y-14.166 E3.92087
G1 X0.768 Y-14.128 E3.95818
G1 X2.011 Y-14.005 E4.0205
G1 X2.792 Y-13.888 E4.0599
G1 X3.502 Y-13.709 E4.09643
G1 X4.695 Y-13.348 E4.15861
G1 X5.438 Y-13.081 E4.198
G1 X6.115 Y-12.76 E4.23538
G1 X7.218 Y-12.17 E4.29779
G1 X7.895 Y-11.763 E4.3372
G1 X8.492 Y-11.317 E4.37438
G1 X9.453 Y-10.527 E4.43644
G0 F3600 X9.199 Y-10.218
G1 F1800 X9.767 Y-9.7 E4.4748
G1 X10.215 Y-9.202 E4.50821
G1 X11.007 Y-8.239 E4.57042
G1 X11.464 Y-7.621 E4.60877
G1 X11.817 Y-7.029 E4.64315
G1 X12.407 Y-5.926 E4.70556
G1 X12.734 Y-5.23 E4.74393
G1 X12.964 Y-4.581 E4.77828
G1 X13.325 Y-3.389 E4.84041
G1 X13.51 Y-2.642 E4.87881
G1 X13.607 Y-1.973 E4.91253
G1 X13.73 Y-.731 E4.9748
G1 X13.766 Y0.037 E5.01316
G1 X13.73 Y0.726 E5.04758
G1 X13.607 Y1.971 E5.11
G1 X13.492 Y2.731 E5.14834
G1 X13.326 Y3.386 E5.18205
G1 X12.965 Y4.579 E5.24424
G1 X12.704 Y5.303 E5.28263
G1 X12.408 Y5.924 E5.31696
G1 X11.819 Y7.026 E5.3793
G1 X11.422 Y7.685 E5.41768
G1 X11.009 Y8.238 E5.45211
G1 X10.218 Y9.2 E5.51425
G1 X9.699 Y9.768 E5.55263
G1 X9.202 Y10.215 E5.58598
G1 X8.239 Y11.007 E5.64819
G1 X7.621 Y11.464 E5.68653
G1 X7.029 Y11.817 E5.72092
G1 X5.926 Y12.407 E5.78333
G1 X5.23 Y12.734 E5.82169
G1 X4.579 Y12.965 E5.85616
G1 X3.386 Y13.326 E5.91834
G1 X2.639 Y13.51 E5.95672
G1 X1.972 Y13.607 E5.99035
G1 X0.729 Y13.73 E6.05267
G1 X-0.04 Y13.766 E6.09107
G1 X-.729 Y13.73 E6.12549
G1 X-1.972 Y13.607 E6.18781
G1 X-2.732 Y13.492 E6.22616
G1 X-3.386 Y13.326 E6.25982
G1 X-4.579 Y12.965 E6.32201
G1 X-5.303 Y12.704 E6.3604
G1 X-5.926 Y12.407 E6.39483
G1 X-7.029 Y11.817 E6.45724
G1 X-7.688 Y11.42 E6.49562
G1 X-8.239 Y11.007 E6.52998
G1 X-9.202 Y10.215 E6.59218
G1 X-9.77 Y9.697 E6.63054
G1 X-10.218 Y9.2 E6.66392
G1 X-11.009 Y8.238 E6.72605
G1 X-11.466 Y7.619 E6.76444
G1 X-11.819 Y7.026 E6.79887
G1 X-12.408 Y5.924 E6.86121
G1 X-12.735 Y5.228 E6.89957
G1 X-12.965 Y4.579 E6.93393
G1 X-13.326 Y3.386 E6.99611
G1 X-13.51 Y2.639 E7.03449
G1 X-13.607 Y1.973 E7.06807
G1 X-13.73 Y0.732 E7.13029
G1 X-13.766 Y-0.036 E7.16865
G1 X-13.73 Y-.725 E7.20307
G1 X-13.607 Y-1.971 E7.26553
G1 X-13.492 Y-2.731 E7.30388
G1 X-13.325 Y-3.389 E7.33775
G1 X-12.964 Y-4.581 E7.39988
G1 X-12.703 Y-5.304 E7.43823
G1 X-12.407 Y-5.926 E7.4726
G1 X-11.817 Y-7.029 E7.53501
G1 X-11.42 Y-7.688 E7.57339
G1 X-11.008 Y-8.238 E7.60767
G1 X-10.218 Y-9.199 E7.66974
G1 X-9.7 Y-9.767 E7.70809
G1 X-9.202 Y-10.215 E7.74151
G1 X-8.239 Y-11.007 E7.80372
G1 X-7.621 Y-11.464 E7.84206
G1 X-7.029 Y-11.817 E7.87645
G1 X-5.926 Y-12.407 E7.93886
G1 X-5.23 Y-12.734 E7.97722
G1 X-4.579 Y-12.965 E8.01168
G1 X-3.386 Y-13.326 E8.07387
G1 X-2.639 Y-13.51 E8.11225
G1 X-1.972 Y-13.607 E8.14588
G1 X-.729 Y-13.73 E8.20819
G1 X0.04 Y-13.766 E8.2466
G1 X0.729 Y-13.73 E8.28102
G1 X1.972 Y-13.607 E8.34334
G1 X2.732 Y-13.492 E8.38169
G1 X3.386 Y-13.326 E8.41535
G1 X4.579 Y-12.965 E8.47753
G1 X5.303 Y-12.704 E8.51593
G1 X5.926 Y-12.407 E8.55036
G1 X7.029 Y-11.817 E8.61277
G1 X7.688 Y-11.42 E8.65115
G1 X8.238 Y-11.008 E8.68544
G1 X9.199 Y-10.218 E8.7475
G0 F3600 X8.945 Y-9.909
G1 F1800 X9.497 Y-9.404 E8.78483
G1 X9.906 Y-8.948 E8.81539
G1 X10.698 Y-7.985 E8.87759
G1 X11.142 Y-7.383 E8.91491
G1 X11.464 Y-6.841 E8.94637
G1 X12.054 Y-5.738 E9.00877
G1 X12.372 Y-5.06 E9.04613
G1 X12.582 Y-4.465 E9.07761
G1 X12.943 Y-3.273 E9.13975
G1 X13.121 Y-2.546 E9.17709
G1 X13.209 Y-1.934 E9.20794
G1 X13.332 Y-.692 E9.2702
G1 X13.366 Y0.055 E9.30751
G1 X13.332 Y0.686 E9.33904
G1 X13.209 Y1.931 E9.40145
G1 X13.096 Y2.671 E9.4388
G1 X12.943 Y3.27 E9.46964
G1 X12.582 Y4.463 E9.53183
G1 X12.327 Y5.167 E9.56918
G1 X12.056 Y5.736 E9.60063
G1 X11.467 Y6.838 E9.66297
G1 X11.079 Y7.478 E9.7003
G1 X10.7 Y7.984 E9.73185
G1 X9.909 Y8.946 E9.79398
G1 X9.404 Y9.497 E9.83127
G1 X8.948 Y9.906 E9.86183
G1 X7.985 Y10.698 E9.92403
G1 X7.383 Y11.142 E9.96135
G1 X6.841 Y11.464 E9.99281
G1 X5.738 Y12.054 E10.05521
G1 X5.06 Y12.372 E10.09257
G1 X4.463 Y12.582 E10.12415
G1 X3.27 Y12.943 E10.18633
G1 X2.544 Y13.121 E10.22363
G1 X1.932 Y13.209 E10.25447
G1 X0.689 Y13.332 E10.31679
G1 X-0.058 Y13.366 E10.3541
G1 X-.689 Y13.332 E10.38562
G1 X-1.932 Y13.209 E10.44794
G1 X-2.672 Y13.096 E10.48528
G1 X-3.27 Y12.943 E10.51608
G1 X-4.463 Y12.582 E10.57826
G1 X-5.167 Y12.327 E10.61562
G1 X-5.738 Y12.054 E10.6472
G1 X-6.841 Y11.464 E10.7096
G1 X-7.48 Y11.077 E10.74687
G1 X-7.985 Y10.698 E10.77837
G1 X-8.948 Y9.906 E10.84058
G1 X-9.5 Y9.401 E10.87791
G1 X-9.909 Y8.946 E10.90843
G1 X-10.7 Y7.984 E10.97056
G1 X-11.143 Y7.381 E11.00789
G1 X-11.467 Y6.838 E11.03944
G1 X-12.056 Y5.736 E11.10178
G1 X-12.372 Y5.058 E11.1391
G1 X-12.582 Y4.463 E11.17058
G1 X-12.943 Y3.27 E11.23276
G1 X-13.121 Y2.544 E11.27005
G1 X-13.209 Y1.933 E11.30085
G1 X-13.332 Y0.692 E11.36307
G1 X-13.366 Y-0.055 E11.40038
G1 X-13.332 Y-.686 E11.4319
G1 X-13.209 Y-1.932 E11.49437
G1 X-13.096 Y-2.671 E11.53166
G1 X-12.943 Y-3.273 E11.56265
G1 X-12.582 Y-4.465 E11.62479
G1 X-12.327 Y-5.168 E11.6621
G1 X-12.054 Y-5.738 E11.69363
G1 X-11.464 Y-6.841 E11.75604
G1 X-11.077 Y-7.48 E11.79331
G1 X-10.699 Y-7.984 E11.82474
G1 X-9.909 Y-8.945 E11.8868
G1 X-9.404 Y-9.497 E11.92413
G1 X-8.948 Y-9.906 E11.95469
G1 X-7.985 Y-10.698 E12.01689
G1 X-7.383 Y-11.142 E12.05421
G1 X-6.841 Y-11.464 E12.08567
G1 X-5.738 Y-12.054 E12.14807
G1 X-5.06 Y-12.372 E12.18543
G1 X-4.463 Y-12.582 E12.21701
G1 X-3.27 Y-12.943 E12.27919
G1 X-2.544 Y-13.121 E12.31648
G1 X-1.932 Y-13.209 E12.34733
G1 X-.689 Y-13.332 E12.40965
G1 X0.058 Y-13.366 E12.44695
G1 X0.689 Y-13.332 E12.47848
G1 X1.932 Y-13.209 E12.5408
G1 X2.672 Y-13.096 E12.57814
G1 X3.27 Y-12.943 E12.60894
G1 X4.463 Y-12.582 E12.67112
G1 X5.167 Y-12.327 E12.70848
G1 X5.738 Y-12.054 E12.74006
G1 X6.841 Y-11.464 E12.80246
G1 X7.48 Y-11.077 E12.83973
G1 X7.984 Y-10.699 E12.87116
G1 X8.945 Y-9.909 E12.93323
G0 F3600 X8.691 Y-9.6
G1 F1800 X9.226 Y-9.109 E12.96946
G1 X9.597 Y-8.694 E12.99723
G1 X10.389 Y-7.731 E13.05943
G1 X10.819 Y-7.146 E13.09566
G1 X11.112 Y-6.652 E13.12431
G1 X11.702 Y-5.549 E13.18672
G1 X12.009 Y-4.891 E13.22294
G1 X12.199 Y-4.349 E13.2516
G1 X12.56 Y-3.157 E13.31373
G1 X12.732 Y-2.451 E13.34999
G1 X12.811 Y-1.894 E13.37805
G1 X12.934 Y-.652 E13.44032
G1 X12.966 Y0.073 E13.47653
G1 X12.934 Y0.647 E13.50521
G1 X12.811 Y1.892 E13.56762
G1 X12.7 Y2.61 E13.60387
G1 X12.56 Y3.155 E13.63194
G1 X12.199 Y4.348 E13.69413
G1 X11.951 Y5.03 E13.73033
G1 X11.703 Y5.547 E13.75894
G1 X11.114 Y6.649 E13.82128
G1 X10.737 Y7.27 E13.85752
G1 X10.391 Y7.73 E13.88624
G1 X9.6 Y8.692 E13.94837
G1 X9.108 Y9.227 E13.98464
G1 X8.694 Y9.597 E14.01234
G1 X7.731 Y10.389 E14.07454
G1 X7.146 Y10.819 E14.11076
G1 X6.652 Y11.112 E14.13942
G1 X5.549 Y11.702 E14.20183
G1 X4.891 Y12.009 E14.23805
G1 X4.348 Y12.199 E14.26675
G1 X3.155 Y12.56 E14.32894
G1 X2.449 Y12.732 E14.36519
G1 X1.893 Y12.811 E14.39321
G1 X0.65 Y12.934 E14.45552
G1 X-0.076 Y12.966 E14.49178
G1 X-.65 Y12.934 E14.52046
G1 X-1.893 Y12.811 E14.58278
G1 X-2.611 Y12.7 E14.61902
G1 X-3.155 Y12.56 E14.64705
G1 X-4.348 Y12.199 E14.70923
G1 X-5.03 Y11.951 E14.74544
G1 X-5.549 Y11.702 E14.77416
G1 X-6.652 Y11.112 E14.83656
G1 X-7.273 Y10.734 E14.87283
G1 X-7.731 Y10.389 E14.90144
G1 X-8.694 Y9.597 E14.96365
G1 X-9.229 Y9.106 E14.99987
G1 X-9.6 Y8.692 E15.02761
G1 X-10.391 Y7.73 E15.08974
G1 X-10.821 Y7.144 E15.12601
G1 X-11.114 Y6.649 E15.1547
G1 X-11.703 Y5.547 E15.21704
G1 X-12.009 Y4.889 E15.25325
G1 X-12.199 Y4.348 E15.28185
G1 X-12.56 Y3.155 E15.34404
G1 X-12.732 Y2.449 E15.38029
G1 X-12.811 Y1.894 E15.40826
G1 X-12.934 Y0.653 E15.47048
G1 X-12.966 Y-0.073 E15.50673
G1 X-12.934 Y-.646 E15.53536
G1 X-12.811 Y-1.892 E15.59783
G1 X-12.7 Y-2.61 E15.63407
G1 X-12.56 Y-3.157 E15.66224
G1 X-12.199 Y-4.349 E15.72438
G1 X-11.95 Y-5.032 E15.76065
G1 X-11.702 Y-5.549 E15.78926
G1 X-11.112 Y-6.652 E15.85166
G1 X-10.734 Y-7.273 E15.88793
G1 X-10.39 Y-7.73 E15.91647
G1 X-9.6 Y-8.691 E15.97854
G1 X-9.109 Y-9.226 E16.01476
G1 X-8.694 Y-9.597 E16.04254
G1 X-7.731 Y-10.389 E16.10474
G1 X-7.146 Y-10.819 E16.14096
G1 X-6.652 Y-11.112 E16.16962
G1 X-5.549 Y-11.702 E16.23203
G1 X-4.891 Y-12.009 E16.26825
G1 X-4.348 Y-12.199 E16.29695
G1 X-3.155 Y-12.56 E16.35914
G1 X-2.449 Y-12.732 E16.39539
G1 X-1.893 Y-12.811 E16.42341
G1 X-.65 Y-12.934 E16.48572
G1 X0.076 Y-12.966 E16.52198
G1 X0.65 Y-12.934 E16.55066
G1 X1.893 Y-12.811 E16.61298
G1 X2.611 Y-12.7 E16.64922
G1 X3.155 Y-12.56 E16.67725
G1 X4.348 Y-12.199 E16.73943
G1 X5.03 Y-11.951 E16.77564
G1 X5.549 Y-11.702 E16.80435
G1 X6.652 Y-11.112 E16.86676
G1 X7.273 Y-10.734 E16.90303
G1 X7.73 Y-10.39 E16.93157
G1 X8.691 Y-9.6 E16.99363
G0 F3600 X8.437 Y-9.291
G1 F1800 X8.955 Y-8.814 E17.02876
G1 X9.289 Y-8.44 E17.05378
G1 X10.081 Y-7.477 E17.11599
G1 X10.496 Y-6.909 E17.15108
G1 X10.759 Y-6.463 E17.17691
G1 X11.349 Y-5.36 E17.23932
G1 X11.645 Y-4.722 E17.27441
G1 X11.816 Y-4.233 E17.30025
G1 X12.177 Y-3.041 E17.36239
G1 X12.342 Y-2.357 E17.39749
G1 X12.413 Y-1.855 E17.42279
G1 X12.536 Y-.613 E17.48506
G1 X12.565 Y0.09 E17.52016
G1 X12.536 Y0.608 E17.54604
G1 X12.413 Y1.853 E17.60846
G1 X12.304 Y2.548 E17.64356
G1 X12.177 Y3.039 E17.66886
G1 X11.816 Y4.232 E17.73104
G1 X11.574 Y4.893 E17.76616
G1 X11.35 Y5.359 E17.79196
G1 X10.761 Y6.461 E17.85429
G1 X10.394 Y7.062 E17.88943
G1 X10.082 Y7.476 E17.91529
G1 X9.291 Y8.438 E17.97743
G1 X8.814 Y8.955 E18.01252
G1 X8.44 Y9.289 E18.03754
G1 X7.477 Y10.081 E18.09974
G1 X6.909 Y10.496 E18.13484
G1 X6.463 Y10.759 E18.16067
G1 X5.36 Y11.349 E18.22308
G1 X4.722 Y11.645 E18.25816
G1 X4.232 Y11.816 E18.28406
G1 X3.039 Y12.177 E18.34624
G1 X2.354 Y12.343 E18.3814
G1 X1.854 Y12.413 E18.40659
G1 X0.611 Y12.536 E18.46891
G1 X-0.093 Y12.565 E18.50406
G1 X-.611 Y12.536 E18.52995
G1 X-1.854 Y12.413 E18.59226
G1 X-2.549 Y12.304 E18.62736
G1 X-3.039 Y12.177 E18.65261
G1 X-4.232 Y11.816 E18.7148
G1 X-4.893 Y11.574 E18.74992
G1 X-5.36 Y11.349 E18.77578
G1 X-6.463 Y10.759 E18.83818
G1 X-7.064 Y10.392 E18.87332
G1 X-7.477 Y10.081 E18.89911
G1 X-8.44 Y9.289 E18.96132
G1 X-8.958 Y8.811 E18.99648
G1 X-9.291 Y8.438 E19.02143
G1 X-10.082 Y7.476 E19.08356
G1 X-10.498 Y6.907 E19.11873
G1 X-10.761 Y6.461 E19.14456
G1 X-11.35 Y5.359 E19.2069
G1 X-11.646 Y4.72 E19.24203
G1 X-11.816 Y4.232 E19.26781
G1 X-12.177 Y3.039 E19.33
G1 X-12.343 Y2.354 E19.36516
G1 X-12.413 Y1.855 E19.3903
G1 X-12.536 Y0.614 E19.45252
G1 X-12.565 Y-0.09 E19.48767
G1 X-12.536 Y-.607 E19.5135
G1 X-12.413 Y-1.853 E19.57597
G1 X-12.304 Y-2.549 E19.61112
G1 X-12.177 Y-3.041 E19.63647
G1 X-11.816 Y-4.233 E19.6986
G1 X-11.574 Y-4.894 E19.73372
G1 X-11.349 Y-5.36 E19.75954
G1 X-10.759 Y-6.463 E19.82195
G1 X-10.392 Y-7.064 E19.85708
G1 X-10.081 Y-7.476 E19.88283
G1 X-9.291 Y-8.437 E19.9449
G1 X-8.814 Y-8.955 E19.98003
G1 X-8.44 Y-9.289 E20.00504
G1 X-7.477 Y-10.081 E20.06725
G1 X-6.909 Y-10.496 E20.10235
G1 X-6.463 Y-10.759 E20.12818
G1 X-5.36 Y-11.349 E20.19058
G1 X-4.722 Y-11.645 E20.22567
G1 X-4.232 Y-11.816 E20.25156
G1 X-3.039 Y-12.177 E20.31375
G1 X-2.354 Y-12.343 E20.34891
G1 X-1.854 Y-12.413 E20.3741
G1 X-.611 Y-12.536 E20.43642
G1 X0.093 Y-12.565 E20.47157
G1 X0.611 Y-12.536 E20.49745
G1 X1.854 Y-12.413 E20.55977
G1 X2.549 Y-12.304 E20.59487
G1 X3.039 Y-12.177 E20.62012
G1 X4.232 Y-11.816 E20.68231
G1 X4.893 Y-11.574 E20.71742
G1 X5.36 Y-11.349 E20.74329
G1 X6.463 Y-10.759 E20.80569
G1 X7.064 Y-10.392 E20.84082
G1 X7.476 Y-10.081 E20.86658
G1 X8.437 Y-9.291 E20.92864
G0 F3600 X8.183 Y-8.982
G1 F1800 X8.776 Y-8.434 E20.96893
G1 X9.772 Y-7.223 E21.04715
G1 X10.252 Y-6.563 E21.08787
G1 X10.996 Y-5.172 E21.16657
G1 X11.337 Y-4.434 E21.20713
G1 X11.794 Y-2.925 E21.28579
G1 X11.983 Y-2.137 E21.32622
G1 X12.138 Y-.574 E21.40458
G1 X12.17 Y0.241 E21.44527
G1 X12.015 Y1.813 E21.52408
G1 X11.888 Y2.613 E21.56449
G1 X11.433 Y4.116 E21.64284
G1 X11.152 Y4.88 E21.68345
G1 X10.408 Y6.272 E21.76219
G1 X9.985 Y6.964 E21.80266
G1 X8.982 Y8.184 E21.88145
G1 X8.428 Y8.781 E21.92208
G1 X7.223 Y9.772 E21.99992
G1 X6.563 Y10.252 E22.04063
G1 X5.172 Y10.996 E22.11934
G1 X4.435 Y11.336 E22.15983
G1 X2.923 Y11.794 E22.23865
G1 X2.135 Y11.983 E22.27908
G1 X0.571 Y12.138 E22.35749
G1 X-.244 Y12.17 E22.39818
G1 X-1.814 Y12.015 E22.47689
G1 X-2.612 Y11.888 E22.5172
G1 X-4.116 Y11.433 E22.59559
G1 X-4.881 Y11.152 E22.63625
G1 X-6.275 Y10.406 E22.71513
G1 X-6.973 Y9.977 E22.75601
G1 X-8.186 Y8.98 E22.83434
G1 X-8.779 Y8.431 E22.87466
G1 X-9.773 Y7.222 E22.95274
G1 X-10.252 Y6.564 E22.99335
G1 X-10.997 Y5.17 E23.07221
G1 X-11.337 Y4.432 E23.11274
G1 X-11.794 Y2.923 E23.19141
G1 X-11.983 Y2.135 E23.23183
G1 X-12.138 Y0.574 E23.3101
G1 X-12.17 Y-.24 E23.35074
G1 X-12.015 Y-1.814 E23.42964
G1 X-11.887 Y-2.618 E23.47026
G1 X-11.433 Y-4.117 E23.5484
G1 X-11.153 Y-4.879 E23.5889
G1 X-10.406 Y-6.275 E23.66789
G1 X-9.98 Y-6.969 E23.70852
G1 X-8.982 Y-8.183 E23.78693
G1 X-8.434 Y-8.776 E23.82721
G1 X-7.223 Y-9.772 E23.90544
G1 X-6.563 Y-10.252 E23.94615
G1 X-5.172 Y-10.996 E24.02485
G1 X-4.435 Y-11.336 E24.06534
G1 X-2.923 Y-11.794 E24.14416
G1 X-2.135 Y-11.983 E24.18459
G1 X-.571 Y-12.138 E24.263
G1 X0.244 Y-12.17 E24.30369
G1 X1.814 Y-12.015 E24.3824
G1 X2.612 Y-11.888 E24.42272
G1 X4.116 Y-11.433 E24.50111
G1 X4.881 Y-11.152 E24.54177
G1 X6.275 Y-10.406 E24.62065
G1 X6.969 Y-9.98 E24.66127
G1 X8.183 Y-8.982 E24.73968
G0 F3600 X7.929 Y-8.673
G1 F1800 X8.491 Y-8.15 E24.77798
G1 X9.463 Y-6.969 E24.85429
