;FLAVOR:Marlin
;TIME:3222
;Filament used: 2.99015m
;Layer height: 0.2
;MINX:-46.339
;MINY:-14.824
;MINZ:0.3
;MAXX:46.339
;MAXY:14.824
;MAXZ:14.9
;Generated with Cura_SteamEngine 5.2.1
M140 S60
M105
M190 S60
M104 S200
M105
M109 S200
M82 ;absolute extrusion mode
G28 ;Home
G1 Z15.0 F6000 ;Move the platform down 15mm
;Prime the extruder
G92 E0
G1 F200 E3
G92 E0
M141 S28
G92 E0
G92 E0
G1 F1500 E-1
;LAYER_COUNT:69
;LAYER:0
M107
G1 F600 Z1.3
G0 F3600 X-33.959 Y14.824 Z1.3
;TYPE:SKIRT
G1 F600 Z0.3
G1 F1500 E0
G1 F1800 X-34.748 Y14.784 E0.03941
G1 X-35.528 Y14.665 E0.07878
G1 X-36.293 Y14.467 E0.1182
G1 X-37.033 Y14.193 E0.15757
G1 X-37.742 Y13.845 E0.19697
G1 X-38.413 Y13.428 E0.23639
G1 X-39.037 Y12.944 E0.27579
G1 X-39.61 Y12.401 E0.31517
G1 X-40.125 Y11.802 E0.35458
G1 X-40.576 Y11.154 E0.39397
G1 X-40.743 Y10.852 E0.41119
G1 X-41.618 Y10.529 E0.45772
G1 X-42.327 Y10.181 E0.49712
G1 X-42.997 Y9.763 E0.53652
G1 X-43.621 Y9.279 E0.57592
G1 X-44.193 Y8.735 E0.6153
G1 X-44.708 Y8.136 E0.65471
G1 X-45.159 Y7.488 E0.6941
G1 X-45.542 Y6.797 E0.73352
G1 X-45.853 Y6.071 E0.77292
G1 X-46.09 Y5.318 E0.8123
G1 X-46.249 Y4.544 E0.85173
G1 X-46.339 Y3.661 E0.89601
G1 X-46.339 Y-3.362 E1.24639
G1 X-46.299 Y-4.151 E1.2858
G1 X-46.18 Y-4.931 E1.32516
G1 X-45.982 Y-5.696 E1.36459
G1 X-45.708 Y-6.436 E1.40396
G1 X-45.36 Y-7.145 E1.44336
G1 X-44.942 Y-7.816 E1.4828
G1 X-44.459 Y-8.44 E1.52217
G1 X-43.916 Y-9.013 E1.56155
G1 X-43.317 Y-9.528 E1.60096
G1 X-42.669 Y-9.979 E1.64035
G1 X-41.978 Y-10.363 E1.67979
G1 X-41.253 Y-10.675 E1.71917
G1 X-40.766 Y-10.828 E1.74464
G1 X-40.362 Y-11.477 E1.78278
G1 X-39.879 Y-12.101 E1.82214
G1 X-39.336 Y-12.674 E1.86153
G1 X-38.737 Y-13.189 E1.90094
G1 X-38.089 Y-13.64 E1.94033
G1 X-37.398 Y-14.024 E1.97977
G1 X-36.673 Y-14.336 E2.01914
G1 X-35.92 Y-14.573 E2.05853
G1 X-35.146 Y-14.732 E2.09795
G1 X-34.264 Y-14.823 E2.14219
G1 X38.539 Y-14.824 E5.77434
G1 X39.328 Y-14.784 E5.81376
G1 X40.108 Y-14.665 E5.85312
G1 X40.873 Y-14.467 E5.89255
G1 X41.613 Y-14.193 E5.93191
G1 X42.322 Y-13.845 E5.97132
G1 X42.993 Y-13.428 E6.01073
G1 X43.617 Y-12.944 E6.05013
G1 X44.19 Y-12.401 E6.08951
G1 X44.705 Y-11.802 E6.12892
G1 X45.156 Y-11.154 E6.16831
G1 X45.54 Y-10.464 E6.20771
G1 X45.852 Y-9.738 E6.24713
G1 X46.089 Y-8.985 E6.28652
G1 X46.248 Y-8.211 E6.32594
G1 X46.339 Y-7.329 E6.37017
G1 X46.339 Y7.023 E7.0862
G1 X46.299 Y7.812 E7.12561
G1 X46.18 Y8.592 E7.16498
G1 X45.982 Y9.357 E7.2044
G1 X45.708 Y10.097 E7.24377
G1 X45.36 Y10.806 E7.28317
G1 X44.942 Y11.477 E7.32261
G1 X44.459 Y12.101 E7.36198
G1 X43.916 Y12.674 E7.40136
G1 X43.317 Y13.189 E7.44078
G1 X42.669 Y13.64 E7.48016
G1 X41.978 Y14.024 E7.5196
G1 X41.253 Y14.336 E7.55898
G1 X40.5 Y14.573 E7.59837
G1 X39.726 Y14.732 E7.63779
G1 X38.844 Y14.823 E7.68202
G1 X-33.959 Y14.824 E11.31418
G0 F3600 X-33.959 Y14.424
G1 F1800 X-34.727 Y14.384 E11.35255
G1 X-35.487 Y14.265 E11.39093
G1 X-36.23 Y14.067 E11.42929
G1 X-36.949 Y13.793 E11.46768
G1 X-37.635 Y13.446 E11.50603
G1 X-38.282 Y13.03 E11.54441
G1 X-38.882 Y12.549 E11.58277
G1 X-39.429 Y12.008 E11.62115
G1 X-39.917 Y11.413 E11.65955
G1 X-40.34 Y10.771 E11.6979
G1 X-40.485 Y10.491 E11.71363
G1 X-40.815 Y10.403 E11.73067
G1 X-41.533 Y10.129 E11.76901
G1 X-42.22 Y9.782 E11.80741
G1 X-42.866 Y9.365 E11.84577
G1 X-43.466 Y8.884 E11.88414
G1 X-44.012 Y8.342 E11.92252
G1 X-44.5 Y7.747 E11.96091
G1 X-44.923 Y7.105 E11.99927
G1 X-45.277 Y6.422 E12.03765
G1 X-45.558 Y5.706 E12.07602
G1 X-45.763 Y4.965 E12.11438
G1 X-45.891 Y4.206 E12.15278
G1 X-45.939 Y3.362 E12.19496
G1 X-45.939 Y-3.362 E12.53042
G1 X-45.899 Y-4.13 E12.56879
G1 X-45.78 Y-4.89 E12.60716
G1 X-45.582 Y-5.633 E12.64553
G1 X-45.308 Y-6.352 E12.68391
G1 X-44.961 Y-7.038 E12.72227
G1 X-44.545 Y-7.685 E12.76064
G1 X-44.064 Y-8.285 E12.79901
G1 X-43.523 Y-8.832 E12.83739
G1 X-42.928 Y-9.32 E12.87578
G1 X-42.286 Y-9.743 E12.91414
G1 X-41.603 Y-10.098 E12.95254
G1 X-40.888 Y-10.379 E12.99087
G1 X-40.486 Y-10.49 E13.01168
G1 X-40.381 Y-10.699 E13.02335
G1 X-39.965 Y-11.346 E13.06172
G1 X-39.484 Y-11.946 E13.10009
G1 X-38.943 Y-12.493 E13.13847
G1 X-38.348 Y-12.981 E13.17686
G1 X-37.706 Y-13.404 E13.21522
G1 X-37.023 Y-13.759 E13.25362
G1 X-36.308 Y-14.04 E13.29195
G1 X-35.566 Y-14.246 E13.33037
G1 X-34.808 Y-14.374 E13.36872
G1 X-33.959 Y-14.423 E13.41115
G1 X38.539 Y-14.424 E17.02809
G1 X39.307 Y-14.384 E17.06645
G1 X40.067 Y-14.265 E17.10483
G1 X40.81 Y-14.067 E17.1432
G1 X41.529 Y-13.793 E17.18158
G1 X42.215 Y-13.446 E17.21994
G1 X42.862 Y-13.03 E17.25831
G1 X43.462 Y-12.549 E17.29668
G1 X44.009 Y-12.008 E17.33506
G1 X44.497 Y-11.413 E17.37345
G1 X44.92 Y-10.771 E17.41181
G1 X45.275 Y-10.088 E17.45021
G1 X45.556 Y-9.373 E17.48854
G1 X45.762 Y-8.632 E17.52691
G1 X45.89 Y-7.873 E17.56531
G1 X45.939 Y-7.024 E17.60774
G1 X45.939 Y7.023 E18.30855
G1 X45.899 Y7.791 E18.34691
G1 X45.78 Y8.551 E18.38529
G1 X45.582 Y9.294 E18.42365
G1 X45.308 Y10.013 E18.46204
G1 X44.961 Y10.699 E18.5004
G1 X44.545 Y11.346 E18.53877
G1 X44.064 Y11.946 E18.57714
G1 X43.523 Y12.493 E18.61552
G1 X42.928 Y12.981 E18.65391
G1 X42.286 Y13.404 E18.69227
G1 X41.603 Y13.759 E18.73067
G1 X40.888 Y14.04 E18.769
G1 X40.146 Y14.246 E18.80742
G1 X39.388 Y14.374 E18.84577
G1 X38.539 Y14.423 E18.8882
G1 X-33.959 Y14.424 E22.50514
G0 F3600 X-33.959 Y14.024
G1 F1800 X-34.706 Y13.984 E22.54246
G1 X-35.444 Y13.865 E22.57975
G1 X-36.166 Y13.667 E22.6171
G1 X-36.862 Y13.394 E22.6544
G1 X-37.525 Y13.047 E22.69174
G1 X-38.148 Y12.632 E22.72908
G1 X-38.722 Y12.153 E22.76638
G1 X-39.242 Y11.616 E22.80367
G1 X-39.702 Y11.026 E22.841
G1 X-40.097 Y10.39 E22.87835
G1 X-40.211 Y10.152 E22.89152
G1 X-40.75 Y10.004 E22.9194
G1 X-41.446 Y9.73 E22.95672
G1 X-42.109 Y9.383 E22.99405
G1 X-42.731 Y8.968 E23.03136
G1 X-43.306 Y8.488 E23.06873
G1 X-43.825 Y7.95 E23.10602
G1 X-44.285 Y7.36 E23.14335
G1 X-44.679 Y6.724 E23.18067
G1 X-45.002 Y6.05 E23.21796
G1 X-45.252 Y5.345 E23.25528
G1 X-45.426 Y4.617 E23.29262
G1 X-45.52 Y3.875 E23.32993
G1 X-45.539 Y3.362 E23.35555
G1 X-45.539 Y-3.362 E23.69101
G1 X-45.499 Y-4.109 E23.72833
G1 X-45.38 Y-4.847 E23.76562
G1 X-45.182 Y-5.569 E23.80297
G1 X-44.909 Y-6.265 E23.84027
G1 X-44.562 Y-6.928 E23.87761
G1 X-44.147 Y-7.551 E23.91495
G1 X-43.668 Y-8.125 E23.95225
G1 X-43.131 Y-8.646 E23.98958
G1 X-42.541 Y-9.105 E24.02687
G1 X-41.905 Y-9.5 E24.06423
G1 X-41.231 Y-9.824 E24.10153
G1 X-40.526 Y-10.074 E24.13885
G1 X-40.212 Y-10.149 E24.15496
G1 X-39.982 Y-10.589 E24.17973
G1 X-39.567 Y-11.212 E24.21708
G1 X-39.088 Y-11.786 E24.25437
G1 X-38.551 Y-12.307 E24.2917
G1 X-37.961 Y-12.766 E24.329
G1 X-37.325 Y-13.161 E24.36635
G1 X-36.651 Y-13.485 E24.40366
G1 X-35.946 Y-13.735 E24.44098
G1 X-35.218 Y-13.909 E24.47832
G1 X-34.476 Y-14.004 E24.51564
G1 X-33.959 Y-14.023 E24.54145
G1 X38.539 Y-14.024 E28.15839
G1 X39.286 Y-13.984 E28.19571
G1 X40.024 Y-13.865 E28.23301
G1 X40.746 Y-13.667 E28.27036
G1 X41.442 Y-13.394 E28.30766
G1 X42.105 Y-13.047 E28.34499
G1 X42.728 Y-12.632 E28.38234
G1 X43.302 Y-12.153 E28.41963
G1 X43.822 Y-11.616 E28.45693
G1 X44.282 Y-11.026 E28.49425
G1 X44.677 Y-10.39 E28.5316
G1 X45.001 Y-9.716 E28.56891
G1 X45.251 Y-9.011 E28.60623
G1 X45.425 Y-8.283 E28.64357
G1 X45.52 Y-7.541 E28.6809
G1 X45.539 Y-7.024 E28.70671
G1 X45.539 Y7.023 E29.40751
G1 X45.499 Y7.77 E29.44484
G1 X45.38 Y8.508 E29.48213
G1 X45.182 Y9.23 E29.51948
G1 X44.909 Y9.926 E29.55678
G1 X44.562 Y10.589 E29.59411
G1 X44.147 Y11.212 E29.63146
G1 X43.668 Y11.786 E29.66876
G1 X43.131 Y12.307 E29.70609
G1 X42.541 Y12.766 E29.74338
G1 X41.905 Y13.161 E29.78073
G1 X41.231 Y13.485 E29.81804
G1 X40.526 Y13.735 E29.85536
G1 X39.798 Y13.909 E29.8927
G1 X39.056 Y14.004 E29.93002
G1 X38.539 Y14.023 E29.95583
G1 X-33.959 Y14.024 E33.57277
G0 F3600 X-33.959 Y13.624
G1 F1800 X-34.684 Y13.584 E33.609
G1 X-35.401 Y13.465 E33.64526
G1 X-36.1 Y13.267 E33.68151
G1 X-36.773 Y12.994 E33.71774
G1 X-37.412 Y12.649 E33.75397
G1 X-38.009 Y12.235 E33.79021
G1 X-38.557 Y11.759 E33.82643
G1 X-39.05 Y11.225 E33.86269
G1 X-39.48 Y10.64 E33.89891
G1 X-39.844 Y10.011 E33.93516
G1 X-39.929 Y9.818 E33.94569
G1 X-40.684 Y9.604 E33.98484
G1 X-41.357 Y9.33 E34.02109
G1 X-41.995 Y8.985 E34.05727
G1 X-42.592 Y8.571 E34.09352
G1 X-43.14 Y8.094 E34.12977
G1 X-43.632 Y7.56 E34.16599
G1 X-44.063 Y6.974 E34.20228
G1 X-44.426 Y6.346 E34.23847
G1 X-44.718 Y5.681 E34.27471
G1 X-44.936 Y4.987 E34.311
G1 X-45.076 Y4.275 E34.3472
G1 X-45.139 Y3.362 E34.39286
G1 X-45.139 Y-3.362 E34.72832
G1 X-45.099 Y-4.087 E34.76455
G1 X-44.98 Y-4.804 E34.80081
G1 X-44.782 Y-5.503 E34.83705
G1 X-44.509 Y-6.176 E34.87328
G1 X-44.164 Y-6.815 E34.90951
G1 X-43.75 Y-7.412 E34.94576
G1 X-43.274 Y-7.96 E34.98197
G1 X-42.74 Y-8.453 E35.01823
G1 X-42.155 Y-8.883 E35.05445
G1 X-41.526 Y-9.247 E35.09071
G1 X-40.861 Y-9.54 E35.12697
G1 X-40.168 Y-9.758 E35.16321
G1 X-39.943 Y-9.802 E35.17465
G1 X-39.584 Y-10.476 E35.21275
G1 X-39.17 Y-11.073 E35.24899
G1 X-38.694 Y-11.621 E35.28521
G1 X-38.16 Y-12.114 E35.32146
G1 X-37.575 Y-12.544 E35.35769
G1 X-36.946 Y-12.908 E35.39394
G1 X-36.281 Y-13.201 E35.4302
G1 X-35.588 Y-13.419 E35.46644
G1 X-34.876 Y-13.559 E35.50264
G1 X-33.959 Y-13.623 E35.5485
G1 X38.539 Y-13.624 E39.16544
G1 X39.264 Y-13.584 E39.20167
G1 X39.981 Y-13.465 E39.23793
G1 X40.68 Y-13.267 E39.27418
G1 X41.353 Y-12.994 E39.31041
G1 X41.992 Y-12.649 E39.34664
G1 X42.589 Y-12.235 E39.38288
G1 X43.137 Y-11.759 E39.4191
G1 X43.63 Y-11.225 E39.45536
G1 X44.06 Y-10.64 E39.49158
G1 X44.424 Y-10.011 E39.52784
G1 X44.717 Y-9.347 E39.56404
G1 X44.935 Y-8.654 E39.60029
G1 X45.075 Y-7.941 E39.63654
G1 X45.139 Y-7.024 E39.6824
G1 X45.139 Y7.023 E40.38321
G1 X45.099 Y7.748 E40.41943
G1 X44.98 Y8.465 E40.45569
G1 X44.782 Y9.164 E40.49194
G1 X44.509 Y9.837 E40.52817
G1 X44.164 Y10.476 E40.5644
G1 X43.75 Y11.073 E40.60065
G1 X43.274 Y11.621 E40.63686
G1 X42.74 Y12.114 E40.67312
G1 X42.155 Y12.544 E40.70934
G1 X41.526 Y12.908 E40.7456
G1 X40.861 Y13.201 E40.78185
G1 X40.168 Y13.419 E40.8181
G1 X39.456 Y13.559 E40.8543
G1 X38.539 Y13.623 E40.90016
G1 X-33.959 Y13.624 E44.5171
G0 F3600 X-33.959 Y13.224
G1 F1800 X-34.662 Y13.184 E44.55223
G1 X-35.356 Y13.065 E44.58736
G1 X-36.031 Y12.867 E44.62245
G1 X-36.68 Y12.595 E44.65756
G1 X-37.294 Y12.25 E44.6927
G1 X-37.865 Y11.839 E44.7278
G1 X-38.386 Y11.365 E44.76294
G1 X-38.85 Y10.835 E44.79808
G1 X-39.25 Y10.256 E44.83319
G1 X-39.582 Y9.635 E44.86832
G1 X-39.655 Y9.451 E44.8782
G1 X-39.939 Y9.402 E44.89258
G1 X-40.615 Y9.204 E44.92772
G1 X-41.264 Y8.931 E44.96285
G1 X-41.878 Y8.586 E44.99798
G1 X-42.448 Y8.174 E45.03307
G1 X-42.969 Y7.7 E45.06821
G1 X-43.432 Y7.17 E45.10332
G1 X-43.832 Y6.59 E45.13847
G1 X-44.164 Y5.97 E45.17356
G1 X-44.423 Y5.315 E45.2087
G1 X-44.607 Y4.636 E45.2438
G1 X-44.712 Y3.939 E45.27896
G1 X-44.739 Y3.362 E45.30778
G1 X-44.739 Y-3.362 E45.64324
G1 X-44.699 Y-4.065 E45.67837
G1 X-44.58 Y-4.759 E45.7135
G1 X-44.382 Y-5.434 E45.7486
G1 X-44.11 Y-6.083 E45.7837
G1 X-43.765 Y-6.697 E45.81884
G1 X-43.354 Y-7.268 E45.85394
G1 X-42.88 Y-7.789 E45.88908
G1 X-42.35 Y-8.253 E45.92422
G1 X-41.771 Y-8.653 E45.95933
G1 X-41.15 Y-8.985 E45.99446
G1 X-40.496 Y-9.245 E46.02958
G1 X-39.643 Y-9.476 E46.07367
G1 X-39.53 Y-9.744 E46.08818
G1 X-39.185 Y-10.358 E46.12331
G1 X-38.774 Y-10.929 E46.15841
G1 X-38.3 Y-11.45 E46.19355
G1 X-37.77 Y-11.914 E46.2287
G1 X-37.191 Y-12.314 E46.26381
G1 X-36.57 Y-12.646 E46.29894
G1 X-35.916 Y-12.906 E46.33405
G1 X-35.236 Y-13.09 E46.36919
G1 X-34.54 Y-13.196 E46.40432
G1 X-33.959 Y-13.223 E46.43334
G1 X38.539 Y-13.224 E50.05028
G1 X39.242 Y-13.184 E50.08541
G1 X39.936 Y-13.065 E50.12053
G1 X40.611 Y-12.867 E50.15563
G1 X41.26 Y-12.595 E50.19074
G1 X41.874 Y-12.25 E50.22587
G1 X42.445 Y-11.839 E50.26097
G1 X42.966 Y-11.365 E50.29611
G1 X43.43 Y-10.835 E50.33126
G1 X43.83 Y-10.256 E50.36637
G1 X44.162 Y-9.635 E50.4015
G1 X44.422 Y-8.981 E50.43661
G1 X44.606 Y-8.301 E50.47176
G1 X44.712 Y-7.605 E50.50688
G1 X44.739 Y-7.024 E50.5359
G1 X44.739 Y7.023 E51.2367
G1 X44.699 Y7.726 E51.27183
G1 X44.58 Y8.42 E51.30696
G1 X44.382 Y9.095 E51.34206
G1 X44.11 Y9.744 E51.37717
G1 X43.765 Y10.358 E51.4123
G1 X43.354 Y10.929 E51.4474
G1 X42.88 Y11.45 E51.48254
G1 X42.35 Y11.914 E51.51769
G1 X41.771 Y12.314 E51.5528
G1 X41.15 Y12.646 E51.58793
G1 X40.496 Y12.906 E51.62304
G1 X39.816 Y13.09 E51.65818
G1 X39.12 Y13.196 E51.69331
G1 X38.539 Y13.223 E51.72233
G1 X-33.959 Y13.224 E55.33927
G0 F3600 X-33.959 Y12.824
G1 F1800 X-34.639 Y12.784 E55.37325
G1 X-35.309 Y12.665 E55.4072
G1 X-35.961 Y12.468 E55.44118
G1 X-36.585 Y12.196 E55.47514
G1 X-37.173 Y11.852 E55.50913
G1 X-37.716 Y11.442 E55.54307
G1 X-38.208 Y10.971 E55.57705
G1 X-38.642 Y10.446 E55.61104
G1 X-39.011 Y9.874 E55.645
G1 X-39.31 Y9.262 E55.67898
G1 X-39.368 Y9.096 E55.68775
G1 X-39.893 Y9.002 E55.71436
G1 X-40.544 Y8.804 E55.74831
G1 X-41.168 Y8.532 E55.78227
G1 X-41.756 Y8.188 E55.81626
G1 X-42.299 Y7.778 E55.8502
G1 X-42.791 Y7.307 E55.88418
G1 X-43.224 Y6.781 E55.91817
G1 X-43.592 Y6.209 E55.9521
G1 X-43.891 Y5.597 E55.98609
G1 X-44.116 Y4.954 E56.02007
G1 X-44.264 Y4.29 E56.05401
G1 X-44.339 Y3.362 E56.10046
G1 X-44.339 Y-3.362 E56.43592
G1 X-44.299 Y-4.042 E56.46991
G1 X-44.18 Y-4.712 E56.50386
G1 X-43.983 Y-5.364 E56.53784
G1 X-43.711 Y-5.988 E56.5718
G1 X-43.367 Y-6.576 E56.60579
G1 X-42.957 Y-7.12 E56.63977
G1 X-42.486 Y-7.611 E56.67372
G1 X-41.961 Y-8.045 E56.7077
G1 X-41.389 Y-8.414 E56.74166
G1 X-40.777 Y-8.713 E56.77564
G1 X-40.135 Y-8.938 E56.80958
G1 X-39.366 Y-9.11 E56.84889
G1 X-39.131 Y-9.649 E56.87823
G1 X-38.787 Y-10.237 E56.91222
G1 X-38.377 Y-10.781 E56.9462
G1 X-37.906 Y-11.272 E56.98015
G1 X-37.381 Y-11.706 E57.01413
G1 X-36.809 Y-12.075 E57.04809
G1 X-36.197 Y-12.374 E57.08207
G1 X-35.555 Y-12.599 E57.11601
G1 X-34.89 Y-12.748 E57.15001
G1 X-33.959 Y-12.823 E57.19661
G1 X38.539 Y-12.824 E60.81355
G1 X39.219 Y-12.784 E60.84753
G1 X39.889 Y-12.665 E60.88148
G1 X40.541 Y-12.468 E60.91546
G1 X41.165 Y-12.196 E60.94942
G1 X41.753 Y-11.852 E60.98341
G1 X42.296 Y-11.442 E61.01736
G1 X42.788 Y-10.971 E61.05134
G1 X43.222 Y-10.446 E61.08532
G1 X43.591 Y-9.874 E61.11928
G1 X43.89 Y-9.262 E61.15326
G1 X44.115 Y-8.62 E61.1872
G1 X44.264 Y-7.955 E61.2212
G1 X44.339 Y-7.024 E61.2678
G1 X44.339 Y7.023 E61.96861
G1 X44.299 Y7.703 E62.00259
G1 X44.18 Y8.373 E62.03654
G1 X43.983 Y9.025 E62.07052
G1 X43.711 Y9.649 E62.10448
G1 X43.367 Y10.237 E62.13847
G1 X42.957 Y10.781 E62.17245
G1 X42.486 Y11.272 E62.2064
G1 X41.961 Y11.706 E62.24038
G1 X41.389 Y12.075 E62.27434
G1 X40.777 Y12.374 E62.30832
G1 X40.135 Y12.599 E62.34226
G1 X39.47 Y12.748 E62.37626
G1 X38.539 Y12.823 E62.42286
G1 X-33.959 Y12.824 E66.0398
G0 F3600 X-33.959 Y12.424
G1 F1800 X-34.615 Y12.384 E66.07259
G1 X-35.261 Y12.265 E66.10536
G1 X-35.887 Y12.068 E66.1381
G1 X-36.486 Y11.796 E66.17092
G1 X-37.047 Y11.454 E66.2037
G1 X-37.562 Y11.047 E66.23645
G1 X-38.023 Y10.579 E66.26922
G1 X-38.425 Y10.059 E66.30202
G1 X-38.761 Y9.495 E66.33477
G1 X-39.091 Y8.742 E66.37579
G1 X-39.844 Y8.602 E66.414
G1 X-40.471 Y8.405 E66.44679
G1 X-41.069 Y8.133 E66.47956
G1 X-41.629 Y7.79 E66.51232
G1 X-42.144 Y7.382 E66.5451
G1 X-42.606 Y6.915 E66.57788
G1 X-43.007 Y6.395 E66.61064
G1 X-43.342 Y5.829 E66.64345
G1 X-43.606 Y5.228 E66.6762
G1 X-43.795 Y4.599 E66.70897
G1 X-43.907 Y3.951 E66.74178
G1 X-43.939 Y3.362 E66.7712
G1 X-43.939 Y-3.362 E67.10667
G1 X-43.899 Y-4.018 E67.13945
G1 X-43.78 Y-4.664 E67.17223
G1 X-43.583 Y-5.291 E67.20501
G1 X-43.311 Y-5.889 E67.23779
G1 X-42.969 Y-6.45 E67.27057
G1 X-42.561 Y-6.965 E67.30335
G1 X-42.094 Y-7.427 E67.33612
G1 X-41.574 Y-7.828 E67.36888
G1 X-41.01 Y-8.164 E67.40164
G1 X-40.408 Y-8.428 E67.43443
G1 X-39.779 Y-8.618 E67.46721
G1 X-39.07 Y-8.74 E67.5031
G1 X-39.003 Y-8.952 E67.5142
G1 X-38.731 Y-9.55 E67.54697
G1 X-38.389 Y-10.111 E67.57975
G1 X-37.981 Y-10.626 E67.61253
G1 X-37.514 Y-11.088 E67.6453
G1 X-36.994 Y-11.489 E67.67806
G1 X-36.43 Y-11.825 E67.71082
G1 X-35.828 Y-12.089 E67.74361
G1 X-35.199 Y-12.279 E67.77639
G1 X-34.552 Y-12.39 E67.80914
G1 X-33.959 Y-12.423 E67.83878
G1 X38.539 Y-12.424 E71.45572
G1 X39.195 Y-12.384 E71.4885
