;FLAVOR:Marlin
;TIME:2313
;Filament used: 1.57163m
;Layer height: 0.15
;MINX:-15.882
;MINY:-6.663
;MINZ:0.3
;MAXX:15.882
;MAXY:6.638
;MAXZ:38.25
;Generated with Cura_SteamEngine 5.2.1
M140 S60
M105
M190 S60
M104 S205
M105
M109 S205
M82 ;absolute extrusion mode
G28 ;Home
G1 Z15.0 F6000 ;Move the platform down 15mm
;Prime the extruder
G92 E0
G1 F200 E3
G92 E0
M141 S28
G92 E0
G92 E0
G1 F1500 E-6.5
;LAYER_COUNT:254
;LAYER:0
M107
G0 F3600 X-5.07 Y2.666 Z0.3
;TYPE:SUPPORT
G1 F1500 E0
G1 F1800 X-15.309 Y2.666 E0.51083
G0 F3600 X-15.309 Y0.00
G1 F1800 X-5.789 Y0.00 E0.98578
G0 F3600 X-5.334 Y2.173
G1 F1800 X-5.334 Y5.081 E1.13086
G0 F3600 X-6.493 Y5.334
G1 F1800 X-12.8 Y5.333 E1.44552
G0 F3600 X-13.335 Y5.081
G1 F1800 X-13.335 Y-6.134 E2.00504
G0 F3600 X-15.279 Y-5.334
G1 F1800 X-6.071 Y-5.334 E2.46443
G0 F3600 X-5.334 Y-5.298
G1 F1800 X-5.334 Y-2.337 E2.61215
G0 F3600 X-5.158 Y-2.667
G1 F1800 X-15.309 Y-2.667 E3.11859
G1 F1500 E-3.38141
G0 F3600 X-10.668 Y-6.649
G1 F1500 E3.11859
G1 F1800 X-10.668 Y6.594 E3.77928
G0 F3600 X-8.001 Y6.357
G1 F1800 X-8.001 Y-6.633 E4.42736
G1 F1500 E-2.07264
G0 F3600 X2.667 Y-5.274
G1 F1500 E4.42736
G1 F1800 X2.667 Y-5.164 E4.43284
G0 F3600 X5.334 Y-5.298
G1 F1800 X5.334 Y-2.239 E4.58546
G0 F3600 X5.117 Y-2.666
G1 F1800 X15.309 Y-2.666 E5.09394
G0 F3600 X15.309 Y0.00
G1 F1800 X5.749 Y0.00 E5.57089
G0 F3600 X5.334 Y2.072
G1 F1800 X5.334 Y5.081 E5.72101
G0 F3600 X6.377 Y5.334
G1 F1800 X12.848 Y5.334 E6.04385
G0 F3600 X13.335 Y5.081
G1 F1800 X13.335 Y-6.108 E6.60207
G0 F3600 X15.159 Y-5.333
G1 F1800 X6.003 Y-5.334 E7.05886
G0 F3600 X8.001 Y-6.642
G1 F1800 X8.001 Y6.351 E7.70709
G0 F3600 X10.668 Y6.638
G1 F1800 X10.668 Y-6.663 E8.37068
G1 F1500 E1.87068
G0 F3600 X15.309 Y2.667
G1 F1500 E8.37068
G1 F1800 X5.029 Y2.667 E8.88355
G1 F1500 E2.38355
;MESH:V2.stl
G0 F3600 X3.849 Y2.032
G0 X-3.969 Y-0.083
G1 F1500 E8.88355
G0 F3600 X-4.269 Y-0.081
;TYPE:WALL-INNER
G1 F1800 X-4.187 Y0.745 E8.92496
G1 X-3.945 Y1.542 E8.96652
G1 X-3.553 Y2.277 E9.00807
G1 X-3.027 Y2.92 E9.04952
G1 X-2.379 Y3.451 E9.09132
G1 X-1.648 Y3.841 E9.13265
G1 X-.838 Y4.087 E9.17489
G1 X-0.021 Y4.167 E9.21584
G1 X0.806 Y4.085 E9.2573
G1 X1.606 Y3.841 E9.29903
G1 X2.337 Y3.451 E9.34037
G1 X2.986 Y2.92 E9.3822
G1 X3.512 Y2.277 E9.42365
G1 X3.905 Y1.542 E9.46523
G1 X4.149 Y0.737 E9.50719
G1 X4.188 Y0.325 E9.52784
G1 X4.228 Y-0.083 E9.54829
G1 X4.147 Y-.909 E9.5897
G1 X3.903 Y-1.709 E9.63143
G1 X3.512 Y-2.441 E9.67283
G1 X2.982 Y-3.088 E9.71456
G1 X2.338 Y-3.614 E9.75604
G1 X1.606 Y-4.005 E9.79745
G1 X0.797 Y-4.251 E9.83963
G1 X-0.019 Y-4.33 E9.88053
G1 X-.847 Y-4.249 E9.92204
G1 X-1.648 Y-4.005 E9.96381
G1 X-2.379 Y-3.614 E10.00517
G1 X-3.027 Y-3.084 E10.04694
G1 X-3.553 Y-2.441 E10.08838
G1 X-3.945 Y-1.706 E10.12994
G1 X-4.189 Y-.9 E10.17196
G1 X-4.269 Y-0.081 E10.21301
G0 F3600 X-4.671 Y-0.081
;TYPE:WALL-OUTER
G1 F1800 X-4.581 Y0.823 E10.25833
G1 X-4.317 Y1.696 E10.30384
G1 X-3.887 Y2.5 E10.34932
G1 X-3.311 Y3.204 E10.3947
G1 X-2.602 Y3.785 E10.44044
G1 X-1.802 Y4.213 E10.4857
G1 X-.916 Y4.481 E10.53188
G1 X-0.021 Y4.569 E10.57675
G1 X0.884 Y4.479 E10.62212
G1 X1.76 Y4.213 E10.6678
G1 X2.561 Y3.785 E10.71311
G1 X3.27 Y3.204 E10.75884
G1 X3.846 Y2.5 E10.80422
G1 X4.277 Y1.696 E10.84973
G1 X4.543 Y0.815 E10.89564
G1 X4.586 Y0.364 E10.91825
G1 X4.63 Y-0.083 E10.94065
G1 X4.541 Y-.987 E10.98597
G1 X4.275 Y-1.863 E11.03165
G1 X3.846 Y-2.664 E11.07698
G1 X3.266 Y-3.372 E11.12264
G1 X2.561 Y-3.948 E11.16806
G1 X1.76 Y-4.377 E11.21339
G1 X0.875 Y-4.645 E11.25953
G1 X-0.019 Y-4.732 E11.30434
G1 X-.925 Y-4.643 E11.34976
G1 X-1.802 Y-4.377 E11.39548
G1 X-2.602 Y-3.948 E11.44077
G1 X-3.311 Y-3.368 E11.48647
G1 X-3.887 Y-2.664 E11.53185
G1 X-4.317 Y-1.86 E11.57734
G1 X-4.583 Y-.978 E11.6233
G1 X-4.671 Y-0.081 E11.66826
G0 F3600 X-4.652 Y0.118
G0 X-3.955 Y0.05
G0 X-3.814 Y-.823
;TYPE:SKIN
G1 F1800 X-3.886 Y-0.08 E11.70551
G1 X-3.812 Y0.667 E11.74296
G1 X-3.593 Y1.393 E11.78079
G1 X-3.235 Y2.063 E11.81869
G1 X-2.754 Y2.651 E11.85659
G1 X-2.166 Y3.132 E11.89449
G1 X-1.505 Y3.486 E11.9319
G1 X-.761 Y3.712 E11.97069
G1 X-0.022 Y3.785 E12.00774
G1 X0.728 Y3.71 E12.04534
G1 X1.461 Y3.486 E12.08358
G1 X2.122 Y3.133 E12.12097
G1 X2.715 Y2.649 E12.15915
G1 X3.194 Y2.062 E12.19695
G1 X3.552 Y1.394 E12.23476
G1 X3.774 Y0.661 E12.27297
G1 X3.81 Y0.282 E12.29197
G1 X3.846 Y-0.084 E12.31032
G1 X3.772 Y-.831 E12.34777
G1 X3.547 Y-1.565 E12.38607
G1 X3.194 Y-2.226 E12.42345
G1 X2.709 Y-2.819 E12.46167
G1 X2.123 Y-3.296 E12.49937
G1 X1.461 Y-3.65 E12.53682
G1 X0.72 Y-3.876 E12.57547
G1 X-0.018 Y-3.947 E12.61246
G1 X-.769 Y-3.874 E12.65011
G1 X-1.504 Y-3.65 E12.68844
G1 X-2.164 Y-3.295 E12.72583
G1 X-2.758 Y-2.811 E12.76405
G1 X-3.234 Y-2.229 E12.80157
G1 X-3.592 Y-1.558 E12.83951
G1 X-3.814 Y-.823 E12.87781
G0 F3600 X-2.744 Y2.346
G1 F1800 X-2.449 Y2.641 E12.89863
G0 F3600 X-1.137 Y3.387
G1 F1800 X-3.491 Y1.033 E13.06472
G0 F3600 X-3.645 Y0.313
G1 F1800 X-.415 Y3.544 E13.29264
G0 F3600 X0.169 Y3.563
G1 F1800 X-3.666 Y-.272 E13.56322
G0 F3600 X-3.615 Y-.787
G1 F1800 X0.683 Y3.512 E13.86651
G0 F3600 X1.117 Y3.38
G1 F1800 X-3.483 Y-1.221 E14.1911
G0 F3600 X-3.326 Y-1.629
G1 F1800 X1.525 Y3.222 E14.53336
G0 F3600 X1.894 Y3.025
G1 F1800 X-3.13 Y-1.998 E14.8878
G0 F3600 X-2.894 Y-2.329
G1 F1800 X2.223 Y2.789 E15.24886
G0 F3600 X2.536 Y2.536
G1 F1800 X-2.64 Y-2.64 E15.61406
G0 F3600 X-2.332 Y-2.898
G1 F1800 X2.797 Y2.231 E15.97594
G0 F3600 X3.045 Y1.914
G1 F1800 X-2.015 Y-3.146 E16.33295
G0 F3600 X-1.647 Y-3.344
G1 F1800 X3.242 Y1.545 E16.67789
G0 F3600 X3.415 Y1.152
G1 F1800 X-1.252 Y-3.515 E17.00717
G0 F3600 X-.82 Y-3.648
G1 F1800 X3.547 Y0.719 E17.31529
G0 F3600 X3.615 Y0.221
G1 F1800 X-.321 Y-3.715 E17.593
G0 F3600 X0.239 Y-3.72
G1 F1800 X3.618 Y-.34 E17.83144
G0 F3600 X3.503 Y-1.022
G1 F1800 X0.921 Y-3.604 E18.01361
G1 X0.851 Y-3.674
G0 F3600 X1.906 Y-3.184
G1 F1800 X3.08 Y-2.01 E18.09644
G1 X3.15 Y-1.94
G0 F3600 X3.113 Y-1.922
G1 F1500 E11.59644
;MESH:NONMESH
G0 F600 X3.113 Y-1.922 Z0.45
G0 F3600 X-3.956 Y1.949
G0 X-5.334 Y2.683
;TIME_ELAPSED:18.763160
;LAYER:1
;TYPE:SUPPORT
G1 F1500 E18.09644
G1 F2700 X-5.334 Y4.841 E18.15028
G1 F1500 E11.65028
G0 F5400 X-5.541 Y-0.082
G0 X-5.334 Y-2.846
G1 F1500 E18.15028
G1 F2700 X-5.334 Y-5.058 E18.20545
G1 X-3.397 Y-5.058 E18.25377
G1 X-4.276 Y-4.338 E18.28212
G1 X-5.025 Y-3.426 E18.31156
G1 X-5.58 Y-2.385 E18.34098
G1 X-5.921 Y-1.26 E18.37031
G1 X-6.039 Y-0.082 E18.39984
G1 X-5.921 Y1.094 E18.42932
G1 X-5.58 Y2.221 E18.45869
G1 X-5.025 Y3.262 E18.48812
G1 X-4.277 Y4.173 E18.51753
G1 X-3.463 Y4.841 E18.54379
G1 X-6.345 Y4.841 E18.61569
G1 X-6.728 Y5.207 E18.6289
G1 X-6.757 Y5.946 E18.64735
G1 X-8.001 Y6.123 E18.67869
G1 X-8.001 Y-6.39 E18.99083
G1 X-8.231 Y-6.428 E18.99665
G1 X-9.904 Y-6.31 E19.03848
G1 X-10.668 Y-6.407 E19.05769
G1 X-10.668 Y6.376 E19.37657
G1 X-12.38 Y5.915 E19.42079
G1 X-12.607 Y5.144 E19.44084
G1 X-13.011 Y4.841 E19.45344
G1 X-15.069 Y4.841 E19.50478
G1 X-15.069 Y-5.162 E19.7543
G1 X-13.335 Y-5.874 E19.80106
G1 X-13.335 Y4.841 E20.06835
G1 F1500 E13.56835
G0 F5400 X-0.02 Y5.438
G0 X1.055 Y5.332
G0 X2.091 Y5.017
G0 X2.864 Y4.605
G0 X5.334 Y2.606
G1 F1500 E20.06835
G1 F2700 X5.334 Y4.841 E20.1241
G1 X3.422 Y4.841 E20.1718
G1 X4.236 Y4.173 E20.19806
G1 X4.983 Y3.262 E20.22745
G1 X5.54 Y2.222 E20.25688
G1 X5.882 Y1.094 E20.28628
G1 X5.998 Y-0.082 E20.31576
G1 X5.882 Y-1.26 E20.34529
G1 X5.54 Y-2.386 E20.37465
G1 X4.983 Y-3.426 E20.40407
G1 X4.235 Y-4.338 E20.4335
G1 X3.356 Y-5.058 E20.46184
G1 X6.086 Y-5.058 E20.52994
G1 X6.432 Y-5.49 E20.54375
G1 X6.303 Y-6.061 E20.55835
G1 X7.609 Y-6.343 E20.59168
G1 X8.001 Y-6.4 E20.60156
G1 X8.001 Y6.111 E20.91365
G1 X8.367 Y6.108 E20.92278
G1 X10.476 Y6.437 E20.97602
G1 X10.668 Y6.39 E20.98096
G1 X10.668 Y-6.421 E21.30053
G1 X11.699 Y-6.543 E21.32643
G1 X15.069 Y-5.112 E21.41776
G1 X15.069 Y4.841 E21.66603
G1 X13.335 Y4.841 E21.70929
G1 X13.335 Y-5.848 E21.97593
G1 F1500 E15.47593
G0 F5400 X5.334 Y-5.058
G1 F1500 E21.97593
G1 F2700 X5.334 Y-2.771 E22.03298
G1 F1500 E15.53298
;MESH:V2.stl
G0 F5400 X3.94 Y-2.025
G0 X-3.969 Y-0.082
G1 F1500 E22.03298
G0 F5400 X-4.27 Y-0.081
;TYPE:WALL-INNER
G1 F3300 X-4.187 Y0.745 E22.05368
G1 X-3.945 Y1.541 E22.07444
G1 X-3.553 Y2.277 E22.09524
G1 X-3.027 Y2.92 E22.11596
G1 X-2.379 Y3.451 E22.13686
G1 X-1.648 Y3.841 E22.15753
G1 X-.847 Y4.085 E22.17842
G1 X-0.02 Y4.167 E22.19915
G1 X0.806 Y4.085 E22.21985
G1 X1.605 Y3.841 E22.24069
G1 X2.337 Y3.451 E22.26138
G1 X2.986 Y2.92 E22.2823
G1 X3.512 Y2.277 E22.30302
G1 X3.905 Y1.542 E22.32381
G1 X4.147 Y0.745 E22.34459
G1 X4.187 Y0.329 E22.35502
G1 X4.229 Y-0.083 E22.36535
G1 X4.147 Y-.909 E22.38605
G1 X3.902 Y-1.708 E22.4069
G1 X3.512 Y-2.441 E22.42761
G1 X2.982 Y-3.088 E22.44847
G1 X2.338 Y-3.614 E22.46922
G1 X1.605 Y-4.004 E22.48993
G1 X0.806 Y-4.249 E22.51078
G1 X-0.021 Y-4.331 E22.53151
G1 X-.847 Y-4.249 E22.55221
G1 X-1.648 Y-4.004 E22.57311
G1 X-2.379 Y-3.614 E22.59378
G1 X-3.027 Y-3.084 E22.61466
G1 X-3.553 Y-2.441 E22.63538
G1 X-3.945 Y-1.706 E22.65616
G1 X-4.187 Y-.909 E22.67694
G1 X-4.27 Y-0.081 E22.6977
G0 F5400 X-4.672 Y-0.081
;TYPE:WALL-OUTER
G1 F2100 X-4.581 Y0.823 E22.72036
G1 X-4.317 Y1.695 E22.74309
G1 X-3.887 Y2.5 E22.76585
G1 X-3.311 Y3.204 E22.78854
G1 X-2.602 Y3.785 E22.81141
G1 X-1.802 Y4.213 E22.83404
G1 X-.925 Y4.479 E22.8569
G1 X-0.02 Y4.569 E22.87959
G1 X0.884 Y4.479 E22.90225
G1 X1.76 Y4.213 E22.92509
G1 X2.561 Y3.785 E22.94774
G1 X3.27 Y3.204 E22.97061
G1 X3.846 Y2.5 E22.9933
G1 X4.277 Y1.696 E23.01606
G1 X4.541 Y0.823 E23.03881
G1 X4.585 Y0.368 E23.05021
G1 X4.631 Y-0.083 E23.06152
G1 X4.541 Y-.987 E23.08418
G1 X4.274 Y-1.863 E23.10702
G1 X3.846 Y-2.664 E23.12968
G1 X3.266 Y-3.372 E23.15251
G1 X2.561 Y-3.948 E23.17522
G1 X1.76 Y-4.376 E23.19787
G1 X0.884 Y-4.643 E23.22072
G1 X-0.021 Y-4.733 E23.2434
G1 X-.925 Y-4.643 E23.26607
G1 X-1.802 Y-4.376 E23.28893
G1 X-2.602 Y-3.948 E23.31157
G1 X-3.311 Y-3.368 E23.33442
G1 X-3.887 Y-2.664 E23.35711
G1 X-4.317 Y-1.86 E23.37985
G1 X-4.581 Y-.987 E23.4026
G1 X-4.672 Y-0.081 E23.42532
G0 F5400 X-4.652 Y0.118
G0 X-3.888 Y-0.08
;TYPE:SKIN
G1 F1800 X-3.812 Y0.667 E23.44405
G1 X-3.593 Y1.393 E23.46296
G1 X-3.235 Y2.063 E23.48191
G1 X-2.758 Y2.647 E23.50072
G1 X-2.164 Y3.133 E23.51987
G1 X-1.503 Y3.487 E23.53857
G1 X-.769 Y3.71 E23.55771
G1 X-0.02 Y3.784 E23.57648
G1 X0.728 Y3.71 E23.59523
G1 X1.46 Y3.487 E23.61432
G1 X2.124 Y3.132 E23.6331
G1 X2.713 Y2.651 E23.65207
G1 X3.194 Y2.062 E23.67104
G1 X3.553 Y1.394 E23.68996
G1 X3.772 Y0.668 E23.70888
G1 X3.809 Y0.286 E23.71845
G1 X3.846 Y-0.084 E23.72772
G1 X3.772 Y-.831 E23.74645
G1 X3.547 Y-1.563 E23.76555
G1 X3.194 Y-2.226 E23.78429
G1 X2.71 Y-2.819 E23.80338
G1 X2.123 Y-3.296 E23.82225
G1 X1.46 Y-3.649 E23.84099
G1 X0.728 Y-3.874 E23.86009
G1 X-0.021 Y-3.948 E23.87887
G1 X-.769 Y-3.874 E23.89762
G1 X-1.503 Y-3.649 E23.91677
G1 X-2.164 Y-3.296 E23.93546
G1 X-2.758 Y-2.811 E23.95459
G1 X-3.234 Y-2.229 E23.97334
G1 X-3.593 Y-1.558 E23.99233
G1 X-3.812 Y-.831 E24.01127
G1 X-3.888 Y-0.08 E24.0301
G0 F5400 X-3.172 Y-1.918
G1 F1800 X-1.858 Y-3.232 E24.07645
G1 X-1.788 Y-3.302
G0 F5400 X-.902 Y-3.623
G1 F1800 X-3.563 Y-.962 E24.17033
G0 F5400 X-3.664 Y-.295
G1 F1800 X-.234 Y-3.725 E24.29133
G0 F5400 X0.318 Y-3.713
G1 F1800 X-3.651 Y0.257 E24.43136
G0 F5400 X-3.577 Y0.748
G1 F1800 X0.81 Y-3.638 E24.58611
G0 F5400 X1.243 Y-3.505
G1 F1800 X-3.445 Y1.182 E24.75147
G0 F5400 X-3.268 Y1.571
G1 F1800 X1.632 Y-3.329 E24.92433
G0 F5400 X2.002 Y-3.133
G1 F1800 X-3.072 Y1.941 E25.10333
G0 F5400 X-2.819 Y2.254
G1 F1800 X2.315 Y-2.881 E25.28447
G0 F5400 X2.616 Y-2.616
G1 F1800 X-2.555 Y2.555 E25.46689
G0 F5400 X-2.243 Y2.809
G1 F1800 X2.87 Y-2.304 E25.64726
G0 F5400 X3.102 Y-1.97
G1 F1800 X-1.91 Y3.041 E25.82406
G0 F5400 X-1.541 Y3.238
G1 F1800 X3.299 Y-1.602 E25.9948
G0 F5400 X3.452 Y-1.189
G1 F1800 X-1.128 Y3.391 E26.15637
G0 F5400 X-.688 Y3.516
G1 F1800 X3.577 Y-.749 E26.30683
G0 F5400 X3.628 Y-.234
G1 F1800 X-.173 Y3.567 E26.44092
G0 F5400 X0.42 Y3.539
G1 F1800 X3.6 Y0.359 E26.5531
G0 F5400 X3.434 Y1.091
G1 F1800 X1.154 Y3.37 E26.63352
G1 X1.084 Y3.44
G0 F5400 X1.067 Y3.38
G1 F1500 E20.13352
;MESH:NONMESH
G0 F600 X1.067 Y3.38 Z0.6
G0 F5400 X-3.705 Y2.38
G0 X-5.334 Y2.683
;TIME_ELAPSED:31.852809
;LAYER:2
;TYPE:SUPPORT
G1 F1500 E26.63352
G1 F3600 X-5.334 Y4.841 E26.68735
G1 F1500 E20.18735
G0 F7200 X-5.541 Y-0.082
G0 X-5.334 Y-2.846
G1 F1500 E26.68735
G1 F3600 X-5.334 Y-5.058 E26.74253
G1 X-3.397 Y-5.058 E26.79085
G1 X-4.276 Y-4.338 E26.81919
G1 X-5.025 Y-3.426 E26.84863
G1 X-5.58 Y-2.385 E26.87806
G1 X-5.921 Y-1.26 E26.90738
G1 X-6.039 Y-0.082 E26.93692
G1 X-5.921 Y1.094 E26.9664
G1 X-5.58 Y2.221 E26.99577
G1 X-5.025 Y3.262 E27.0252
G1 X-4.277 Y4.173 E27.0546
G1 X-3.463 Y4.841 E27.08087
G1 X-6.345 Y4.841 E27.15276
G1 X-6.728 Y5.207 E27.16598
G1 X-6.757 Y5.946 E27.18442
G1 X-8.001 Y6.123 E27.21577
G1 X-8.001 Y-6.39 E27.52791
G1 X-8.23 Y-6.428 E27.5337
G1 X-9.904 Y-6.31 E27.57556
G1 X-10.668 Y-6.407 E27.59477
G1 X-10.668 Y6.376 E27.91364
G1 X-12.381 Y5.915 E27.9579
G1 X-12.608 Y5.144 E27.97794
G1 X-13.012 Y4.841 E27.99054
G1 X-15.069 Y4.841 E28.04185
G1 X-15.069 Y-5.162 E28.29138
G1 X-13.335 Y-5.874 E28.33814
G1 X-13.335 Y4.841 E28.60543
G1 F1500 E22.10543
G0 F7200 X-0.02 Y5.438
G0 X1.055 Y5.332
G0 X2.091 Y5.017
G0 X2.864 Y4.605
G0 X5.334 Y2.606
G1 F1500 E28.60543
G1 F3600 X5.334 Y4.841 E28.66118
G1 X3.422 Y4.841 E28.70887
G1 X4.236 Y4.173 E28.73514
G1 X4.983 Y3.262 E28.76453
G1 X5.54 Y2.222 E28.79396
G1 X5.882 Y1.094 E28.82336
G1 X5.998 Y-0.082 E28.85284
G1 X5.882 Y-1.26 E28.88237
G1 X5.54 Y-2.386 E28.91172
G1 X4.983 Y-3.426 E28.94115
G1 X4.235 Y-4.338 E28.97057
G1 X3.356 Y-5.058 E28.99892
G1 X6.088 Y-5.058 E29.06707
G1 X6.434 Y-5.49 E29.08087
G1 X6.305 Y-6.061 E29.09548
G1 X7.609 Y-6.343 E29.12876
G1 X8.001 Y-6.4 E29.13864
G1 X8.001 Y6.111 E29.45073
G1 X8.367 Y6.108 E29.45986
G1 X10.476 Y6.437 E29.5131
G1 X10.668 Y6.39 E29.51803
G1 X10.668 Y-6.421 E29.8376
G1 X11.699 Y-6.543 E29.8635
G1 X15.069 Y-5.112 E29.95483
G1 X15.069 Y4.841 E30.20311
G1 X13.335 Y4.841 E30.24637
G1 X13.335 Y-5.848 E30.513
G1 F1500 E24.013
G0 F7200 X5.334 Y-5.058
G1 F1500 E30.513
G1 F3600 X5.334 Y-2.771 E30.57005
G1 F1500 E24.07005
;MESH:V2.stl
G0 F7200 X3.94 Y-2.025
G0 X-3.969 Y-0.082
G1 F1500 E30.57005
G0 F7200 X-4.27 Y-0.081
;TYPE:WALL-INNER
G1 F4800 X-4.187 Y0.745 E30.59076
G1 X-3.945 Y1.541 E30.61151
G1 X-3.553 Y2.277 E30.63232
G1 X-3.027 Y2.92 E30.65304
G1 X-2.379 Y3.451 E30.67394
G1 X-1.648 Y3.841 E30.69461
G1 X-.847 Y4.085 E30.71549
G1 X-0.02 Y4.167 E30.73622
G1 X0.806 Y4.085 E30.75693
G1 X1.605 Y3.841 E30.77777
G1 X2.337 Y3.451 E30.79846
G1 X2.986 Y2.92 E30.81938
G1 X3.512 Y2.277 E30.8401
G1 X3.905 Y1.542 E30.86089
G1 X4.147 Y0.745 E30.88167
G1 X4.187 Y0.329 E30.89209
G1 X4.229 Y-0.083 E30.90242
G1 X4.147 Y-.909 E30.92313
G1 X3.902 Y-1.708 E30.94398
G1 X3.512 Y-2.441 E30.96469
G1 X2.982 Y-3.088 E30.98555
G1 X2.338 Y-3.614 E31.00629
G1 X1.605 Y-4.004 E31.02701
G1 X0.806 Y-4.249 E31.04785
G1 X-0.021 Y-4.331 E31.06858
G1 X-.847 Y-4.249 E31.08929
G1 X-1.648 Y-4.004 E31.11018
G1 X-2.379 Y-3.614 E31.13085
G1 X-3.027 Y-3.084 E31.15173
G1 X-3.553 Y-2.441 E31.17246
G1 X-3.945 Y-1.706 E31.19324
G1 X-4.187 Y-.909 E31.21401
G1 X-4.27 Y-0.081 E31.23477
G0 F7200 X-4.672 Y-0.081
;TYPE:WALL-OUTER
G1 F2400 X-4.581 Y0.823 E31.25744
G1 X-4.317 Y1.695 E31.28016
G1 X-3.887 Y2.5 E31.30293
G1 X-3.311 Y3.204 E31.32562
G1 X-2.602 Y3.785 E31.34849
G1 X-1.802 Y4.213 E31.37112
G1 X-.925 Y4.479 E31.39398
G1 X-0.02 Y4.569 E31.41667
G1 X0.884 Y4.479 E31.43933
G1 X1.76 Y4.213 E31.46217
G1 X2.561 Y3.785 E31.48482
G1 X3.27 Y3.204 E31.50769
G1 X3.846 Y2.5 E31.53038
G1 X4.277 Y1.696 E31.55313
G1 X4.541 Y0.823 E31.57588
G1 X4.585 Y0.368 E31.58729
G1 X4.631 Y-0.083 E31.59859
G1 X4.541 Y-.987 E31.62126
G1 X4.274 Y-1.863 E31.6441
G1 X3.846 Y-2.664 E31.66676
G1 X3.266 Y-3.372 E31.68959
G1 X2.561 Y-3.948 E31.7123
G1 X1.76 Y-4.376 E31.73495
G1 X0.884 Y-4.643 E31.75779
G1 X-0.021 Y-4.733 E31.78048
G1 X-.925 Y-4.643 E31.80314
G1 X-1.802 Y-4.376 E31.82601
G1 X-2.602 Y-3.948 E31.84864
G1 X-3.311 Y-3.368 E31.87149
G1 X-3.887 Y-2.664 E31.89418
