;FLAVOR:Marlin
;TIME:1312
;Filament used: 0.992448m
;Layer height: 0.15
;MINX:-10.3
;MINY:-4.663
;MINZ:0.3
;MAXX:10.299
;MAXY:5.49
;MAXZ:35.55
;Generated with Cura_SteamEngine 5.2.1
M140 S60
M105
M190 S60
M104 S200
M105
M109 S200
M82 ;absolute extrusion mode
G28 ;Home
G1 Z15.0 F6000 ;Move the platform down 15mm
;Prime the extruder
G92 E0
G1 F200 E3
G92 E0
M141 S28
G92 E0
G92 E0
G1 F1500 E-6.5
;LAYER_COUNT:236
;LAYER:0
M107
G0 F3600 X3.876 Y0.00 Z0.3
;TYPE:SUPPORT
G1 F1500 E0
G1 F1800 X7.701 Y0.00 E0.19083
G0 F3600 X7.699 Y2.667
G1 F1800 X3.876 Y2.667 E0.38156
G0 F3600 X5.334 Y3.826
G1 F1800 X5.334 Y-1.707 E0.6576
G0 F3600 X4.041 Y-2.666
G1 F1800 X3.876 Y-2.666 E0.66583
G1 F1500 E-5.83417
G0 F3600 X3.921 Y-2.666
G0 X3.919 Y3.468
G0 X3.375 Y4.113
G0 X0.00 Y4.327
G0 X0.00 Y4.282
G1 F1500 E0.66583
G1 F1800 X0.00 Y4.77 E0.69018
G0 F3600 X-.729 Y5.334
G1 F1800 X-5.27 Y5.334 E0.91673
G0 F3600 X-5.334 Y4.94
G1 F1800 X-5.334 Y4.282 E0.94956
G0 F3600 X-2.667 Y4.282
G1 F1800 X-2.667 Y5.49 E1.00983
G1 F1500 E-5.49017
;MESH:Clip_left.stl
G0 F3600 X-2.667 Y3.242
G0 X-8.382 Y-2.797
G1 F1500 E1.00983
G0 F3600 X-8.654 Y-3.038
;TYPE:WALL-INNER
G1 F1800 X-8.653 Y3.036 E1.31286
G1 X-8.59 Y3.062 E1.31626
G1 X2.589 Y3.062 E1.87398
G1 X2.656 Y3.035 E1.87759
G1 X2.656 Y-3.024 E2.17987
G1 X2.53 Y-3.064 E2.18647
G1 X-8.458 Y-3.064 E2.73466
G1 X-8.654 Y-3.038 E2.74453
G0 F3600 X-8.934 Y-3.36
;TYPE:WALL-OUTER
G1 F1800 X-9.054 Y-3.224 E2.75357
G1 X-9.053 Y3.223 E3.07522
G1 X-8.929 Y3.357 E3.08432
G1 X-8.666 Y3.462 E3.09845
G1 X2.664 Y3.462 E3.66371
G1 X2.932 Y3.357 E3.67807
G1 X3.056 Y3.222 E3.68721
G1 X3.056 Y-3.172 E4.00621
G1 X3.056 Y-3.223 E4.00876
G1 X2.94 Y-3.354 E4.01749
G1 X2.592 Y-3.464 E4.03569
G1 X-8.485 Y-3.464 E4.58833
G1 X-8.787 Y-3.423 E4.60353
G1 X-8.934 Y-3.36 E4.61151
G0 F3600 X-9.054 Y-3.224
G0 X-9.054 Y-3.205
G0 X-8.274 Y-2.68
;TYPE:SKIN
G1 F1800 X-8.274 Y2.682 E4.87902
G1 X2.276 Y2.682 E5.40537
G1 X2.276 Y0.00 E5.53917
G1 X2.276 Y-2.683 E5.67303
G1 X-8.274 Y-2.68 E6.19937
G0 F3600 X-7.701 Y2.481
G1 F1800 X-8.073 Y2.108 E6.22565
G0 F3600 X-8.073 Y1.542
G1 F1800 X-7.135 Y2.481 E6.29187
G0 F3600 X-6.569 Y2.481
G1 F1800 X-8.073 Y0.977 E6.39798
G0 F3600 X-8.073 Y0.411
G1 F1800 X-6.004 Y2.481 E6.544
G0 F3600 X-5.438 Y2.481
G1 F1800 X-8.073 Y-.154 E6.72991
G0 F3600 X-8.073 Y-.719
G1 F1800 X-4.872 Y2.481 E6.95572
G0 F3600 X-4.306 Y2.481
G1 F1800 X-8.073 Y-1.285 E7.22147
G0 F3600 X-8.073 Y-1.851
G1 F1800 X-3.741 Y2.481 E7.52711
G0 F3600 X-3.175 Y2.481
G1 F1800 X-8.073 Y-2.416 E7.87266
G0 F3600 X-7.57 Y-2.479
G1 F1800 X-2.609 Y2.481 E8.22265
G0 F3600 X-2.044 Y2.481
G1 F1800 X-7.005 Y-2.479 E8.57264
G0 F3600 X-6.439 Y-2.479
G1 F1800 X-1.478 Y2.481 E8.92263
G0 F3600 X-.912 Y2.481
G1 F1800 X-5.873 Y-2.479 E9.27262
G0 F3600 X-5.308 Y-2.479
G1 F1800 X-.347 Y2.481 E9.62261
G0 F3600 X0.218 Y2.481
G1 F1800 X-4.742 Y-2.479 E9.97256
G0 F3600 X-4.177 Y-2.48
G1 F1800 X0.784 Y2.481 E10.32259
G0 F3600 X1.349 Y2.481
G1 F1800 X-3.611 Y-2.48 E10.67258
G0 F3600 X-3.046 Y-2.48
G1 F1800 X1.915 Y2.481 E11.02261
G0 F3600 X2.076 Y2.076
G1 F1800 X-2.48 Y-2.48 E11.34406
G0 F3600 X-1.914 Y-2.48
G1 F1800 X2.076 Y1.51 E11.62557
G0 F3600 X2.076 Y0.944
G1 F1800 X-1.349 Y-2.48 E11.86719
G0 F3600 X-.784 Y-2.481
G1 F1800 X2.076 Y0.379 E12.06898
G0 F3600 X2.076 Y-.186
G1 F1800 X-.218 Y-2.481 E12.23087
G0 F3600 X0.347 Y-2.481
G1 F1800 X2.076 Y-.752 E12.35286
G0 F3600 X2.076 Y-1.318
G1 F1800 X0.912 Y-2.481 E12.43495
G0 F3600 X1.478 Y-2.481
G1 F1800 X2.076 Y-1.883 E12.47714
G1 X2.146 Y-1.813
G0 F3600 X2.056 Y-1.813
G1 F1500 E5.97714
;MESH:NONMESH
G0 F600 X2.056 Y-1.813 Z0.45
G0 F3600 X2.836 Y-1.471
G0 X5.334 Y-1.471
;TIME_ELAPSED:13.283488
;LAYER:1
M106 S255
G0 F5400 X4.66 Y-1.501
;TYPE:SUPPORT
G1 F1500 E12.47714
G1 F2700 X5.334 Y-1.471 E12.49397
G1 X6.559 Y-1.419 E12.52456
G1 X6.614 Y-1.463 E12.52631
G1 X7.349 Y-1.158 E12.54616
G1 X7.462 Y-.822 E12.55501
G1 X7.459 Y2.845 E12.64648
G1 X7.417 Y3.021 E12.65099
G1 X7.099 Y3.236 E12.66057
G1 X5.334 Y3.582 E12.70543
G1 X5.08 Y3.631 E12.71189
G1 X5.056 Y3.593 E12.71301
G1 X4.66 Y3.455 E12.72347
G1 X4.66 Y-1.501 E12.8471
G0 F5400 X5.334 Y-1.471
G1 F2700 X5.334 Y3.582 E12.97315
G1 F1500 E6.47315
G0 F5400 X3.28 Y4.443
G0 X0.00 Y4.53
G1 F1500 E12.97315
G1 F2700 X0.00 Y4.238 E12.98043
G1 X1.49 Y4.238 E13.0176
G1 X1.202 Y4.53 E13.02783
G1 X-.595 Y4.53 E13.07265
G1 X-.97 Y4.905 E13.08588
G1 X-.97 Y5.25 E13.09449
G1 X-2.667 Y5.25 E13.13682
G1 X-2.667 Y4.238 E13.16207
G1 X-7.18 Y4.236 E13.27464
G1 X-7.18 Y4.53 E13.28198
G1 X-5.405 Y4.53 E13.32625
G1 X-5.334 Y4.601 E13.32876
G1 X-5.334 Y4.237 E13.33784
G1 F1500 E6.83784
;MESH:Clip_left.stl
G0 F5400 X-8.785 Y-2.948
G1 F1500 E13.33784
G0 F5400 X-9.063 Y-3.136
;TYPE:WALL-INNER
G1 F3300 X-9.06 Y3.14 E13.49439
G1 X-8.856 Y3.235 E13.50001
G1 X-8.621 Y3.276 E13.50596
G1 X2.611 Y3.278 E13.78614
G1 X2.887 Y3.227 E13.79314
G1 X3.064 Y3.142 E13.79804
G1 X3.064 Y-3.136 E13.95465
G1 X2.986 Y-3.196 E13.9571
G1 X2.602 Y-3.273 E13.96687
G1 X-8.627 Y-3.277 E14.24698
G1 X-9.063 Y-3.136 E14.25841
G0 F5400 X-9.378 Y-3.399
;TYPE:WALL-OUTER
G1 F2100 X-9.463 Y-3.237 E14.26297
G1 X-9.462 Y3.187 E14.42322
G1 X-9.424 Y3.332 E14.42696
G1 X-9.308 Y3.467 E14.4314
G1 X-8.976 Y3.621 E14.44053
G1 X-8.655 Y3.676 E14.44865
G1 X2.647 Y3.678 E14.73058
G1 X3.011 Y3.611 E14.73982
G1 X3.308 Y3.469 E14.74803
G1 X3.424 Y3.333 E14.75249
G1 X3.464 Y3.172 E14.75663
G1 X3.464 Y-3.136 E14.91398
G1 X3.464 Y-3.236 E14.91647
G1 X3.377 Y-3.398 E14.92106
G1 X3.187 Y-3.547 E14.92708
G1 X2.636 Y-3.673 E14.94118
G1 X-8.679 Y-3.677 E15.22344
G1 X-9.194 Y-3.541 E15.23672
G1 X-9.378 Y-3.399 E15.24252
G0 F5400 X-9.463 Y-3.237
G0 X-9.463 Y-3.219
G0 X-8.682 Y-2.867
;TYPE:SKIN
G1 F1800 X-8.682 Y2.869 E15.38561
G1 X-8.579 Y2.896 E15.38826
G1 X2.568 Y2.898 E15.66633
G1 X2.684 Y2.87 E15.6693
G1 X2.684 Y-2.766 E15.80989
G1 X2.684 Y-2.893 E15.81306
G1 X-8.574 Y-2.896 E16.09389
G1 X-8.682 Y-2.867 E16.09668
G0 F5400 X-8.48 Y-2.267
G1 F1800 X-8.053 Y-2.694 E16.11175
G0 F5400 X-7.487 Y-2.694
G1 F1800 X-8.48 Y-1.702 E16.14676
G0 F5400 X-8.48 Y-1.136
G1 F1800 X-6.921 Y-2.694 E16.20174
G0 F5400 X-6.356 Y-2.694
G1 F1800 X-8.48 Y-.57 E16.27667
G0 F5400 X-8.48 Y-0.004
G1 F1800 X-5.79 Y-2.694 E16.37157
G0 F5400 X-5.225 Y-2.694
G1 F1800 X-8.48 Y0.56 E16.48638
G0 F5400 X-8.48 Y1.126
G1 F1800 X-4.659 Y-2.694 E16.62116
G0 F5400 X-4.094 Y-2.694
G1 F1800 X-8.48 Y1.692 E16.77588
G0 F5400 X-8.48 Y2.257
G1 F1800 X-3.528 Y-2.694 E16.95056
G0 F5400 X-2.963 Y-2.693
G1 F1800 X-8.352 Y2.695 E17.14066
G0 F5400 X-7.786 Y2.695
G1 F1800 X-2.397 Y-2.693 E17.33075
G0 F5400 X-1.832 Y-2.693
G1 F1800 X-7.22 Y2.695 E17.52083
G0 F5400 X-6.655 Y2.695
G1 F1800 X-1.266 Y-2.693 E17.71092
G0 F5400 X-.7 Y-2.693
G1 F1800 X-6.089 Y2.695 E17.90101
G0 F5400 X-5.524 Y2.696
G1 F1800 X-.135 Y-2.692 E18.09111
G0 F5400 X0.429 Y-2.692
G1 F1800 X-4.958 Y2.696 E18.28117
G0 F5400 X-4.393 Y2.696
G1 F1800 X0.995 Y-2.692 E18.47124
G0 F5400 X1.561 Y-2.692
G1 F1800 X-3.827 Y2.696 E18.66132
G0 F5400 X-3.261 Y2.696
G1 F1800 X2.126 Y-2.692 E18.85138
G0 F5400 X2.484 Y-2.484
G1 F1800 X-2.696 Y2.696 E19.03412
G0 F5400 X-2.131 Y2.696
G1 F1800 X2.484 Y-1.918 E19.19691
G0 F5400 X2.484 Y-1.352
G1 F1800 X-1.565 Y2.696 E19.33973
G0 F5400 X-.999 Y2.696
G1 F1800 X2.484 Y-.787 E19.4626
G0 F5400 X2.484 Y-.221
G1 F1800 X-.434 Y2.696 E19.56552
G0 F5400 X0.13 Y2.697
G1 F1800 X2.484 Y0.344 E19.64855
G0 F5400 X2.484 Y0.91
G1 F1800 X0.696 Y2.697 E19.71161
G0 F5400 X1.262 Y2.697
G1 F1800 X2.484 Y1.475 E19.75472
G0 F5400 X2.484 Y2.041
G1 F1800 X1.827 Y2.697 E19.77788
G0 F5400 X2.393 Y2.697
G1 F1800 X2.484 Y2.607 E19.78107
G0 F5400 X2.464 Y2.607
G1 F1500 E13.28107
;MESH:NONMESH
G0 F600 X2.464 Y2.607 Z0.6
G0 F5400 X3.244 Y-1.471
G0 X5.334 Y-1.471
;TIME_ELAPSED:24.670600
;LAYER:2
G0 F7200 X4.66 Y-1.501
;TYPE:SUPPORT
G1 F1500 E19.78107
G1 F3600 X5.334 Y-1.471 E19.7979
G1 X6.559 Y-1.419 E19.82848
G1 X6.614 Y-1.463 E19.83024
G1 X7.349 Y-1.158 E19.85009
G1 X7.462 Y-.822 E19.85893
G1 X7.459 Y2.845 E19.95041
G1 X7.417 Y3.02 E19.9549
G1 X7.097 Y3.236 E19.96453
G1 X5.334 Y3.582 E20.00935
G1 X5.076 Y3.632 E20.0159
G1 X5.052 Y3.593 E20.01704
G1 X4.66 Y3.459 E20.02738
G1 X4.66 Y-1.501 E20.1511
G0 F7200 X5.334 Y-1.471
G1 F3600 X5.334 Y3.582 E20.27715
G1 F1500 E13.77715
G0 F7200 X3.661 Y4.421
G0 X-2.667 Y5.25
G0 X-5.088 Y4.81
G1 F1500 E20.27715
G1 F3600 X-2.667 Y4.81 E20.33754
G1 X-.922 Y4.81 E20.38107
G1 X-.97 Y4.905 E20.38373
G1 X-.97 Y5.25 E20.39233
G1 X-2.667 Y5.25 E20.43467
G1 X-5.03 Y5.25 E20.49361
G1 X-5.03 Y4.905 E20.50222
G1 X-5.088 Y4.81 E20.50499
G0 F7200 X-2.667 Y4.81
G1 F3600 X-2.667 Y5.25 E20.51597
G0 F7200 X-.522 Y4.67
G1 F4235.3 X1.258 Y4.67 E20.55371
G1 F1500 E14.05371
G0 F7200 X-5.488 Y4.67
G1 F1500 E20.55371
G1 F4235.3 X-7.32 Y4.67 E20.59256
G1 F1500 E14.09256
;MESH:Clip_left.stl
G0 F7200 X-7.32 Y3.53
G0 X-8.969 Y-3.007
G1 F1500 E20.59256
G0 F7200 X-9.145 Y-3.247
;TYPE:WALL-INNER
G1 F4800 X-9.247 Y-3.166 E20.59581
G1 X-9.245 Y3.132 E20.75291
G1 X-9.201 Y3.214 E20.75523
G1 X-9.037 Y3.286 E20.7597
G1 X-8.528 Y3.35 E20.7725
G1 X2.745 Y3.35 E21.0537
G1 X3.148 Y3.246 E21.06408
G1 X3.249 Y3.16 E21.06739
G1 X3.249 Y-3.136 E21.22445
G1 X3.163 Y-3.244 E21.22789
G1 X2.76 Y-3.348 E21.23827
G1 X-8.76 Y-3.348 E21.52564
G1 X-9.145 Y-3.247 E21.53557
G0 F7200 X-9.648 Y-3.251
;TYPE:WALL-OUTER
G1 F2400 X-9.646 Y3.232 E21.69729
G1 X-9.511 Y3.486 E21.70447
G1 X-9.143 Y3.676 E21.7148
G1 X-8.552 Y3.75 E21.72965
G1 X2.795 Y3.75 E22.01271
G1 X3.311 Y3.617 E22.026
G1 X3.568 Y3.426 E22.03399
G1 X3.649 Y3.244 E22.03896
G1 X3.649 Y-3.136 E22.1981
G1 X3.616 Y-3.332 E22.20306
G1 X3.429 Y-3.552 E22.21027
G1 X3.317 Y-3.618 E22.21351
G1 X2.81 Y-3.748 E22.22656
G1 X-8.811 Y-3.748 E22.51645
G1 X-9.311 Y-3.617 E22.52935
G1 X-9.509 Y-3.486 E22.53527
G1 X-9.648 Y-3.251 E22.54208
G0 F7200 X-9.648 Y-3.051
G0 X-8.867 Y-2.925
;TYPE:SKIN
G1 F1800 X-8.865 Y2.908 E22.68758
G1 X-8.498 Y2.97 E22.69687
G1 X2.693 Y2.97 E22.97603
G1 X2.869 Y2.924 E22.98057
G1 X2.869 Y-2.785 E23.12298
G1 X2.869 Y-2.926 E23.12649
G1 X2.709 Y-2.968 E23.13062
G1 X-8.707 Y-2.968 E23.41539
G1 X-8.867 Y-2.925 E23.41953
G0 F7200 X-8.664 Y2.648
G1 F1800 X-8.557 Y2.756 E23.42332
G0 F7200 X-7.978 Y2.769
G1 F1800 X-8.664 Y2.083 E23.44752
G0 F7200 X-8.664 Y1.517
G1 F1800 X-7.413 Y2.769 E23.49167
G0 F7200 X-6.847 Y2.769
G1 F1800 X-8.664 Y0.951 E23.55579
G0 F7200 X-8.664 Y0.386
G1 F1800 X-6.281 Y2.769 E23.63985
G0 F7200 X-5.716 Y2.769
G1 F1800 X-8.665 Y-.18 E23.74389
G0 F7200 X-8.665 Y-.745
G1 F1800 X-5.15 Y2.769 E23.86787
G0 F7200 X-4.584 Y2.769
G1 F1800 X-8.665 Y-1.311 E24.01182
G0 F7200 X-8.665 Y-1.877
G1 F1800 X-4.019 Y2.769 E24.17572
G0 F7200 X-3.453 Y2.769
G1 F1800 X-8.665 Y-2.443 E24.35959
G0 F7200 X-8.424 Y-2.767
G1 F1800 X-2.888 Y2.768 E24.55487
G0 F7200 X-2.322 Y2.768
G1 F1800 X-7.858 Y-2.767 E24.75015
G0 F7200 X-7.293 Y-2.767
G1 F1800 X-1.757 Y2.768 E24.94543
G0 F7200 X-1.191 Y2.768
G1 F1800 X-6.727 Y-2.767 E25.14071
G0 F7200 X-6.161 Y-2.767
G1 F1800 X-.625 Y2.768 E25.33599
G0 F7200 X-0.06 Y2.768
G1 F1800 X-5.596 Y-2.767 E25.53127
G0 F7200 X-5.03 Y-2.767
G1 F1800 X0.505 Y2.768 E25.72653
G0 F7200 X1.071 Y2.768
G1 F1800 X-4.464 Y-2.767 E25.92179
G0 F7200 X-3.898 Y-2.767
G1 F1800 X1.636 Y2.768 E26.11704
G0 F7200 X2.202 Y2.768
G1 F1800 X-3.333 Y-2.767 E26.3123
G0 F7200 X-2.767 Y-2.767
G1 F1800 X2.668 Y2.668 E26.50403
G0 F7200 X2.668 Y2.102
G1 F1800 X-2.201 Y-2.767 E26.6758
G0 F7200 X-1.636 Y-2.767
G1 F1800 X2.668 Y1.537 E26.82764
G0 F7200 X2.668 Y0.971
G1 F1800 X-1.07 Y-2.767 E26.9595
G0 F7200 X-.504 Y-2.767
G1 F1800 X2.668 Y0.405 E27.0714
G0 F7200 X2.668 Y-.159
G1 F1800 X0.06 Y-2.767 E27.16341
G0 F7200 X0.626 Y-2.767
G1 F1800 X2.668 Y-.725 E27.23545
G0 F7200 X2.668 Y-1.291
G1 F1800 X1.192 Y-2.767 E27.28752
G0 F7200 X1.757 Y-2.767
G1 F1800 X2.668 Y-1.856 E27.31965
G0 F7200 X2.668 Y-2.422
G1 F1800 X2.323 Y-2.767 E27.33182
G0 F7200 X2.323 Y-2.748
G1 F1500 E20.83182
;MESH:NONMESH
G0 F600 X2.323 Y-2.748 Z0.75
G0 F7200 X3.429 Y-1.471
G0 X5.334 Y-1.471
;TIME_ELAPSED:36.669919
;LAYER:3
G0 X4.857 Y-1.492
;TYPE:SUPPORT
G1 F1500 E27.33182
G1 F3600 X5.334 Y-1.471 E27.34373
G1 X6.559 Y-1.419 E27.37432
G1 X6.614 Y-1.463 E27.37608
G1 X7.349 Y-1.158 E27.39593
G1 X7.462 Y-.822 E27.40477
G1 X7.459 Y2.847 E27.49629
G1 X7.417 Y3.02 E27.50074
G1 X7.099 Y3.236 E27.51032
G1 X5.334 Y3.582 E27.55519
G1 X5.081 Y3.631 E27.56162
G1 X4.857 Y3.523 E27.56782
G1 X4.857 Y-1.492 E27.69292
G0 F7200 X5.334 Y-1.471
G1 F3600 X5.334 Y3.582 E27.81897
G1 F1500 E21.31897
G0 F7200 X3.927 Y4.392
G0 X-2.667 Y5.25
G0 X-5.087 Y4.848
G1 F1500 E27.81897
G1 F3600 X-2.667 Y4.848 E27.87934
G1 X-.913 Y4.848 E27.92309
G1 X-.97 Y4.905 E27.9251
G1 X-.97 Y5.25 E27.93371
G1 X-2.667 Y5.25 E27.97604
G1 X-5.03 Y5.25 E28.03498
G1 X-5.03 Y4.905 E28.04359
G1 X-5.087 Y4.848 E28.0456
G0 F7200 X-2.667 Y4.848
G1 F3600 X-2.667 Y5.25 E28.05563
G1 F1500 E21.55563
;MESH:Clip_left.stl
G0 F7200 X-2.667 Y3.568
G0 X-9.114 Y-3.042
G1 F1500 E28.05563
G0 F7200 X-9.36 Y-3.232
;TYPE:WALL-INNER
G1 F4800 X-9.396 Y-3.111 E28.05878
G1 X-9.395 Y3.142 E28.21476
G1 X-9.345 Y3.24 E28.2175
G1 X-9.131 Y3.338 E28.22338
G1 X-8.649 Y3.388 E28.23546
G1 X2.649 Y3.388 E28.51729
G1 X3.133 Y3.338 E28.52943
G1 X3.346 Y3.24 E28.53528
G1 X3.397 Y3.142 E28.53804
G1 X3.397 Y-3.161 E28.69526
G1 X3.249 Y-3.3 E28.70033
G1 X2.874 Y-3.386 E28.70993
G1 X-8.709 Y-3.386 E28.99887
G1 X-9.222 Y-3.314 E29.01179
G1 X-9.36 Y-3.232 E29.01579
G0 F7200 X-9.796 Y-3.168
;TYPE:WALL-OUTER
G1 F2400 X-9.795 Y3.238 E29.17559
G1 X-9.662 Y3.5 E29.18292
G1 X-9.499 Y3.629 E29.18811
G1 X-9.223 Y3.731 E29.19545
G1 X-8.669 Y3.788 E29.20934
G1 X2.669 Y3.788 E29.49217
G1 X3.225 Y3.731 E29.50611
G1 X3.499 Y3.629 E29.5134
G1 X3.663 Y3.5 E29.51861
G1 X3.797 Y3.238 E29.52595
G1 X3.797 Y-3.161 E29.68557
G1 X3.731 Y-3.42 E29.69224
G1 X3.602 Y-3.562 E29.69702
G1 X3.394 Y-3.678 E29.70296
G1 X2.919 Y-3.786 E29.71512
G1 X-8.731 Y-3.786 E30.00573
G1 X-9.225 Y-3.731 E30.01813
G1 X-9.601 Y-3.562 E30.02841
G1 X-9.718 Y-3.434 E30.03273
G1 X-9.796 Y-3.168 E30.03965
G0 F7200 X-9.796 Y-2.968
G0 X-9.016 Y-2.969
;TYPE:SKIN
G1 F1800 X-9.015 Y2.945 E30.18717
G1 X-8.623 Y3.008 E30.19708
G1 X2.628 Y3.008 E30.47774
G1 X3.017 Y2.968 E30.48749
G1 X3.017 Y-2.956 E30.63527
G1 X2.825 Y-3.006 E30.64021
G1 X-8.687 Y-3.006 E30.92738
G1 X-9.016 Y-2.969 E30.93564
G0 F7200 X-8.814 Y-2.499
G1 F1800 X-8.507 Y-2.805 E30.94645
G0 F7200 X-7.942 Y-2.805
G1 F1800 X-8.814 Y-1.933 E30.97722
G0 F7200 X-8.814 Y-1.368
G1 F1800 X-7.376 Y-2.805 E31.02793
G0 F7200 X-6.811 Y-2.805
G1 F1800 X-8.814 Y-.802 E31.09859
G0 F7200 X-8.814 Y-.236
G1 F1800 X-6.245 Y-2.805 E31.18922
G0 F7200 X-5.68 Y-2.805
G1 F1800 X-8.814 Y0.328 E31.29976
G0 F7200 X-8.814 Y0.894
G1 F1800 X-5.115 Y-2.804 E31.43023
G0 F7200 X-4.549 Y-2.804
G1 F1800 X-8.814 Y1.46 E31.58068
G0 F7200 X-8.814 Y2.025
G1 F1800 X-3.983 Y-2.804 E31.75107
G0 F7200 X-3.418 Y-2.803
G1 F1800 X-8.814 Y2.591 E31.94139
G0 F7200 X-8.464 Y2.807
G1 F1800 X-2.853 Y-2.803 E32.13932
G0 F7200 X-2.287 Y-2.803
G1 F1800 X-7.899 Y2.807 E32.33726
G0 F7200 X-7.333 Y2.807
G1 F1800 X-1.722 Y-2.802 E32.53517
G0 F7200 X-1.156 Y-2.802
G1 F1800 X-6.767 Y2.807 E32.73308
G0 F7200 X-6.202 Y2.807
G1 F1800 X-.591 Y-2.802 E32.93098
G0 F7200 X-0.026 Y-2.802
G1 F1800 X-5.636 Y2.807 E33.12887
G0 F7200 X-5.07 Y2.807
G1 F1800 X0.539 Y-2.802 E33.32675
G0 F7200 X1.105 Y-2.802
G1 F1800 X-4.504 Y2.807 E33.52462
G0 F7200 X-3.939 Y2.807
G1 F1800 X1.67 Y-2.801 E33.72247
G0 F7200 X2.235 Y-2.801
G1 F1800 X-3.373 Y2.807 E33.92031
G0 F7200 X-2.807 Y2.807
G1 F1800 X2.801 Y-2.801 E34.11815
G0 F7200 X2.816 Y-2.25
G1 F1800 X-2.242 Y2.807 E34.29657
G0 F7200 X-1.676 Y2.807
G1 F1800 X2.816 Y-1.685 E34.45503
G0 F7200 X2.816 Y-1.119
G1 F1800 X-1.11 Y2.807 E34.59353
G0 F7200 X-.545 Y2.807
G1 F1800 X2.816 Y-.553 E34.71208
G0 F7200 X2.816 Y0.012
G1 F1800 X0.02 Y2.807 E34.8107
G0 F7200 X0.586 Y2.807
G1 F1800 X2.816 Y0.577 E34.88937
G0 F7200 X2.816 Y1.143
G1 F1800 X1.151 Y2.807 E34.94809
G0 F7200 X1.717 Y2.807
G1 F1800 X2.816 Y1.709 E34.98684
G0 F7200 X2.816 Y2.274
G1 F1800 X2.283 Y2.807 E35.00565
G0 F7200 X2.283 Y2.788
G1 F1500 E28.50565
;MESH:NONMESH
