;FLAVOR:Marlin
;TIME:1373
;Filament used: 0.972967m
;Layer height: 0.15
;MINX:-8.35
;MINY:-24.986
;MINZ:0.3
;MAXX:8.3
;MAXY:24.3
;MAXZ:31.65
;Generated with Cura_SteamEngine 5.2.1
M140 S60
M105
M190 S60
M104 S200
M105
M109 S200
M82 ;absolute extrusion mode
G28 ;Home
G1 Z15.0 F6000 ;Move the platform down 15mm
;Prime the extruder
G92 E0
G1 F200 E3
G92 E0
M141 S28
G92 E0
G92 E0
G1 F1500 E-6.5
;LAYER_COUNT:210
;LAYER:0
M107
G0 F3600 X0.00 Y16.908 Z0.3
;TYPE:SUPPORT
G1 F1500 E0
G1 F1800 X0.00 Y22.082 E0.25813
G0 F3600 X-.882 Y21.336
G1 F1800 X5.697 Y21.336 E0.58636
G0 F3600 X5.334 Y21.878
G1 F1800 X5.334 Y17.075 E0.82598
G0 F3600 X5.697 Y18.669
G1 F1800 X-.882 Y18.669 E1.15421
G1 F1500 E-5.34579
G0 F3600 X-.838 Y18.669
G0 X2.667 Y16.772
G1 F1500 E1.15421
G1 F1800 X2.667 Y22.243 E1.42716
G1 F1500 E-5.07284
G0 F3600 X-.847 Y-23.592
G0 X-2.667 Y-23.605
G0 X-2.667 Y-23.56
G1 F1500 E1.42716
G1 F1800 X-2.667 Y-23.811 E1.43968
G0 F3600 X-3.377 Y-24.003
G1 F1800 X-6.621 Y-24.003 E1.60153
G0 F3600 X-5.334 Y-23.56
G1 F1800 X-5.334 Y-24.986 E1.67267
G1 F1500 E-4.82733
G0 F3600 X-8.001 Y-23.811
G1 F1500 E1.67267
G1 F1800 X-8.001 Y-23.56 E1.68519
G1 F1500 E-4.81481
;MESH:Clip_right.stl
G0 F3600 X-8.003 Y-22.52
G1 F1500 E1.68519
G0 F3600 X-7.899 Y-22.339
;TYPE:WALL-INNER
G1 F1800 X-7.894 Y23.682 E3.98119
G1 X-7.843 Y23.819 E3.98848
G1 X-7.674 Y23.896 E3.99775
G1 X-2.319 Y23.894 E4.26491
G1 X-2.182 Y23.843 E4.2722
G1 X-2.104 Y23.674 E4.28149
G1 X-2.101 Y-19.44 E6.43245
G1 X-2.101 Y-22.339 E6.57709
G1 X-7.899 Y-22.339 E6.86635
G0 F3600 X-8.299 Y-22.739
;TYPE:WALL-OUTER
G1 F1800 X-8.294 Y23.754 E9.18589
G1 X-8.19 Y24.035 E9.20084
G1 X-8.055 Y24.176 E9.21058
G1 X-7.749 Y24.296 E9.22698
G1 X-2.248 Y24.294 E9.50143
G1 X-1.965 Y24.19 E9.51647
G1 X-1.822 Y24.053 E9.52635
G1 X-1.704 Y23.748 E9.54266
G1 X-1.701 Y-19.44 E11.69732
G1 X-1.701 Y-22.739 E11.86191
G1 X-8.299 Y-22.739 E12.19109
G0 F3600 X-8.299 Y-22.539
G0 X-7.518 Y-21.958
;TYPE:SKIN
G1 F1800 X-7.514 Y23.515 E14.45974
G1 X-2.484 Y23.514 E14.71069
G1 X-2.482 Y-19.44 E16.85367
G1 X-2.482 Y-21.958 E16.9793
G1 X-7.518 Y-21.958 E17.23054
G0 F3600 X-3.089 Y-21.756
G1 F1800 X-2.682 Y-21.349 E17.25926
G0 F3600 X-2.682 Y-20.783
G1 F1800 X-3.655 Y-21.756 E17.32791
G0 F3600 X-4.22 Y-21.756
G1 F1800 X-2.682 Y-20.218 E17.43643
G0 F3600 X-2.682 Y-19.652
G1 F1800 X-4.786 Y-21.756 E17.58487
G0 F3600 X-5.352 Y-21.756
G1 F1800 X-2.682 Y-19.086 E17.77326
G0 F3600 X-2.682 Y-18.521
G1 F1800 X-5.917 Y-21.756 E18.0015
G0 F3600 X-6.483 Y-21.756
G1 F1800 X-2.682 Y-17.955 E18.26968
G0 F3600 X-2.682 Y-17.389
G1 F1800 X-7.049 Y-21.756 E18.5778
G0 F3600 X-7.317 Y-21.459
G1 F1800 X-2.682 Y-16.824 E18.90482
G0 F3600 X-2.682 Y-16.258
G1 F1800 X-7.317 Y-20.894 E19.23188
G0 F3600 X-7.317 Y-20.328
G1 F1800 X-2.682 Y-15.692 E19.55894
G0 F3600 X-2.682 Y-15.127
G1 F1800 X-7.317 Y-19.762 E19.88597
G0 F3600 X-7.317 Y-19.197
G1 F1800 X-2.682 Y-14.561 E20.21303
G0 F3600 X-2.682 Y-13.995
G1 F1800 X-7.317 Y-18.631 E20.54009
G0 F3600 X-7.317 Y-18.065
G1 F1800 X-2.682 Y-13.43 E20.86711
G0 F3600 X-2.682 Y-12.864
G1 F1800 X-7.317 Y-17.5 E21.19417
G0 F3600 X-7.317 Y-16.934
G1 F1800 X-2.682 Y-12.298 E21.52123
G0 F3600 X-2.682 Y-11.733
G1 F1800 X-7.317 Y-16.368 E21.84825
G0 F3600 X-7.317 Y-15.803
G1 F1800 X-2.682 Y-11.167 E22.17531
G0 F3600 X-2.682 Y-10.601
G1 F1800 X-7.317 Y-15.237 E22.50237
G0 F3600 X-7.317 Y-14.671
G1 F1800 X-2.682 Y-10.035 E22.82943
G0 F3600 X-2.682 Y-9.47
G1 F1800 X-7.317 Y-14.105 E23.15646
G0 F3600 X-7.317 Y-13.539
G1 F1800 X-2.682 Y-8.904 E23.48348
G0 F3600 X-2.682 Y-8.338
G1 F1800 X-7.317 Y-12.973 E23.81051
G0 F3600 X-7.317 Y-12.408
G1 F1800 X-2.682 Y-7.773 E24.13753
G0 F3600 X-2.682 Y-7.207
G1 F1800 X-7.317 Y-11.842 E24.46455
G0 F3600 X-7.317 Y-11.276
G1 F1800 X-2.682 Y-6.642 E24.79154
G0 F3600 X-2.682 Y-6.076
G1 F1800 X-7.317 Y-10.711 E25.11857
G0 F3600 X-7.317 Y-10.145
G1 F1800 X-2.682 Y-5.511 E25.44556
G0 F3600 X-2.682 Y-4.945
G1 F1800 X-7.317 Y-9.579 E25.77255
G0 F3600 X-7.317 Y-9.014
G1 F1800 X-2.682 Y-4.379 E26.09957
G0 F3600 X-2.682 Y-3.814
G1 F1800 X-7.317 Y-8.448 E26.42656
G0 F3600 X-7.317 Y-7.882
G1 F1800 X-2.682 Y-3.248 E26.75355
G0 F3600 X-2.682 Y-2.682
G1 F1800 X-7.317 Y-7.317 E27.08057
G0 F3600 X-7.317 Y-6.751
G1 F1800 X-2.682 Y-2.117 E27.40756
G0 F3600 X-2.682 Y-1.551
G1 F1800 X-7.316 Y-6.185 E27.73452
G0 F3600 X-7.316 Y-5.619
G1 F1800 X-2.682 Y-.985 E28.06147
G0 F3600 X-2.682 Y-.42
G1 F1800 X-7.316 Y-5.053 E28.38839
G0 F3600 X-7.316 Y-4.488
G1 F1800 X-2.682 Y0.145 E28.71531
G0 F3600 X-2.682 Y0.711
G1 F1800 X-7.316 Y-3.922 E29.04222
G0 F3600 X-7.316 Y-3.356
G1 F1800 X-2.682 Y1.277 E29.36914
G0 F3600 X-2.682 Y1.842
G1 F1800 X-7.316 Y-2.79 E29.69603
G0 F3600 X-7.316 Y-2.225
G1 F1800 X-2.682 Y2.408 E30.02294
G0 F3600 X-2.682 Y2.974
G1 F1800 X-7.316 Y-1.659 E30.34986
G0 F3600 X-7.316 Y-1.093
G1 F1800 X-2.682 Y3.539 E30.67675
G0 F3600 X-2.682 Y4.105
G1 F1800 X-7.316 Y-.528 E31.00366
G0 F3600 X-7.316 Y0.037
G1 F1800 X-2.682 Y4.671 E31.33062
G0 F3600 X-2.682 Y5.236
G1 F1800 X-7.316 Y0.603 E31.65754
G0 F3600 X-7.315 Y1.169
G1 F1800 X-2.682 Y5.802 E31.98442
G0 F3600 X-2.682 Y6.368
G1 F1800 X-7.315 Y1.735 E32.3113
G0 F3600 X-7.315 Y2.3
G1 F1800 X-2.682 Y6.933 E32.63819
G0 F3600 X-2.682 Y7.499
G1 F1800 X-7.315 Y2.866 E32.96507
G0 F3600 X-7.315 Y3.432
G1 F1800 X-2.682 Y8.065 E33.29195
G0 F3600 X-2.683 Y8.63
G1 F1800 X-7.315 Y3.997 E33.6188
G0 F3600 X-7.315 Y4.563
G1 F1800 X-2.683 Y9.195 E33.94561
G0 F3600 X-2.683 Y9.761
G1 F1800 X-7.315 Y5.129 E34.27243
G0 F3600 X-7.315 Y5.695
G1 F1800 X-2.683 Y10.327 E34.59924
G0 F3600 X-2.683 Y10.892
G1 F1800 X-7.315 Y6.26 E34.92605
G0 F3600 X-7.315 Y6.826
G1 F1800 X-2.683 Y11.458 E35.25286
G0 F3600 X-2.683 Y12.024
G1 F1800 X-7.315 Y7.392 E35.57968
G0 F3600 X-7.315 Y7.957
G1 F1800 X-2.683 Y12.59 E35.90652
G0 F3600 X-2.683 Y13.155
G1 F1800 X-7.315 Y8.524 E36.2333
G0 F3600 X-7.315 Y9.089
G1 F1800 X-2.683 Y13.721 E36.56011
G0 F3600 X-2.683 Y14.287
G1 F1800 X-7.315 Y9.655 E36.88693
G0 F3600 X-7.315 Y10.221
G1 F1800 X-2.683 Y14.852 E37.2137
G0 F3600 X-2.683 Y15.418
G1 F1800 X-7.315 Y10.786 E37.54052
G0 F3600 X-7.315 Y11.352
G1 F1800 X-2.683 Y15.984 E37.86733
G0 F3600 X-2.683 Y16.549
G1 F1800 X-7.315 Y11.918 E38.19411
G0 F3600 X-7.315 Y12.483
G1 F1800 X-2.683 Y17.115 E38.52092
G0 F3600 X-2.683 Y17.681
G1 F1800 X-7.315 Y13.049 E38.84773
G0 F3600 X-7.315 Y13.615
G1 F1800 X-2.683 Y18.246 E39.17451
G0 F3600 X-2.683 Y18.812
G1 F1800 X-7.315 Y14.181 E39.50129
G0 F3600 X-7.315 Y14.746
G1 F1800 X-2.683 Y19.378 E39.8281
G0 F3600 X-2.683 Y19.943
G1 F1800 X-7.315 Y15.312 E40.15488
G0 F3600 X-7.314 Y15.878
G1 F1800 X-2.683 Y20.509 E40.48162
G0 F3600 X-2.683 Y21.075
G1 F1800 X-7.314 Y16.444 E40.80836
G0 F3600 X-7.314 Y17.01
G1 F1800 X-2.683 Y21.641 E41.1351
G0 F3600 X-2.683 Y22.206
G1 F1800 X-7.314 Y17.575 E41.46185
G0 F3600 X-7.314 Y18.141
G1 F1800 X-2.683 Y22.772 E41.78859
G0 F3600 X-2.708 Y23.313
G1 F1800 X-7.314 Y18.707 E42.11357
G0 F3600 X-7.314 Y19.272
G1 F1800 X-3.273 Y23.313 E42.39868
G0 F3600 X-3.839 Y23.313
G1 F1800 X-7.314 Y19.838 E42.64386
G0 F3600 X-7.314 Y20.404
G1 F1800 X-4.405 Y23.313 E42.84911
G0 F3600 X-4.97 Y23.313
G1 F1800 X-7.314 Y20.969 E43.01449
G0 F3600 X-7.314 Y21.535
G1 F1800 X-5.536 Y23.313 E43.13993
G0 F3600 X-6.102 Y23.313
G1 F1800 X-7.314 Y22.101 E43.22545
G0 F3600 X-7.314 Y22.667
G1 F1800 X-6.668 Y23.313 E43.27103
G0 F3600 X-7.233 Y23.313
G1 F1800 X-7.314 Y23.232 E43.27674
G0 F3600 X-7.295 Y23.233
G1 F1500 E36.77674
;MESH:NONMESH
G0 F600 X-7.295 Y23.233 Z0.45
G0 F3600 X-1.923 Y17.036
G0 X0.00 Y17.038
;TIME_ELAPSED:36.881886
;LAYER:1
M106 S255
;TYPE:SUPPORT
G1 F1500 E43.27674
G1 F2700 X0.00 Y21.81 E43.39578
G1 X-.35 Y22 E43.40571
G1 X-.49 Y21.806 E43.41168
G1 X-.642 Y21.78 E43.41553
G1 X-.642 Y17.041 E43.53374
G1 X0.906 Y17.036 E43.57236
G1 X1.306 Y17.011 E43.58236
G1 X1.563 Y17.05 E43.58884
G1 X2.297 Y16.941 E43.60735
G1 X2.667 Y17.018 E43.61678
G1 X2.667 Y22.003 E43.74113
G1 X3.322 Y21.978 E43.75748
G1 X3.539 Y21.869 E43.76354
G1 X4.178 Y21.962 E43.77965
G1 X4.451 Y21.793 E43.78766
G1 X4.884 Y21.791 E43.79846
G1 X5.363 Y21.611 E43.81122
G1 X5.458 Y21.383 E43.81738
G1 X5.458 Y17.604 E43.91165
G1 X5.334 Y17.337 E43.91899
G1 X5.334 Y21.622 E44.02588
G1 F1500 E37.52588
;MESH:Clip_right.stl
G0 F5400 X-.836 Y21.62
G0 X-1.921 Y21.62
G0 X-7.63 Y-22.636
G1 F1500 E44.02588
G0 F5400 X-7.899 Y-22.905
;TYPE:WALL-INNER
G1 F3300 X-7.895 Y23.693 E45.18828
G1 X-7.79 Y23.864 E45.19328
G1 X-7.705 Y23.898 E45.19556
G1 X-2.306 Y23.894 E45.33024
G1 X-2.137 Y23.791 E45.33518
G1 X-2.106 Y23.728 E45.33693
G1 X-2.101 Y-20.006 E46.42788
G1 X-2.101 Y-22.905 E46.5002
G1 X-7.899 Y-22.905 E46.64483
G0 F5400 X-8.299 Y-23.305
;TYPE:WALL-OUTER
G1 F2100 X-8.295 Y23.749 E47.8186
G1 X-8.237 Y23.953 E47.82389
G1 X-8.042 Y24.186 E47.83146
G1 X-7.74 Y24.298 E47.8395
G1 X-2.251 Y24.294 E47.97642
G1 X-2.045 Y24.236 E47.98176
G1 X-1.814 Y24.042 E47.98929
G1 X-1.702 Y23.812 E47.99567
G1 X-1.701 Y-20.006 E49.08871
G1 X-1.701 Y-23.305 E49.17101
G1 X-8.299 Y-23.305 E49.33559
G0 F5400 X-8.299 Y-23.105
G0 X-7.518 Y-22.524
;TYPE:SKIN
G1 F1800 X-7.514 Y23.517 E50.48409
G1 X-2.482 Y23.515 E50.60962
G1 X-2.482 Y-20.006 E51.69525
G1 X-2.482 Y-22.524 E51.75806
G1 X-7.518 Y-22.524 E51.88369
G0 F5400 X-7.092 Y-22.323
G1 F1800 X-7.317 Y-22.097 E51.89164
G0 F5400 X-7.317 Y-21.532
G1 F1800 X-6.526 Y-22.323 E51.91955
G0 F5400 X-5.96 Y-22.323
G1 F1800 X-7.317 Y-20.966 E51.96742
G0 F5400 X-7.317 Y-20.4
G1 F1800 X-5.395 Y-22.323 E52.03524
G0 F5400 X-4.829 Y-22.323
G1 F1800 X-7.317 Y-19.835 E52.12301
G0 F5400 X-7.317 Y-19.269
G1 F1800 X-4.263 Y-22.323 E52.23075
G0 F5400 X-3.698 Y-22.323
G1 F1800 X-7.317 Y-18.703 E52.35844
G0 F5400 X-7.317 Y-18.137
G1 F1800 X-3.132 Y-22.323 E52.50609
G0 F5400 X-2.682 Y-22.208
G1 F1800 X-7.317 Y-17.572 E52.66962
G0 F5400 X-7.317 Y-17.006
G1 F1800 X-2.682 Y-21.642 E52.83315
G0 F5400 X-2.682 Y-21.076
G1 F1800 X-7.317 Y-16.44 E52.99668
G0 F5400 X-7.317 Y-15.875
G1 F1800 X-2.682 Y-20.511 E53.16021
G0 F5400 X-2.682 Y-19.945
G1 F1800 X-7.317 Y-15.309 E53.32374
G0 F5400 X-7.317 Y-14.743
G1 F1800 X-2.682 Y-19.379 E53.48727
G0 F5400 X-2.682 Y-18.813
G1 F1800 X-7.317 Y-14.178 E53.65078
G0 F5400 X-7.317 Y-13.613
G1 F1800 X-2.682 Y-18.248 E53.81429
G0 F5400 X-2.682 Y-17.682
G1 F1800 X-7.317 Y-13.047 E53.97781
G0 F5400 X-7.317 Y-12.481
G1 F1800 X-2.682 Y-17.116 E54.14132
G0 F5400 X-2.682 Y-16.551
G1 F1800 X-7.317 Y-11.916 E54.30483
G0 F5400 X-7.317 Y-11.35
G1 F1800 X-2.682 Y-15.985 E54.46834
G0 F5400 X-2.682 Y-15.419
G1 F1800 X-7.317 Y-10.784 E54.63185
G0 F5400 X-7.317 Y-10.219
G1 F1800 X-2.682 Y-14.854 E54.79537
G0 F5400 X-2.682 Y-14.288
G1 F1800 X-7.317 Y-9.653 E54.95888
G0 F5400 X-7.317 Y-9.087
G1 F1800 X-2.682 Y-13.722 E55.12239
G0 F5400 X-2.682 Y-13.157
G1 F1800 X-7.317 Y-8.522 E55.2859
G0 F5400 X-7.317 Y-7.956
G1 F1800 X-2.682 Y-12.591 E55.44942
G0 F5400 X-2.682 Y-12.025
G1 F1800 X-7.317 Y-7.39 E55.61293
G0 F5400 X-7.316 Y-6.825
G1 F1800 X-2.682 Y-11.46 E55.77642
G0 F5400 X-2.682 Y-10.894
G1 F1800 X-7.316 Y-6.26 E55.9399
G0 F5400 X-7.316 Y-5.694
G1 F1800 X-2.682 Y-10.328 E56.10338
G0 F5400 X-2.682 Y-9.763
G1 F1800 X-7.316 Y-5.128 E56.26687
G0 F5400 X-7.316 Y-4.562
G1 F1800 X-2.682 Y-9.197 E56.43036
G0 F5400 X-2.682 Y-8.631
G1 F1800 X-7.316 Y-3.997 E56.59384
G0 F5400 X-7.316 Y-3.431
G1 F1800 X-2.682 Y-8.065 E56.75732
G0 F5400 X-2.682 Y-7.5
G1 F1800 X-7.316 Y-2.865 E56.92081
G0 F5400 X-7.316 Y-2.3
G1 F1800 X-2.682 Y-6.934 E57.08429
G0 F5400 X-2.682 Y-6.368
G1 F1800 X-7.316 Y-1.734 E57.24777
G0 F5400 X-7.316 Y-1.168
G1 F1800 X-2.682 Y-5.803 E57.41126
G0 F5400 X-2.682 Y-5.237
G1 F1800 X-7.316 Y-.603 E57.57474
G0 F5400 X-7.316 Y-0.037
G1 F1800 X-2.682 Y-4.671 E57.73821
G0 F5400 X-2.682 Y-4.106
G1 F1800 X-7.315 Y0.527 E57.90166
G0 F5400 X-7.315 Y1.093
G1 F1800 X-2.682 Y-3.54 E58.0651
G0 F5400 X-2.682 Y-2.974
G1 F1800 X-7.315 Y1.658 E58.22852
G0 F5400 X-7.315 Y2.224
G1 F1800 X-2.682 Y-2.409 E58.39196
G0 F5400 X-2.682 Y-1.843
G1 F1800 X-7.315 Y2.79 E58.55541
G0 F5400 X-7.315 Y3.355
G1 F1800 X-2.682 Y-1.277 E58.71883
G0 F5400 X-2.682 Y-.712
G1 F1800 X-7.315 Y3.921 E58.88227
G0 F5400 X-7.315 Y4.487
G1 F1800 X-2.682 Y-.146 E59.04571
G0 F5400 X-2.682 Y0.419
G1 F1800 X-7.315 Y5.052 E59.20915
G0 F5400 X-7.315 Y5.618
G1 F1800 X-2.682 Y0.984 E59.37261
G0 F5400 X-2.682 Y1.55
G1 F1800 X-7.315 Y6.184 E59.53607
G0 F5400 X-7.315 Y6.75
G1 F1800 X-2.682 Y2.116 E59.69953
G0 F5400 X-2.682 Y2.682
G1 F1800 X-7.315 Y7.315 E59.86297
G0 F5400 X-7.315 Y7.881
G1 F1800 X-2.682 Y3.247 E60.02643
G0 F5400 X-2.682 Y3.813
G1 F1800 X-7.315 Y8.446 E60.18987
G0 F5400 X-7.315 Y9.012
G1 F1800 X-2.682 Y4.379 E60.35332
G0 F5400 X-2.682 Y4.944
G1 F1800 X-7.315 Y9.577 E60.51676
G0 F5400 X-7.315 Y10.143
G1 F1800 X-2.682 Y5.51 E60.6802
G0 F5400 X-2.682 Y6.076
G1 F1800 X-7.315 Y10.709 E60.84364
G0 F5400 X-7.315 Y11.274
G1 F1800 X-2.682 Y6.641 E61.00708
G0 F5400 X-2.682 Y7.207
G1 F1800 X-7.315 Y11.84 E61.17052
G0 F5400 X-7.315 Y12.406
G1 F1800 X-2.682 Y7.773 E61.33397
G0 F5400 X-2.682 Y8.338
G1 F1800 X-7.315 Y12.971 E61.49741
G0 F5400 X-7.315 Y13.537
G1 F1800 X-2.682 Y8.904 E61.66085
G0 F5400 X-2.682 Y9.47
G1 F1800 X-7.315 Y14.103 E61.82429
G0 F5400 X-7.315 Y14.668
G1 F1800 X-2.682 Y10.035 E61.98773
G0 F5400 X-2.682 Y10.601
G1 F1800 X-7.315 Y15.234 E62.15117
G0 F5400 X-7.314 Y15.799
G1 F1800 X-2.682 Y11.167 E62.31458
G0 F5400 X-2.682 Y11.733
G1 F1800 X-7.314 Y16.365 E62.47799
G0 F5400 X-7.314 Y16.93
G1 F1800 X-2.682 Y12.298 E62.64139
G0 F5400 X-2.682 Y12.864
G1 F1800 X-7.314 Y17.496 E62.8048
G0 F5400 X-7.314 Y18.062
G1 F1800 X-2.682 Y13.43 E62.9682
G0 F5400 X-2.682 Y13.995
G1 F1800 X-7.314 Y18.628 E63.13163
G0 F5400 X-7.314 Y19.193
G1 F1800 X-2.682 Y14.561 E63.29503
G0 F5400 X-2.682 Y15.127
G1 F1800 X-7.314 Y19.759 E63.45844
G0 F5400 X-7.314 Y20.325
G1 F1800 X-2.682 Y15.692 E63.62187
G0 F5400 X-2.682 Y16.258
G1 F1800 X-7.314 Y20.89 E63.78527
G0 F5400 X-7.314 Y21.456
G1 F1800 X-2.682 Y16.824 E63.94868
G0 F5400 X-2.682 Y17.389
G1 F1800 X-7.314 Y22.022 E64.1121
G0 F5400 X-7.314 Y22.587
G1 F1800 X-2.682 Y17.955 E64.27551
G0 F5400 X-2.682 Y18.521
G1 F1800 X-7.314 Y23.153 E64.43891
G0 F5400 X-6.911 Y23.316
G1 F1800 X-2.682 Y19.086 E64.58812
G0 F5400 X-2.682 Y19.652
G1 F1800 X-6.345 Y23.316 E64.71736
G0 F5400 X-5.779 Y23.316
G1 F1800 X-2.682 Y20.218 E64.82663
G0 F5400 X-2.682 Y20.783
G1 F1800 X-5.213 Y23.315 E64.91594
G0 F5400 X-4.647 Y23.315
G1 F1800 X-2.682 Y21.349 E64.98528
G0 F5400 X-2.682 Y21.915
G1 F1800 X-4.081 Y23.314 E65.03463
G0 F5400 X-3.515 Y23.314
G1 F1800 X-2.682 Y22.481 E65.06402
G0 F5400 X-2.682 Y23.046
G1 F1800 X-2.95 Y23.314 E65.07347
G0 F5400 X-2.949 Y23.295
G1 F1500 E58.57347
;MESH:NONMESH
G0 F600 X-2.949 Y23.295 Z0.6
G0 F5400 X-1.921 Y17.036
G0 X0.00 Y17.038
;TIME_ELAPSED:67.423620
;LAYER:2
;TYPE:SUPPORT
G1 F1500 E65.07347
G1 F3600 X0.00 Y21.811 E65.19253
G1 X-.35 Y22.001 E65.20247
G1 X-.49 Y21.806 E65.20846
G1 X-.643 Y21.78 E65.21233
G1 X-.643 Y17.041 E65.33054
G1 X0.906 Y17.036 E65.36918
G1 X1.306 Y17.011 E65.37918
G1 X1.563 Y17.05 E65.38567
G1 X2.299 Y16.941 E65.40423
G1 X2.667 Y17.016 E65.41359
G1 X2.667 Y22.003 E65.53799
G1 X3.319 Y21.978 E65.55427
G1 X3.535 Y21.869 E65.56031
G1 X4.178 Y21.963 E65.57652
G1 X4.451 Y21.793 E65.58454
G1 X4.884 Y21.791 E65.59534
G1 X5.363 Y21.611 E65.6081
G1 X5.458 Y21.383 E65.61427
G1 X5.458 Y17.604 E65.70853
G1 X5.334 Y17.337 E65.71588
G1 X5.334 Y21.622 E65.82277
G1 F1500 E59.32277
;MESH:Clip_right.stl
G0 F7200 X-.837 Y21.62
G0 X-1.922 Y21.62
G0 X-7.63 Y-22.861
G1 F1500 E65.82277
G0 F7200 X-7.899 Y-23.13
;TYPE:WALL-INNER
G1 F4800 X-7.896 Y23.735 E66.99182
G1 X-7.799 Y23.849 E66.99555
G1 X-7.671 Y23.897 E66.99896
G1 X-2.318 Y23.896 E67.13249
G1 X-2.151 Y23.8 E67.1373
G1 X-2.103 Y23.673 E67.14069
G1 X-2.101 Y-20.231 E68.23588
G1 X-2.101 Y-23.13 E68.30819
G1 X-7.899 Y-23.13 E68.45282
G0 F7200 X-8.299 Y-23.53
;TYPE:WALL-OUTER
G1 F2400 X-8.296 Y23.735 E69.63185
G1 X-8.238 Y23.95 E69.63741
G1 X-8.036 Y24.189 E69.64521
G1 X-7.741 Y24.297 E69.65305
G1 X-2.265 Y24.296 E69.78965
G1 X-2.048 Y24.238 E69.79525
G1 X-1.811 Y24.036 E69.80302
G1 X-1.703 Y23.743 E69.81081
