;FLAVOR:Marlin
;TIME:5692
;Filament used: 9.67792m
;Layer height: 0.3
;MINX:-48.802
;MINY:-48.802
;MINZ:0.3
;MAXX:48.802
;MAXY:48.802
;MAXZ:30.9
;Generated with Cura_SteamEngine 5.2.1
M140 S60
M105
M190 S60
M104 S200
M105
M109 S200
M82 ;absolute extrusion mode
G28 ;Home
G1 Z15.0 F6000 ;Move the platform down 15mm
;Prime the extruder
G92 E0
G1 F200 E3
G92 E0
M141 S28
G92 E0
G92 E0
G1 F1500 E-6.5
;LAYER_COUNT:103
;LAYER:0
M107
G0 F3600 X-29.704 Y38.719 Z0.3
;TYPE:SKIRT
G1 F1500 E0
G1 F1800 X-31.367 Y37.387 E0.1063
G1 X-32.976 Y35.974 E0.21313
G1 X-34.509 Y34.506 E0.31903
G1 X-35.993 Y32.956 E0.42608
G1 X-37.369 Y31.387 E0.5302
G1 X-38.717 Y29.707 E0.63766
G1 X-39.986 Y27.976 E0.74474
G1 X-41.151 Y26.234 E0.84929
G1 X-42.268 Y24.392 E0.95677
G1 X-43.283 Y22.542 E1.06204
G1 X-44.232 Y20.622 E1.1689
G1 X-45.084 Y18.682 E1.27461
G1 X-45.865 Y16.676 E1.382
G1 X-46.542 Y14.679 E1.4872
G1 X-47.14 Y12.631 E1.59364
G1 X-47.644 Y10.566 E1.69969
G1 X-48.058 Y8.488 E1.8054
G1 X-48.386 Y6.352 E1.91322
G1 X-48.615 Y4.268 E2.01781
G1 X-48.755 Y2.124 E2.12501
G1 X-48.802 Y0.001 E2.23095
G1 X-48.755 Y-2.125 E2.33704
G1 X-48.615 Y-4.267 E2.44413
G1 X-48.386 Y-6.36 E2.54918
G1 X-48.06 Y-8.472 E2.65579
G1 X-47.643 Y-10.57 E2.76251
G1 X-47.136 Y-12.641 E2.86888
G1 X-46.544 Y-14.672 E2.97443
G1 X-45.856 Y-16.697 E3.08113
G1 X-45.094 Y-18.66 E3.18618
G1 X-44.224 Y-20.636 E3.2939
G1 X-43.289 Y-22.533 E3.39941
G1 X-42.271 Y-24.39 E3.50506
G1 X-41.151 Y-26.234 E3.6127
G1 X-39.985 Y-27.979 E3.71741
G1 X-38.709 Y-29.719 E3.82506
G1 X-37.389 Y-31.365 E3.93032
G1 X-35.984 Y-32.966 E4.03659
G1 X-34.507 Y-34.508 E4.14312
G1 X-32.956 Y-35.993 E4.25025
G1 X-31.387 Y-37.369 E4.35436
G1 X-29.707 Y-38.717 E4.46182
G1 X-27.976 Y-39.986 E4.5689
G1 X-26.226 Y-41.156 E4.67393
G1 X-24.408 Y-42.258 E4.77999
G1 X-22.535 Y-43.287 E4.88661
G1 X-20.621 Y-44.232 E4.9931
G1 X-18.682 Y-45.084 E5.09876
G1 X-16.676 Y-45.865 E5.20616
G1 X-14.679 Y-46.542 E5.31136
G1 X-12.631 Y-47.14 E5.4178
G1 X-10.566 Y-47.644 E5.52385
G1 X-8.488 Y-48.058 E5.62956
G1 X-6.352 Y-48.386 E5.73738
G1 X-4.268 Y-48.615 E5.84197
G1 X-2.124 Y-48.755 E5.94916
G1 X0.00 Y-48.802 E6.05516
G1 X2.124 Y-48.755 E6.16115
G1 X4.267 Y-48.615 E6.26829
G1 X6.36 Y-48.386 E6.37334
G1 X8.472 Y-48.06 E6.47995
G1 X10.57 Y-47.643 E6.58667
G1 X12.641 Y-47.136 E6.69304
G1 X14.672 Y-46.544 E6.79859
G1 X16.697 Y-45.856 E6.90529
G1 X18.66 Y-45.094 E7.01034
G1 X20.636 Y-44.224 E7.11806
G1 X22.525 Y-43.292 E7.22314
G1 X24.404 Y-42.263 E7.33002
G1 X26.227 Y-41.156 E7.43643
G1 X27.98 Y-39.985 E7.54161
G1 X29.719 Y-38.709 E7.64921
G1 X31.365 Y-37.389 E7.75448
G1 X32.966 Y-35.984 E7.86075
G1 X34.508 Y-34.507 E7.96728
G1 X35.993 Y-32.956 E8.0744
G1 X37.369 Y-31.387 E8.17852
G1 X38.713 Y-29.712 E8.28566
G1 X39.98 Y-27.985 E8.39252
G1 X41.163 Y-26.214 E8.49878
G1 X42.258 Y-24.408 E8.60415
G1 X43.287 Y-22.535 E8.71076
G1 X44.232 Y-20.62 E8.8173
G1 X45.084 Y-18.681 E8.92297
G1 X45.865 Y-16.675 E9.03036
G1 X46.536 Y-14.696 E9.13462
G1 X47.141 Y-12.623 E9.24236
G1 X47.645 Y-10.561 E9.34826
G1 X48.058 Y-8.489 E9.45366
G1 X48.387 Y-6.35 E9.56163
G1 X48.615 Y-4.271 E9.66598
G1 X48.755 Y-2.124 E9.77332
G1 X48.802 Y-0.001 E9.87926
G1 X48.755 Y2.125 E9.98535
G1 X48.615 Y4.267 E10.09245
G1 X48.386 Y6.36 E10.19749
G1 X48.06 Y8.472 E10.30411
G1 X47.643 Y10.57 E10.41082
G1 X47.136 Y12.641 E10.5172
G1 X46.544 Y14.672 E10.62274
G1 X45.856 Y16.697 E10.72944
G1 X45.094 Y18.66 E10.83449
G1 X44.224 Y20.636 E10.94221
G1 X43.289 Y22.533 E11.04772
G1 X42.271 Y24.39 E11.15338
G1 X41.151 Y26.234 E11.26101
G1 X39.985 Y27.979 E11.36572
G1 X38.709 Y29.719 E11.47337
G1 X37.389 Y31.365 E11.57863
G1 X35.984 Y32.966 E11.6849
G1 X34.507 Y34.508 E11.79143
G1 X32.956 Y35.993 E11.89856
G1 X31.387 Y37.369 E12.00267
G1 X29.707 Y38.717 E12.11014
G1 X27.976 Y39.986 E12.21722
G1 X26.226 Y41.156 E12.32224
G1 X24.408 Y42.258 E12.4283
G1 X22.535 Y43.287 E12.53492
G1 X20.621 Y44.232 E12.64141
G1 X18.682 Y45.084 E12.74708
G1 X16.676 Y45.865 E12.85448
G1 X14.679 Y46.542 E12.95968
G1 X12.631 Y47.14 E13.06612
G1 X10.566 Y47.644 E13.17216
G1 X8.488 Y48.058 E13.27787
G1 X6.352 Y48.386 E13.38569
G1 X4.268 Y48.615 E13.49029
G1 X2.124 Y48.755 E13.59748
G1 X0.001 Y48.802 E13.70342
G1 X-2.125 Y48.755 E13.80951
G1 X-4.267 Y48.615 E13.91661
G1 X-6.36 Y48.386 E14.02165
G1 X-8.472 Y48.06 E14.12827
G1 X-10.57 Y47.643 E14.23498
G1 X-12.641 Y47.136 E14.34136
G1 X-14.672 Y46.544 E14.4469
G1 X-16.697 Y45.856 E14.5536
G1 X-18.66 Y45.094 E14.65865
G1 X-20.638 Y44.223 E14.76648
G1 X-22.525 Y43.292 E14.87146
G1 X-24.404 Y42.263 E14.97834
G1 X-26.227 Y41.156 E15.08474
G1 X-27.981 Y39.984 E15.18999
G1 X-29.704 Y38.719 E15.29663
G0 F3600 X-29.461 Y38.402
G1 F1800 X-31.114 Y37.077 E15.40232
G1 X-32.706 Y35.679 E15.50802
G1 X-34.215 Y34.235 E15.61222
G1 X-35.698 Y32.685 E15.71925
G1 X-37.07 Y31.12 E15.82308
G1 X-38.407 Y29.455 E15.92961
G1 X-39.638 Y27.776 E16.03348
G1 X-40.826 Y25.999 E16.14012
G1 X-41.912 Y24.208 E16.24462
G1 X-42.931 Y22.352 E16.35026
G1 X-43.873 Y20.445 E16.45637
G1 X-44.721 Y18.516 E16.5615
G1 X-45.481 Y16.561 E16.66614
G1 X-46.162 Y14.552 E16.77197
G1 X-46.75 Y12.537 E16.8767
G1 X-47.257 Y10.463 E16.98322
G1 X-47.665 Y8.417 E17.0873
G1 X-47.988 Y6.317 E17.1933
G1 X-48.217 Y4.221 E17.29849
G1 X-48.355 Y2.113 E17.40389
G1 X-48.402 Y0.00 E17.50933
G1 X-48.355 Y-2.113 E17.61478
G1 X-48.217 Y-4.221 E17.72017
G1 X-47.987 Y-6.321 E17.82557
G1 X-47.667 Y-8.402 E17.93061
G1 X-47.256 Y-10.466 E18.0356
G1 X-46.747 Y-12.547 E18.14248
G1 X-46.163 Y-14.55 E18.24658
G1 X-45.482 Y-16.556 E18.35226
G1 X-44.721 Y-18.515 E18.45711
G1 X-43.865 Y-20.459 E18.56309
G1 X-42.936 Y-22.342 E18.66784
G1 X-41.921 Y-24.195 E18.77325
G1 X-40.812 Y-26.02 E18.87979
G1 X-39.653 Y-27.757 E18.98397
G1 X-38.402 Y-29.461 E19.08943
G1 X-37.068 Y-31.125 E19.19583
G1 X-35.689 Y-32.695 E19.30009
G1 X-34.226 Y-34.224 E19.40566
G1 X-32.698 Y-35.687 E19.5112
G1 X-31.119 Y-37.071 E19.61596
G1 X-29.455 Y-38.407 E19.72242
G1 X-27.776 Y-39.638 E19.82629
G1 X-26.002 Y-40.824 E19.93275
G1 X-24.204 Y-41.914 E20.03765
G1 X-22.354 Y-42.93 E20.14295
G1 X-20.445 Y-43.873 E20.24918
G1 X-18.516 Y-44.721 E20.3543
G1 X-16.561 Y-45.481 E20.45895
G1 X-14.552 Y-46.162 E20.56478
G1 X-12.537 Y-46.75 E20.6695
G1 X-10.463 Y-47.257 E20.77602
G1 X-8.417 Y-47.665 E20.88011
G1 X-6.317 Y-47.988 E20.98611
G1 X-4.221 Y-48.217 E21.0913
G1 X-2.113 Y-48.355 E21.19669
G1 X0.00 Y-48.402 E21.30214
G1 X2.113 Y-48.355 E21.40758
G1 X4.221 Y-48.217 E21.51298
G1 X6.321 Y-47.987 E21.61837
G1 X8.402 Y-47.667 E21.72341
G1 X10.466 Y-47.256 E21.82841
G1 X12.547 Y-46.747 E21.93529
G1 X14.55 Y-46.163 E22.03938
G1 X16.556 Y-45.482 E22.14507
G1 X18.515 Y-44.721 E22.24992
G1 X20.459 Y-43.865 E22.35589
G1 X22.344 Y-42.935 E22.46076
G1 X24.201 Y-41.918 E22.56639
G1 X26.013 Y-40.817 E22.67217
G1 X27.757 Y-39.652 E22.77681
G1 X29.461 Y-38.402 E22.88224
G1 X31.125 Y-37.068 E22.98864
G1 X32.695 Y-35.689 E23.09289
G1 X34.224 Y-34.226 E23.19847
G1 X35.687 Y-32.698 E23.30401
G1 X37.071 Y-31.119 E23.40876
G1 X38.404 Y-29.459 E23.51498
G1 X39.644 Y-27.768 E23.61959
G1 X40.821 Y-26.007 E23.72527
G1 X41.914 Y-24.204 E23.83046
G1 X42.93 Y-22.354 E23.93576
G1 X43.873 Y-20.445 E24.04198
G1 X44.721 Y-18.516 E24.14711
G1 X45.48 Y-16.562 E24.25169
G1 X46.157 Y-14.568 E24.35675
G1 X46.752 Y-12.529 E24.46272
G1 X47.259 Y-10.457 E24.56914
G1 X47.665 Y-8.415 E24.67301
G1 X47.988 Y-6.315 E24.77901
G1 X48.217 Y-4.226 E24.88386
G1 X48.355 Y-2.113 E24.9895
G1 X48.402 Y0.00 E25.09495
G1 X48.355 Y2.113 E25.20039
G1 X48.217 Y4.221 E25.30578
G1 X47.987 Y6.321 E25.41118
G1 X47.667 Y8.402 E25.51622
G1 X47.256 Y10.466 E25.62122
G1 X46.747 Y12.547 E25.7281
G1 X46.163 Y14.55 E25.83219
G1 X45.482 Y16.556 E25.93788
G1 X44.721 Y18.515 E26.04273
G1 X43.865 Y20.459 E26.1487
G1 X42.936 Y22.342 E26.25346
G1 X41.921 Y24.195 E26.35886
G1 X40.812 Y26.02 E26.4654
G1 X39.653 Y27.757 E26.56958
G1 X38.402 Y29.461 E26.67505
G1 X37.068 Y31.125 E26.78145
G1 X35.689 Y32.695 E26.8857
G1 X34.226 Y34.224 E26.99128
G1 X32.698 Y35.687 E27.09682
G1 X31.119 Y37.071 E27.20157
G1 X29.455 Y38.407 E27.30804
G1 X27.776 Y39.638 E27.4119
G1 X26.002 Y40.824 E27.51837
G1 X24.204 Y41.914 E27.62326
G1 X22.354 Y42.93 E27.72856
G1 X20.445 Y43.873 E27.83479
G1 X18.516 Y44.721 E27.93992
G1 X16.561 Y45.481 E28.04456
G1 X14.552 Y46.162 E28.15039
G1 X12.537 Y46.75 E28.25512
G1 X10.463 Y47.257 E28.36164
G1 X8.417 Y47.665 E28.46572
G1 X6.317 Y47.988 E28.57172
G1 X4.221 Y48.217 E28.67691
G1 X2.113 Y48.355 E28.78231
G1 X0.00 Y48.402 E28.88775
G1 X-2.113 Y48.355 E28.9932
G1 X-4.221 Y48.217 E29.09859
G1 X-6.321 Y47.987 E29.20399
G1 X-8.402 Y47.667 E29.30903
G1 X-10.466 Y47.256 E29.41402
G1 X-12.547 Y46.747 E29.5209
G1 X-14.55 Y46.163 E29.625
G1 X-16.556 Y45.482 E29.73068
G1 X-18.515 Y44.72 E29.83555
G1 X-20.46 Y43.865 E29.94155
G1 X-22.344 Y42.935 E30.04637
G1 X-24.201 Y41.918 E30.152
G1 X-26.013 Y40.817 E30.25778
G1 X-27.757 Y39.652 E30.36242
G1 X-29.461 Y38.402 E30.46785
G0 F3600 X-29.222 Y38.081
G1 F1800 X-30.846 Y36.779 E30.5717
G1 X-32.437 Y35.383 E30.6773
G1 X-33.943 Y33.94 E30.78136
G1 X-35.39 Y32.429 E30.88573
G1 X-36.763 Y30.863 E30.98964
G1 X-38.087 Y29.214 E31.09514
G1 X-39.327 Y27.523 E31.19976
G1 X-40.478 Y25.801 E31.30309
G1 X-41.578 Y23.987 E31.40893
G1 X-42.575 Y22.17 E31.51233
G1 X-43.502 Y20.294 E31.61673
G1 X-44.403 Y18.228 E31.72918
G1 X-45.105 Y16.422 E31.82585
G1 X-45.781 Y14.431 E31.93075
G1 X-46.367 Y12.422 E32.03515
G1 X-46.861 Y10.403 E32.13885
G1 X-47.274 Y8.325 E32.24455
G1 X-47.589 Y6.282 E32.34768
G1 X-47.82 Y4.173 E32.45353
G1 X-47.956 Y2.1 E32.55718
G1 X-48.001 Y0.00 E32.66197
G1 X-47.956 Y-2.101 E32.76681
G1 X-47.819 Y-4.184 E32.87096
G1 X-47.568 Y-6.417 E32.98306
G1 X-47.273 Y-8.332 E33.07973
G1 X-46.865 Y-10.384 E33.18411
G1 X-46.364 Y-12.431 E33.28925
G1 X-45.784 Y-14.422 E33.39271
G1 X-45.104 Y-16.424 E33.49819
G1 X-44.348 Y-18.369 E33.6023
G1 X-43.507 Y-20.28 E33.70647
G1 X-42.579 Y-22.161 E33.81111
G1 X-41.572 Y-24 E33.91571
G1 X-40.488 Y-25.785 E34.0199
G1 X-39.314 Y-27.542 E34.12533
G1 X-38.082 Y-29.221 E34.22922
G1 X-36.77 Y-30.858 E34.33389
G1 X-35.393 Y-32.426 E34.438
G1 X-33.942 Y-33.942 E34.54269
G1 X-32.428 Y-35.391 E34.64725
G1 X-30.863 Y-36.763 E34.75108
G1 X-29.214 Y-38.087 E34.85659
G1 X-27.523 Y-39.327 E34.9612
G1 X-25.795 Y-40.482 E35.0649
G1 X-24.003 Y-41.569 E35.16946
G1 X-22.161 Y-42.58 E35.27429
G1 X-20.294 Y-43.502 E35.37817
G1 X-18.228 Y-44.403 E35.49062
G1 X-16.422 Y-45.105 E35.58729
G1 X-14.431 Y-45.781 E35.69219
G1 X-12.422 Y-46.367 E35.7966
G1 X-10.403 Y-46.861 E35.9003
G1 X-8.325 Y-47.274 E36.006
G1 X-6.282 Y-47.589 E36.10913
G1 X-4.173 Y-47.82 E36.21498
G1 X-2.1 Y-47.956 E36.31862
G1 X0.00 Y-48.001 E36.42341
G1 X2.101 Y-47.956 E36.52826
G1 X4.184 Y-47.819 E36.6324
G1 X6.417 Y-47.568 E36.74451
G1 X8.332 Y-47.273 E36.84118
G1 X10.384 Y-46.865 E36.94556
G1 X12.431 Y-46.364 E37.0507
G1 X14.422 Y-45.784 E37.15416
G1 X16.424 Y-45.104 E37.25964
G1 X18.369 Y-44.348 E37.36375
G1 X20.28 Y-43.507 E37.46791
G1 X22.163 Y-42.578 E37.57267
G1 X24.007 Y-41.568 E37.67756
G1 X25.663 Y-40.562 E37.77423
G1 X27.533 Y-39.32 E37.88623
G1 X29.221 Y-38.082 E37.99066
G1 X30.858 Y-36.77 E38.09533
G1 X32.426 Y-35.393 E38.19944
G1 X33.942 Y-33.942 E38.30413
G1 X35.391 Y-32.428 E38.40868
G1 X36.763 Y-30.863 E38.51252
G1 X38.083 Y-29.219 E38.6177
G1 X39.321 Y-27.532 E38.7221
G1 X40.489 Y-25.784 E38.82699
G1 X41.569 Y-24.003 E38.9309
G1 X42.58 Y-22.161 E39.03573
G1 X43.502 Y-20.294 E39.13961
G1 X44.403 Y-18.228 E39.25206
G1 X45.105 Y-16.423 E39.34869
G1 X45.776 Y-14.447 E39.4528
G1 X46.369 Y-12.413 E39.5585
G1 X46.862 Y-10.398 E39.66199
G1 X47.275 Y-8.324 E39.7675
G1 X47.589 Y-6.28 E39.87067
G1 X47.819 Y-4.179 E39.97611
G1 X47.956 Y-2.101 E40.08001
G1 X48.001 Y0.00 E40.18485
G1 X47.956 Y2.101 E40.2897
G1 X47.819 Y4.184 E40.39384
G1 X47.568 Y6.417 E40.50595
G1 X47.273 Y8.332 E40.60262
G1 X46.865 Y10.384 E40.70699
G1 X46.364 Y12.431 E40.81213
G1 X45.784 Y14.422 E40.91559
G1 X45.104 Y16.424 E41.02108
G1 X44.348 Y18.369 E41.12519
G1 X43.507 Y20.28 E41.22935
G1 X42.579 Y22.161 E41.33399
G1 X41.572 Y24 E41.4386
G1 X40.488 Y25.785 E41.54279
G1 X39.314 Y27.542 E41.64821
G1 X38.082 Y29.221 E41.75211
G1 X36.77 Y30.858 E41.85677
G1 X35.393 Y32.426 E41.96088
G1 X33.942 Y33.942 E42.06558
G1 X32.428 Y35.391 E42.17013
G1 X30.863 Y36.763 E42.27396
G1 X29.214 Y38.087 E42.37947
G1 X27.523 Y39.327 E42.48409
G1 X25.795 Y40.482 E42.58778
G1 X24.003 Y41.569 E42.69235
G1 X22.161 Y42.58 E42.79718
G1 X20.294 Y43.502 E42.90106
G1 X18.228 Y44.403 E43.01351
G1 X16.422 Y45.105 E43.11018
G1 X14.431 Y45.781 E43.21508
G1 X12.422 Y46.367 E43.31948
G1 X10.403 Y46.861 E43.42318
G1 X8.325 Y47.274 E43.52888
G1 X6.282 Y47.589 E43.63201
G1 X4.173 Y47.82 E43.73786
G1 X2.1 Y47.956 E43.84151
G1 X0.00 Y48.001 E43.9463
G1 X-2.101 Y47.956 E44.05114
G1 X-4.184 Y47.819 E44.15529
G1 X-6.417 Y47.568 E44.26739
G1 X-8.332 Y47.273 E44.36406
G1 X-10.384 Y46.865 E44.46844
G1 X-12.431 Y46.364 E44.57358
G1 X-14.422 Y45.784 E44.67704
G1 X-16.424 Y45.104 E44.78252
G1 X-18.37 Y44.348 E44.88668
G1 X-20.282 Y43.506 E44.99091
G1 X-22.163 Y42.578 E45.09555
G1 X-24.007 Y41.568 E45.20045
G1 X-25.663 Y40.562 E45.29711
G1 X-27.534 Y39.32 E45.40915
G1 X-29.222 Y38.081 E45.51362
G0 F3600 X-28.979 Y37.764
G1 F1800 X-30.594 Y36.469 E45.6169
G1 X-32.154 Y35.099 E45.72048
G1 X-33.666 Y33.652 E45.82489
G1 X-35.191 Y32.05 E45.93524
G1 X-36.467 Y30.594 E46.03182
G1 X-37.767 Y28.975 E46.13541
G1 X-38.908 Y27.419 E46.23168
G1 X-40.142 Y25.585 E46.34196
G1 X-41.222 Y23.803 E46.44592
G1 X-42.224 Y21.978 E46.54979
G1 X-43.143 Y20.117 E46.65333
G1 X-44.03 Y18.083 E46.76404
G1 X-44.731 Y16.28 E46.86055
G1 X-45.438 Y14.178 E46.97119
G1 X-45.978 Y12.328 E47.06734
G1 X-46.474 Y10.3 E47.1715
G1 X-46.878 Y8.268 E47.27486
G1 X-47.21 Y6.071 E47.38572
G1 X-47.42 Y4.15 E47.48213
G1 X-47.547 Y2.22 E47.57862
G1 X-47.602 Y0.00 E47.68941
G1 X-47.547 Y-2.22 E47.8002
G1 X-47.42 Y-4.15 E47.8967
G1 X-47.21 Y-6.071 E47.99311
G1 X-46.88 Y-8.254 E48.10326
G1 X-46.474 Y-10.298 E48.20723
G1 X-45.978 Y-12.322 E48.31119
G1 X-45.395 Y-14.322 E48.41512
G1 X-44.729 Y-16.282 E48.5184
G1 X-43.976 Y-18.222 E48.62222
G1 X-43.2 Y-19.985 E48.71832
G1 X-42.226 Y-21.973 E48.82877
G1 X-41.223 Y-23.804 E48.93292
G1 X-40.068 Y-25.694 E49.04343
G1 X-38.993 Y-27.304 E49.14001
G1 X-37.848 Y-28.864 E49.23656
G1 X-36.468 Y-30.595 E49.347
G1 X-35.097 Y-32.156 E49.45065
G1 X-33.653 Y-33.665 E49.55485
G1 X-32.05 Y-35.191 E49.66527
G1 X-30.594 Y-36.467 E49.76186
G1 X-28.975 Y-37.767 E49.86545
G1 X-27.419 Y-38.908 E49.96171
G1 X-25.578 Y-40.146 E50.07239
G1 X-23.922 Y-41.15 E50.16901
G1 X-21.989 Y-42.219 E50.27921
G1 X-20.116 Y-43.143 E50.38341
G1 X-18.083 Y-44.03 E50.49407
G1 X-16.28 Y-44.731 E50.59058
G1 X-14.178 Y-45.438 E50.70122
G1 X-12.328 Y-45.978 E50.79737
G1 X-10.3 Y-46.474 E50.90153
G1 X-8.268 Y-46.878 E51.00489
G1 X-6.071 Y-47.21 E51.11575
G1 X-4.15 Y-47.42 E51.21216
G1 X-2.22 Y-47.547 E51.30865
G1 X0.00 Y-47.602 E51.41944
G1 X2.22 Y-47.547 E51.53023
G1 X4.15 Y-47.42 E51.62673
G1 X6.071 Y-47.21 E51.72314
G1 X8.254 Y-46.88 E51.83329
G1 X10.298 Y-46.474 E51.93725
G1 X12.322 Y-45.978 E52.04122
G1 X14.322 Y-45.395 E52.14515
G1 X16.282 Y-44.729 E52.24843
G1 X18.222 Y-43.976 E52.35225
G1 X19.985 Y-43.2 E52.44835
G1 X21.983 Y-42.221 E52.55935
G1 X23.795 Y-41.228 E52.66244
G1 X25.581 Y-40.144 E52.76667
G1 X27.305 Y-38.992 E52.87012
G1 X28.864 Y-37.848 E52.96659
G1 X30.595 Y-36.468 E53.07704
G1 X32.156 Y-35.097 E53.18069
G1 X33.665 Y-33.653 E53.28489
G1 X35.191 Y-32.05 E53.3953
G1 X36.467 Y-30.594 E53.49189
G1 X37.764 Y-28.979 E53.59523
G1 X38.992 Y-27.305 E53.69881
G1 X40.148 Y-25.575 E53.80261
G1 X41.15 Y-23.922 E53.89905
G1 X42.219 Y-21.989 E54.00925
G1 X43.143 Y-20.116 E54.11345
G1 X44.03 Y-18.083 E54.22411
G1 X44.731 Y-16.281 E54.32058
G1 X45.438 Y-14.179 E54.43122
G1 X45.939 Y-12.463 E54.5204
G1 X46.473 Y-10.303 E54.63141
G1 X46.878 Y-8.269 E54.73488
G1 X47.21 Y-6.072 E54.84573
G1 X47.42 Y-4.157 E54.94185
G1 X47.547 Y-2.219 E55.03874
G1 X47.602 Y0.00 E55.14948
G1 X47.547 Y2.22 E55.26027
G1 X47.42 Y4.15 E55.35677
