;FLAVOR:Marlin
;TIME:3468
;Filament used: 3.67551m
;Layer height: 0.2
;MINX:-45.952
;MINY:-45.952
;MINZ:0.3
;MAXX:45.952
;MAXY:45.952
;MAXZ:6.1
;Generated with Cura_SteamEngine 5.2.1
M140 S60
M105
M190 S60
M104 S200
M105
M109 S200
M82 ;absolute extrusion mode
G28 ;Home
G1 Z15.0 F6000 ;Move the platform down 15mm
;Prime the extruder
G92 E0
G1 F200 E3
G92 E0
M141 S28
G92 E0
G92 E0
G1 F1500 E-6.5
;LAYER_COUNT:30
;LAYER:0
M107
G0 F3600 X22.981 Y39.791 Z0.3
;TYPE:SKIRT
G1 F1500 E0
G1 F1800 X21.215 Y40.76 E0.1005
G1 X19.409 Y41.652 E0.20099
G1 X17.599 Y42.448 E0.29964
G1 X15.701 Y43.186 E0.40124
G1 X13.83 Y43.821 E0.49981
G1 X11.898 Y44.385 E0.60022
G1 X9.934 Y44.865 E0.70109
G1 X7.979 Y45.254 E0.80054
G1 X6 Y45.558 E0.90043
G1 X4.01 Y45.776 E1.0003
G1 X2.012 Y45.908 E1.1002
G1 X0.00 Y45.952 E1.2006
G1 X-2.012 Y45.908 E1.30101
G1 X-4.009 Y45.776 E1.40086
G1 X-5.984 Y45.56 E1.49998
G1 X-7.984 Y45.252 E1.60093
G1 X-9.937 Y44.864 E1.70027
G1 X-11.906 Y44.382 E1.80141
G1 X-13.827 Y43.822 E1.90124
G1 X-15.715 Y43.181 E2.00071
G1 X-17.578 Y42.457 E2.10043
G1 X-19.415 Y41.649 E2.20055
G1 X-21.205 Y40.766 E2.30013
G1 X-22.989 Y39.789 E2.4016
G1 X-24.686 Y38.757 E2.50069
G1 X-26.35 Y37.647 E2.60049
G1 X-27.988 Y36.444 E2.70188
G1 X-29.532 Y35.207 E2.80058
G1 X-31.042 Y33.881 E2.90084
G1 X-32.493 Y32.492 E3.00105
G1 X-33.891 Y31.032 E3.1019
G1 X-35.199 Y29.539 E3.20093
G1 X-36.452 Y27.978 E3.30079
G1 X-37.638 Y26.362 E3.4008
G1 X-38.752 Y24.693 E3.50091
G1 X-39.794 Y22.977 E3.60107
G1 X-40.762 Y21.213 E3.70145
G1 X-41.653 Y19.407 E3.80192
G1 X-42.448 Y17.599 E3.90046
G1 X-43.186 Y15.701 E4.00206
G1 X-43.821 Y13.83 E4.10063
G1 X-44.385 Y11.898 E4.20104
G1 X-44.865 Y9.934 E4.30191
G1 X-45.254 Y7.979 E4.40136
G1 X-45.558 Y6 E4.50125
G1 X-45.776 Y4.01 E4.60112
G1 X-45.908 Y2.012 E4.70102
G1 X-45.952 Y0.00 E4.80143
G1 X-45.908 Y-2.012 E4.90183
G1 X-45.776 Y-4.009 E5.00168
G1 X-45.56 Y-5.984 E5.1008
G1 X-45.252 Y-7.984 E5.20175
G1 X-44.864 Y-9.937 E5.30109
G1 X-44.382 Y-11.906 E5.40223
G1 X-43.822 Y-13.827 E5.50206
G1 X-43.181 Y-15.715 E5.60153
G1 X-42.457 Y-17.579 E5.70129
G1 X-41.649 Y-19.414 E5.80132
G1 X-40.762 Y-21.212 E5.90135
G1 X-39.793 Y-22.983 E6.00207
G1 X-38.759 Y-24.683 E6.10134
G1 X-37.647 Y-26.35 E6.20131
G1 X-36.453 Y-27.976 E6.30195
G1 X-35.199 Y-29.542 E6.40204
G1 X-33.881 Y-31.042 E6.50166
G1 X-32.493 Y-32.492 E6.6018
G1 X-31.032 Y-33.891 E6.70272
G1 X-29.539 Y-35.199 E6.80175
G1 X-27.978 Y-36.452 E6.90161
G1 X-26.362 Y-37.638 E7.00162
G1 X-24.686 Y-38.757 E7.10216
G1 X-22.981 Y-39.791 E7.20164
G1 X-21.215 Y-40.76 E7.30214
G1 X-19.409 Y-41.652 E7.40263
G1 X-17.599 Y-42.448 E7.50128
G1 X-15.701 Y-43.186 E7.60288
G1 X-13.83 Y-43.821 E7.70145
G1 X-11.898 Y-44.385 E7.80186
G1 X-9.934 Y-44.865 E7.90273
G1 X-7.979 Y-45.254 E8.00218
G1 X-6 Y-45.558 E8.10207
G1 X-4.01 Y-45.776 E8.20194
G1 X-2.012 Y-45.908 E8.30184
G1 X0.00 Y-45.952 E8.40225
G1 X2.012 Y-45.908 E8.50265
G1 X4.009 Y-45.776 E8.6025
G1 X5.984 Y-45.56 E8.70162
G1 X7.984 Y-45.252 E8.80257
G1 X9.937 Y-44.864 E8.90191
G1 X11.906 Y-44.382 E9.00305
G1 X13.827 Y-43.822 E9.10288
G1 X15.715 Y-43.181 E9.20235
G1 X17.578 Y-42.457 E9.30207
G1 X19.412 Y-41.65 E9.40203
G1 X21.205 Y-40.766 E9.50177
G1 X22.989 Y-39.789 E9.60324
G1 X24.686 Y-38.757 E9.70233
G1 X26.35 Y-37.647 E9.80213
G1 X27.976 Y-36.453 E9.90277
G1 X29.542 Y-35.199 E10.00286
G1 X31.042 Y-33.881 E10.10248
G1 X32.492 Y-32.493 E10.20262
G1 X33.891 Y-31.032 E10.30354
G1 X35.2 Y-29.538 E10.40264
G1 X36.449 Y-27.982 E10.50218
G1 X37.643 Y-26.355 E10.60287
G1 X38.754 Y-24.691 E10.70269
G1 X39.792 Y-22.981 E10.80249
G1 X40.76 Y-21.215 E10.90296
G1 X41.652 Y-19.409 E11.00345
G1 X42.448 Y-17.599 E11.1021
G1 X43.186 Y-15.701 E11.2037
G1 X43.823 Y-13.824 E11.30259
G1 X44.382 Y-11.91 E11.40207
G1 X44.866 Y-9.928 E11.50386
G1 X45.254 Y-7.98 E11.60295
G1 X45.559 Y-5.996 E11.7031
G1 X45.775 Y-4.016 E11.80247
G1 X45.908 Y-2.012 E11.90267
G1 X45.952 Y0.00 E12.00307
G1 X45.908 Y2.012 E12.10347
G1 X45.776 Y4.009 E12.20332
G1 X45.56 Y5.984 E12.30244
G1 X45.252 Y7.984 E12.4034
G1 X44.864 Y9.937 E12.50274
G1 X44.382 Y11.906 E12.60387
G1 X43.822 Y13.827 E12.7037
G1 X43.181 Y15.715 E12.80317
G1 X42.457 Y17.579 E12.90294
G1 X41.649 Y19.414 E13.00297
G1 X40.762 Y21.212 E13.10299
G1 X39.793 Y22.983 E13.20371
G1 X38.759 Y24.683 E13.30298
G1 X37.647 Y26.35 E13.40295
G1 X36.453 Y27.976 E13.50359
G1 X35.199 Y29.542 E13.60368
G1 X33.881 Y31.042 E13.7033
G1 X32.493 Y32.492 E13.80345
G1 X31.032 Y33.891 E13.90436
G1 X29.539 Y35.199 E14.00339
G1 X27.978 Y36.452 E14.10326
G1 X26.362 Y37.638 E14.20326
G1 X24.686 Y38.757 E14.3038
G1 X22.981 Y39.791 E14.40328
G0 F3600 X22.77 Y39.451
G1 F1800 X21.034 Y40.404 E14.50209
G1 X19.259 Y41.281 E14.60086
G1 X17.414 Y42.092 E14.70141
G1 X15.587 Y42.802 E14.7992
G1 X13.702 Y43.442 E14.89851
G1 X11.781 Y44.002 E14.99834
G1 X9.875 Y44.468 E15.09623
G1 X7.907 Y44.86 E15.19635
G1 X5.942 Y45.162 E15.29553
G1 X3.965 Y45.378 E15.39475
G1 X1.999 Y45.508 E15.49305
G1 X0.00 Y45.551 E15.5928
G1 X-1.999 Y45.508 E15.69256
G1 X-3.965 Y45.378 E15.79086
G1 X-5.945 Y45.161 E15.89023
G1 X-7.915 Y44.859 E15.98966
G1 X-9.857 Y44.472 E16.08845
G1 X-11.791 Y43.999 E16.18778
G1 X-13.7 Y43.443 E16.28698
G1 X-15.582 Y42.803 E16.38616
G1 X-17.432 Y42.084 E16.48518
G1 X-19.239 Y41.289 E16.58367
G1 X-21.042 Y40.399 E16.68398
G1 X-22.777 Y39.45 E16.78265
G1 X-24.342 Y38.498 E16.87403
G1 X-26.127 Y37.315 E16.98087
G1 X-27.852 Y36.041 E17.08786
G1 X-29.279 Y34.897 E17.17911
G1 X-30.772 Y33.586 E17.27823
G1 X-32.211 Y32.209 E17.3776
G1 X-33.584 Y30.774 E17.47668
G1 X-34.892 Y29.283 E17.57564
G1 X-36.132 Y27.737 E17.67451
G1 X-37.315 Y26.124 E17.77431
G1 X-38.42 Y24.469 E17.87359
G1 X-39.454 Y22.767 E17.97294
G1 X-40.401 Y21.041 E18.07116
G1 X-41.281 Y19.259 E18.17032
G1 X-42.092 Y17.414 E18.27086
G1 X-42.802 Y15.587 E18.36865
G1 X-43.442 Y13.702 E18.46797
G1 X-44.002 Y11.781 E18.5678
G1 X-44.468 Y9.875 E18.66569
G1 X-44.86 Y7.907 E18.7658
G1 X-45.162 Y5.942 E18.86499
G1 X-45.378 Y3.965 E18.96421
G1 X-45.508 Y1.999 E19.06251
G1 X-45.551 Y0.00 E19.16226
G1 X-45.508 Y-1.999 E19.26201
G1 X-45.378 Y-3.965 E19.36031
G1 X-45.161 Y-5.945 E19.45969
G1 X-44.859 Y-7.915 E19.55912
G1 X-44.472 Y-9.857 E19.65791
G1 X-43.999 Y-11.791 E19.75724
G1 X-43.443 Y-13.7 E19.85644
G1 X-42.803 Y-15.582 E19.95561
G1 X-42.088 Y-17.424 E20.05419
G1 X-41.286 Y-19.244 E20.15342
G1 X-40.405 Y-21.031 E20.25281
G1 X-39.448 Y-22.78 E20.35228
G1 X-38.42 Y-24.469 E20.45093
G1 X-37.315 Y-26.126 E20.55029
G1 X-36.136 Y-27.733 E20.64973
G1 X-34.899 Y-29.277 E20.74843
G1 X-33.574 Y-30.784 E20.84854
G1 X-32.211 Y-32.21 E20.94696
G1 X-30.774 Y-33.584 E21.04615
G1 X-29.283 Y-34.892 E21.1451
G1 X-27.737 Y-36.132 E21.24398
G1 X-26.125 Y-37.315 E21.34373
G1 X-24.471 Y-38.419 E21.44294
G1 X-22.77 Y-39.451 E21.5422
G1 X-21.034 Y-40.404 E21.64101
G1 X-19.259 Y-41.281 E21.73978
G1 X-17.414 Y-42.092 E21.84033
G1 X-15.587 Y-42.802 E21.93812
G1 X-13.702 Y-43.442 E22.03743
G1 X-11.781 Y-44.002 E22.13726
G1 X-9.875 Y-44.468 E22.23515
G1 X-7.907 Y-44.86 E22.33527
G1 X-5.942 Y-45.162 E22.43445
G1 X-3.965 Y-45.378 E22.53367
G1 X-1.999 Y-45.508 E22.63197
G1 X0.00 Y-45.551 E22.73172
G1 X1.999 Y-45.508 E22.83148
G1 X3.965 Y-45.378 E22.92977
G1 X5.945 Y-45.161 E23.02915
G1 X7.915 Y-44.859 E23.12858
G1 X9.857 Y-44.472 E23.22737
G1 X11.791 Y-43.999 E23.3267
G1 X13.7 Y-43.443 E23.4259
G1 X15.582 Y-42.803 E23.52508
G1 X17.424 Y-42.088 E23.62365
G1 X19.245 Y-41.286 E23.72292
G1 X21.042 Y-40.399 E23.8229
G1 X22.777 Y-39.45 E23.92157
G1 X24.342 Y-38.498 E24.01296
G1 X26.118 Y-37.321 E24.11925
G1 X27.733 Y-36.136 E24.21919
G1 X29.277 Y-34.899 E24.31789
G1 X30.784 Y-33.574 E24.418
G1 X32.21 Y-32.211 E24.51642
G1 X33.584 Y-30.774 E24.61561
G1 X34.891 Y-29.283 E24.71453
G1 X36.137 Y-27.732 E24.81379
G1 X37.314 Y-26.127 E24.91308
G1 X38.415 Y-24.477 E25.01205
G1 X39.451 Y-22.77 E25.11167
G1 X40.404 Y-21.033 E25.21051
G1 X41.28 Y-19.26 E25.30917
G1 X42.092 Y-17.414 E25.40979
G1 X42.802 Y-15.587 E25.50758
G1 X43.444 Y-13.696 E25.60721
G1 X43.999 Y-11.794 E25.70606
G1 X44.469 Y-9.869 E25.80492
G1 X44.86 Y-7.908 E25.90468
G1 X45.162 Y-5.943 E26.00386
G1 X45.378 Y-3.967 E26.10303
G1 X45.508 Y-1.998 E26.20148
G1 X45.551 Y0.00 E26.30118
G1 X45.508 Y1.999 E26.40094
G1 X45.378 Y3.965 E26.49924
G1 X45.161 Y5.945 E26.59861
G1 X44.859 Y7.915 E26.69804
G1 X44.472 Y9.857 E26.79683
G1 X43.999 Y11.791 E26.89616
G1 X43.443 Y13.7 E26.99536
G1 X42.803 Y15.582 E27.09454
G1 X42.088 Y17.424 E27.19311
G1 X41.286 Y19.244 E27.29234
G1 X40.405 Y21.031 E27.39174
G1 X39.448 Y22.78 E27.49121
G1 X38.42 Y24.469 E27.58985
G1 X37.315 Y26.126 E27.68921
G1 X36.136 Y27.733 E27.78865
G1 X34.899 Y29.277 E27.88735
G1 X33.574 Y30.784 E27.98747
G1 X32.211 Y32.21 E28.08588
G1 X30.774 Y33.584 E28.18507
G1 X29.283 Y34.892 E28.28403
G1 X27.737 Y36.132 E28.3829
G1 X26.125 Y37.315 E28.48266
G1 X24.471 Y38.419 E28.58187
G1 X22.77 Y39.451 E28.68113
G0 F3600 X22.575 Y39.102
G1 F1800 X20.852 Y40.047 E28.77917
G1 X19.082 Y40.922 E28.87768
G1 X17.268 Y41.719 E28.97653
G1 X15.448 Y42.427 E29.07396
G1 X13.58 Y43.061 E29.17237
G1 X11.687 Y43.613 E29.27075
G1 X9.771 Y44.081 E29.36915
G1 X7.837 Y44.466 E29.46753
G1 X5.885 Y44.766 E29.56606
G1 X3.94 Y44.979 E29.66367
G1 X1.987 Y45.108 E29.76132
G1 X0.00 Y45.151 E29.86048
G1 X-1.987 Y45.108 E29.95963
G1 X-3.939 Y44.979 E30.05723
G1 X-5.889 Y44.766 E30.15509
G1 X-7.823 Y44.468 E30.25272
G1 X-9.775 Y44.08 E30.35201
G1 X-11.697 Y43.609 E30.45074
G1 X-13.57 Y43.064 E30.54806
G1 X-15.448 Y42.426 E30.64701
G1 X-17.287 Y41.712 E30.74543
G1 X-19.08 Y40.922 E30.84318
G1 X-20.843 Y40.052 E30.94126
G1 X-22.582 Y39.1 E31.04017
G1 X-24.381 Y37.999 E31.1454
G1 X-25.901 Y36.985 E31.23656
G1 X-27.367 Y35.909 E31.32728
G1 X-29.029 Y34.584 E31.43333
G1 X-30.502 Y33.29 E31.53114
G1 X-31.928 Y31.926 E31.62959
G1 X-33.288 Y30.504 E31.72776
G1 X-34.593 Y29.016 E31.8265
G1 X-35.823 Y27.483 E31.92456
G1 X-36.986 Y25.899 E32.0226
G1 X-37.997 Y24.384 E32.11347
G1 X-39.105 Y22.571 E32.21947
G1 X-40.044 Y20.86 E32.31684
G1 X-40.923 Y19.08 E32.41589
G1 X-41.719 Y17.268 E32.51463
G1 X-42.427 Y15.448 E32.61205
G1 X-43.061 Y13.58 E32.71047
G1 X-43.613 Y11.687 E32.80885
G1 X-44.081 Y9.771 E32.90725
G1 X-44.466 Y7.837 E33.00563
G1 X-44.766 Y5.885 E33.10416
G1 X-44.979 Y3.94 E33.20177
G1 X-45.108 Y1.987 E33.29942
G1 X-45.151 Y0.00 E33.39858
G1 X-45.108 Y-1.987 E33.49773
G1 X-44.979 Y-3.939 E33.59533
G1 X-44.766 Y-5.889 E33.69319
G1 X-44.468 Y-7.823 E33.79082
G1 X-44.08 Y-9.775 E33.89011
G1 X-43.609 Y-11.697 E33.98884
G1 X-43.064 Y-13.57 E34.08616
G1 X-42.426 Y-15.448 E34.18511
G1 X-41.715 Y-17.278 E34.28306
G1 X-40.92 Y-19.084 E34.3815
G1 X-40.049 Y-20.851 E34.47979
G1 X-39.108 Y-22.569 E34.57751
G1 X-37.999 Y-24.381 E34.6835
G1 X-36.985 Y-25.901 E34.77466
G1 X-35.909 Y-27.367 E34.86538
G1 X-34.597 Y-29.015 E34.97048
G1 X-33.29 Y-30.502 E35.06925
G1 X-31.928 Y-31.926 E35.16756
G1 X-30.505 Y-33.288 E35.26583
G1 X-29.016 Y-34.593 E35.36461
G1 X-27.483 Y-35.823 E35.46266
G1 X-25.9 Y-36.985 E35.56063
G1 X-24.265 Y-38.077 E35.65872
G1 X-22.575 Y-39.102 E35.75733
G1 X-20.852 Y-40.047 E35.85537
G1 X-19.082 Y-40.922 E35.95388
G1 X-17.268 Y-41.719 E36.05273
G1 X-15.448 Y-42.427 E36.15016
G1 X-13.58 Y-43.061 E36.24858
G1 X-11.687 Y-43.613 E36.34695
G1 X-9.771 Y-44.081 E36.44535
G1 X-7.837 Y-44.466 E36.54373
G1 X-5.885 Y-44.766 E36.64226
G1 X-3.94 Y-44.979 E36.73988
G1 X-1.987 Y-45.108 E36.83753
G1 X0.00 Y-45.151 E36.93668
G1 X1.987 Y-45.108 E37.03584
G1 X3.939 Y-44.979 E37.13344
G1 X5.889 Y-44.766 E37.2313
G1 X7.823 Y-44.468 E37.32893
G1 X9.775 Y-44.08 E37.42822
G1 X11.697 Y-43.609 E37.52694
G1 X13.57 Y-43.064 E37.62426
G1 X15.448 Y-42.426 E37.72322
G1 X17.279 Y-41.715 E37.82121
G1 X19.086 Y-40.919 E37.91972
G1 X20.843 Y-40.052 E38.01747
G1 X22.582 Y-39.1 E38.11638
G1 X24.381 Y-37.999 E38.22161
G1 X25.901 Y-36.985 E38.31276
G1 X27.367 Y-35.909 E38.40349
G1 X29.015 Y-34.597 E38.50858
G1 X30.502 Y-33.29 E38.60735
G1 X31.926 Y-31.928 E38.70566
G1 X33.288 Y-30.505 E38.80393
G1 X34.593 Y-29.016 E38.90271
G1 X35.82 Y-27.488 E39.00048
G1 X36.98 Y-25.906 E39.09835
G1 X38.084 Y-24.253 E39.19752
G1 X39.102 Y-22.575 E39.29544
G1 X40.047 Y-20.852 E39.39348
G1 X40.922 Y-19.082 E39.49198
G1 X41.719 Y-17.268 E39.59084
G1 X42.427 Y-15.448 E39.68826
G1 X43.063 Y-13.574 E39.787
G1 X43.61 Y-11.699 E39.88444
G1 X44.082 Y-9.765 E39.98376
G1 X44.466 Y-7.838 E40.08179
G1 X44.765 Y-5.895 E40.17987
G1 X44.989 Y-3.788 E40.28558
G1 X45.108 Y-1.985 E40.37572
G1 X45.151 Y0.00 E40.47478
G1 X45.108 Y1.987 E40.57393
G1 X44.979 Y3.939 E40.67153
G1 X44.766 Y5.889 E40.7694
G1 X44.468 Y7.823 E40.86702
G1 X44.08 Y9.775 E40.96631
G1 X43.609 Y11.697 E41.06504
G1 X43.064 Y13.57 E41.16236
G1 X42.426 Y15.448 E41.26131
G1 X41.715 Y17.278 E41.35926
G1 X40.92 Y19.084 E41.45771
G1 X40.049 Y20.851 E41.55599
G1 X39.108 Y22.569 E41.65372
G1 X37.999 Y24.381 E41.75971
G1 X36.985 Y25.901 E41.85086
G1 X35.909 Y27.367 E41.94159
G1 X34.597 Y29.015 E42.04668
G1 X33.29 Y30.502 E42.14545
G1 X31.928 Y31.926 E42.24376
G1 X30.505 Y33.288 E42.34203
G1 X29.016 Y34.593 E42.44081
G1 X27.483 Y35.823 E42.53887
G1 X25.9 Y36.985 E42.63684
G1 X24.265 Y38.077 E42.73493
G1 X22.575 Y39.102 E42.83354
G0 F3600 X22.38 Y38.752
G1 F1800 X20.79 Y39.625 E42.92403
G1 X18.913 Y40.559 E43.02863
G1 X17.123 Y41.346 E43.12618
G1 X15.315 Y42.05 E43.22298
G1 X13.452 Y42.682 E43.32113
G1 X11.583 Y43.226 E43.41825
G1 X9.547 Y43.718 E43.52275
G1 X7.78 Y44.07 E43.61263
G1 X5.697 Y44.384 E43.71773
G1 X3.76 Y44.59 E43.81491
G1 X2.1 Y44.7 E43.89791
G1 X0.00 Y44.752 E44.00271
G1 X-2.1 Y44.7 E44.10751
G1 X-3.76 Y44.59 E44.19051
G1 X-5.697 Y44.384 E44.2877
G1 X-7.766 Y44.072 E44.39209
G1 X-9.693 Y43.689 E44.4901
G1 X-11.582 Y43.226 E44.58714
G1 X-13.45 Y42.682 E44.6842
G1 X-15.308 Y42.051 E44.7821
G1 X-17.121 Y41.347 E44.87913
G1 X-18.92 Y40.555 E44.97719
G1 X-20.662 Y39.695 E45.07412
G1 X-22.377 Y38.756 E45.17166
G1 X-24.159 Y37.666 E45.27588
G1 X-25.664 Y36.662 E45.36614
G1 X-27.13 Y35.586 E45.45687
G1 X-28.774 Y34.276 E45.56174
G1 X-30.129 Y33.086 E45.65171
G1 X-31.639 Y31.65 E45.75567
G1 X-32.896 Y30.336 E45.84639
G1 X-34.289 Y28.757 E45.95144
G1 X-35.413 Y27.356 E46.04105
G1 X-36.658 Y25.669 E46.14566
G1 X-37.745 Y24.041 E46.24332
G1 X-38.751 Y22.383 E46.34007
G1 X-39.626 Y20.788 E46.43083
G1 X-40.559 Y18.913 E46.53532
G1 X-41.346 Y17.123 E46.63287
G1 X-42.05 Y15.315 E46.72967
G1 X-42.682 Y13.452 E46.82782
G1 X-43.226 Y11.583 E46.92493
G1 X-43.718 Y9.547 E47.02943
G1 X-44.07 Y7.78 E47.11932
G1 X-44.384 Y5.697 E47.22442
G1 X-44.59 Y3.76 E47.3216
G1 X-44.7 Y2.1 E47.4046
G1 X-44.752 Y0.00 E47.5094
G1 X-44.7 Y-2.1 E47.6142
G1 X-44.59 Y-3.76 E47.6972
G1 X-44.384 Y-5.697 E47.79438
G1 X-44.072 Y-7.766 E47.89877
G1 X-43.689 Y-9.693 E47.99679
G1 X-43.226 Y-11.582 E48.09383
G1 X-42.682 Y-13.45 E48.19089
G1 X-42.051 Y-15.308 E48.28879
G1 X-41.342 Y-17.133 E48.38647
G1 X-40.561 Y-18.906 E48.48312
G1 X-39.697 Y-20.66 E48.58067
G1 X-38.754 Y-22.381 E48.67858
G1 X-37.814 Y-23.927 E48.76885
G1 X-36.663 Y-25.664 E48.8728
G1 X-35.417 Y-27.351 E48.97744
G1 X-34.286 Y-28.762 E49.06765
G1 X-32.896 Y-30.336 E49.17242
G1 X-31.644 Y-31.644 E49.26275
G1 X-30.336 Y-32.896 E49.35308
G1 X-28.757 Y-34.289 E49.45813
G1 X-27.356 Y-35.413 E49.54774
G1 X-25.669 Y-36.658 E49.65235
G1 X-24.162 Y-37.664 E49.74275
G1 X-22.38 Y-38.752 E49.84691
G1 X-20.79 Y-39.625 E49.93741
G1 X-18.913 Y-40.559 E50.042
G1 X-17.123 Y-41.346 E50.13956
G1 X-15.315 Y-42.05 E50.23636
G1 X-13.452 Y-42.682 E50.3345
G1 X-11.583 Y-43.226 E50.43162
G1 X-9.547 Y-43.718 E50.53612
G1 X-7.78 Y-44.07 E50.62601
G1 X-5.697 Y-44.384 E50.7311
G1 X-3.76 Y-44.59 E50.82828
G1 X-2.1 Y-44.7 E50.91128
G1 X0.00 Y-44.752 E51.01608
G1 X2.1 Y-44.7 E51.12089
G1 X3.76 Y-44.59 E51.20389
G1 X5.697 Y-44.384 E51.30107
G1 X7.766 Y-44.072 E51.40546
G1 X9.693 Y-43.689 E51.50348
G1 X11.582 Y-43.226 E51.60051
G1 X13.45 Y-42.682 E51.69757
G1 X15.308 Y-42.051 E51.79547
G1 X17.132 Y-41.342 E51.8931
G1 X18.907 Y-40.561 E51.98985
G1 X20.662 Y-39.695 E52.08749
G1 X22.377 Y-38.756 E52.18504
G1 X24.159 Y-37.666 E52.28925
