;FLAVOR:Marlin
;TIME:5996
;Filament used: 6.25843m
;Layer height: 0.2
;MINX:-47.6
;MINY:-47.587
;MINZ:0.3
;MAXX:47.6
;MAXY:47.588
;MAXZ:25.7
;Generated with Cura_SteamEngine 5.2.1
M140 S60
M105
M190 S60
M104 S200
M105
M109 S200
M82 ;absolute extrusion mode
G28 ;Home
G1 Z15.0 F6000 ;Move the platform down 15mm
;Prime the extruder
G92 E0
G1 F200 E3
G92 E0
M141 S28
G92 E0
G92 E0
G1 F1500 E-6.5
;LAYER_COUNT:128
;LAYER:0
M107
G0 F3600 X46.778 Y8.441 Z0.3
;TYPE:SKIRT
G1 F1500 E0
G1 F1800 X46.754 Y8.784 E0.01715
G1 X46.661 Y9.363 E0.04641
G1 X46.473 Y10.307 E0.09443
G1 X45.908 Y12.613 E0.21288
G1 X45.682 Y13.37 E0.2523
G1 X45.488 Y13.838 E0.27757
G1 X45.459 Y14.008 E0.28617
G1 X45.25 Y14.759 E0.32507
G1 X44.844 Y15.982 E0.38936
G1 X44.347 Y17.292 E0.45926
G1 X44.033 Y18.075 E0.50135
G1 X43.701 Y18.791 E0.54072
G1 X43.548 Y19.13 E0.55928
G1 X43.226 Y19.927 E0.60216
G1 X42.78 Y20.87 E0.6542
G1 X42.108 Y22.21 E0.72899
G1 X41.596 Y23.129 E0.78148
G1 X41.177 Y23.798 E0.82086
G1 X41.069 Y23.937 E0.82964
G1 X40.932 Y24.244 E0.84641
G1 X40.641 Y24.765 E0.87619
G1 X40.053 Y25.718 E0.93205
G1 X38.827 Y27.553 E1.04215
G1 X38.355 Y28.187 E1.08159
G1 X38.014 Y28.559 E1.10677
G1 X37.947 Y28.678 E1.11358
G1 X37.475 Y29.343 E1.15426
G1 X36.951 Y30.005 E1.19638
G1 X36.503 Y30.55 E1.23158
G1 X35.645 Y31.547 E1.29721
G1 X35.189 Y32.053 E1.33119
G1 X34.632 Y32.612 E1.37056
G1 X34.37 Y32.881 E1.38929
G1 X33.805 Y33.507 E1.43136
G1 X33.062 Y34.243 E1.48354
G1 X31.958 Y35.286 E1.55931
G1 X31.184 Y35.956 E1.61038
G1 X30.561 Y36.442 E1.6498
G1 X30.406 Y36.539 E1.65893
G1 X30.188 Y36.766 E1.67463
G1 X29.725 Y37.167 E1.70519
G1 X28.979 Y37.765 E1.75289
G1 X27.055 Y39.173 E1.87183
G1 X26.395 Y39.607 E1.91124
G1 X25.961 Y39.833 E1.93565
G1 X25.849 Y39.929 E1.94301
G1 X25.169 Y40.397 E1.9842
G1 X24.325 Y40.914 E2.03358
G1 X23.713 Y41.272 E2.06895
G1 X22.717 Y41.829 E2.12588
G1 X22.115 Y42.15 E2.15992
G1 X21.4 Y42.485 E2.19931
G1 X21.059 Y42.65 E2.21821
G1 X20.3 Y43.052 E2.26106
G1 X19.345 Y43.491 E2.3135
G1 X18.104 Y44.025 E2.3809
G1 X17.016 Y44.449 E2.43916
G1 X16.265 Y44.693 E2.47855
G1 X16.091 Y44.731 E2.48744
G1 X15.88 Y44.837 E2.49922
G1 X15.226 Y45.091 E2.53422
G1 X14.156 Y45.445 E2.59045
G1 X12.038 Y46.064 E2.70054
G1 X11.27 Y46.247 E2.73993
G1 X10.752 Y46.316 E2.766
G1 X10.634 Y46.36 E2.77228
G1 X9.855 Y46.564 E2.81246
G1 X8.85 Y46.77 E2.86364
G1 X8.175 Y46.892 E2.89786
G1 X7.207 Y47.051 E2.9468
G1 X6.371 Y47.172 E2.98894
G1 X5.585 Y47.244 E3.02832
G1 X5.193 Y47.28 E3.04796
G1 X4.373 Y47.396 E3.08928
G1 X3.532 Y47.469 E3.13139
G1 X1.946 Y47.562 E3.21066
G1 X0.786 Y47.588 E3.26854
G1 X-0.003 Y47.561 E3.30793
G1 X-.4 Y47.563 E3.32774
G1 X-1.11 Y47.579 E3.36317
G1 X-2.241 Y47.546 E3.41962
G1 X-4.443 Y47.403 E3.52971
G1 X-5.228 Y47.312 E3.56913
G1 X-5.728 Y47.202 E3.59467
G1 X-5.832 Y47.203 E3.59986
G1 X-6.683 Y47.125 E3.6425
G1 X-7.664 Y46.978 E3.69199
G1 X-8.201 Y46.888 E3.71915
G1 X-9.501 Y46.642 E3.78516
G1 X-10.167 Y46.5 E3.81913
G1 X-10.93 Y46.296 E3.85854
G1 X-11.285 Y46.208 E3.87678
G1 X-12.134 Y46.027 E3.92009
G1 X-12.947 Y45.805 E3.96214
G1 X-14.398 Y45.373 E4.03767
G1 X-15.558 Y44.978 E4.0988
G1 X-16.29 Y44.682 E4.1382
G1 X-16.642 Y44.558 E4.15682
G1 X-17.311 Y44.331 E4.19206
G1 X-18.065 Y44.037 E4.23244
G1 X-19.221 Y43.542 E4.29518
G1 X-20.439 Y42.997 E4.36175
G1 X-21.142 Y42.638 E4.40113
G1 X-21.513 Y42.399 E4.42315
G1 X-21.678 Y42.34 E4.43189
G1 X-22.391 Y42 E4.4713
G1 X-23.135 Y41.598 E4.51349
G1 X-23.894 Y41.168 E4.55701
G1 X-24.736 Y40.666 E4.60592
G1 X-25.435 Y40.233 E4.64694
G1 X-26.084 Y39.783 E4.68634
G1 X-26.417 Y39.554 E4.7065
G1 X-27.123 Y39.112 E4.74806
G1 X-27.987 Y38.502 E4.80082
G1 X-28.888 Y37.831 E4.85687
G1 X-29.94 Y36.996 E4.92388
G1 X-30.532 Y36.473 E4.96329
G1 X-30.692 Y36.299 E4.97508
G1 X-30.911 Y36.155 E4.98816
G1 X-31.442 Y35.727 E5.02218
G1 X-32.284 Y34.977 E5.07844
G1 X-33.539 Y33.775 E5.16514
G1 X-34.101 Y33.201 E5.20521
G1 X-34.619 Y32.605 E5.24461
G1 X-34.826 Y32.395 E5.25932
G1 X-35.404 Y31.811 E5.30031
G1 X-35.965 Y31.18 E5.34244
G1 X-36.53 Y30.517 E5.3859
G1 X-37.15 Y29.758 E5.43479
G1 X-37.664 Y29.105 E5.47625
G1 X-38.12 Y28.46 E5.51566
G1 X-38.35 Y28.138 E5.5354
G1 X-38.868 Y27.473 E5.57746
G1 X-39.466 Y26.611 E5.6298
G1 X-40.207 Y25.485 E5.69705
G1 X-40.821 Y24.473 E5.7561
G1 X-41.192 Y23.776 E5.79549
G1 X-41.363 Y23.477 E5.81268
G1 X-41.762 Y22.824 E5.85086
G1 X-42.299 Y21.827 E5.90735
G1 X-43.275 Y19.848 E6.01744
G1 X-43.588 Y19.123 E6.05684
G1 X-43.745 Y18.626 E6.08284
G1 X-43.84 Y18.462 E6.0923
G1 X-44.147 Y17.786 E6.12934
G1 X-44.519 Y16.845 E6.17982
G1 X-44.761 Y16.193 E6.21452
G1 X-45.085 Y15.269 E6.26337
G1 X-45.351 Y14.459 E6.3059
G1 X-45.557 Y13.697 E6.34528
G1 X-45.593 Y13.477 E6.3564
G1 X-45.664 Y13.318 E6.36509
G1 X-45.923 Y12.516 E6.40714
G1 X-46.189 Y11.5 E6.45953
G1 X-46.502 Y10.157 E6.52833
G1 X-46.716 Y9.096 E6.58233
G1 X-46.833 Y8.315 E6.62173
G1 X-46.844 Y8.077 E6.63362
G1 X-46.936 Y7.759 E6.65013
G1 X-47.053 Y7.149 E6.68112
G1 X-47.214 Y6.044 E6.73683
G1 X-47.403 Y4.317 E6.82351
G1 X-47.465 Y3.499 E6.86443
G1 X-47.479 Y2.71 E6.9038
G1 X-47.502 Y2.43 E6.91782
G1 X-47.569 Y1.618 E6.95847
G1 X-47.594 Y0.775 E7.00054
G1 X-47.6 Y0.043 E7.03707
G1 X-47.583 Y-1.242 E7.10118
G1 X-47.56 Y-1.923 E7.13517
G1 X-47.493 Y-2.71 E7.17458
G1 X-47.465 Y-3.089 E7.19354
G1 X-47.434 Y-3.95 E7.23652
G1 X-47.334 Y-5.007 E7.28949
G1 X-47.169 Y-6.385 E7.35873
G1 X-47.002 Y-7.478 E7.4139
G1 X-46.84 Y-8.251 E7.4533
G1 X-46.778 Y-8.444 E7.46341
G1 X-46.754 Y-8.788 E7.48062
G1 X-46.661 Y-9.363 E7.50968
G1 X-46.473 Y-10.307 E7.5577
G1 X-45.908 Y-12.613 E7.67615
G1 X-45.682 Y-13.37 E7.71556
G1 X-45.489 Y-13.836 E7.74072
G1 X-45.467 Y-13.968 E7.7474
G1 X-45.25 Y-14.76 E7.78837
G1 X-44.984 Y-15.56 E7.83043
G1 X-44.692 Y-16.383 E7.874
G1 X-44.344 Y-17.299 E7.92288
G1 X-44.032 Y-18.076 E7.96466
G1 X-43.7 Y-18.792 E8.00403
G1 X-43.545 Y-19.14 E8.02304
G1 X-43.224 Y-19.932 E8.06567
G1 X-42.777 Y-20.876 E8.11778
G1 X-42.273 Y-21.879 E8.17378
G1 X-41.627 Y-23.069 E8.24134
G1 X-41.214 Y-23.741 E8.28069
G1 X-41.075 Y-23.923 E8.29211
G1 X-40.931 Y-24.246 E8.30976
G1 X-40.641 Y-24.765 E8.33942
G1 X-40.053 Y-25.718 E8.39529
G1 X-38.827 Y-27.553 E8.50539
G1 X-38.355 Y-28.187 E8.54482
G1 X-38.014 Y-28.559 E8.57
G1 X-37.947 Y-28.678 E8.57681
G1 X-37.475 Y-29.343 E8.6175
G1 X-36.951 Y-30.005 E8.65962
G1 X-36.406 Y-30.664 E8.70228
G1 X-35.644 Y-31.548 E8.76051
G1 X-35.188 Y-32.054 E8.79449
G1 X-34.631 Y-32.613 E8.83386
G1 X-34.37 Y-32.881 E8.85252
G1 X-33.805 Y-33.507 E8.8946
G1 X-33.208 Y-34.101 E8.93661
G1 X-31.966 Y-35.279 E9.02201
G1 X-31.185 Y-35.955 E9.07355
G1 X-30.562 Y-36.441 E9.11297
G1 X-30.407 Y-36.538 E9.12209
G1 X-30.188 Y-36.766 E9.13786
G1 X-29.725 Y-37.167 E9.16842
G1 X-28.979 Y-37.765 E9.21612
G1 X-27.055 Y-39.173 E9.33507
G1 X-26.395 Y-39.607 E9.37447
G1 X-25.961 Y-39.833 E9.39889
G1 X-25.849 Y-39.929 E9.40625
G1 X-25.169 Y-40.397 E9.44743
G1 X-24.325 Y-40.914 E9.49681
G1 X-23.71 Y-41.274 E9.53236
G1 X-22.718 Y-41.828 E9.58905
G1 X-22.116 Y-42.149 E9.62308
G1 X-21.401 Y-42.484 E9.66248
G1 X-21.054 Y-42.653 E9.68173
G1 X-20.291 Y-43.057 E9.72481
G1 X-19.346 Y-43.49 E9.77667
G1 X-18.105 Y-44.024 E9.84407
G1 X-17.017 Y-44.448 E9.90233
G1 X-16.266 Y-44.692 E9.94172
G1 X-16.094 Y-44.729 E9.9505
G1 X-15.874 Y-44.84 E9.96279
G1 X-15.226 Y-45.091 E9.99746
G1 X-14.155 Y-45.445 E10.05374
G1 X-12.036 Y-46.064 E10.16387
G1 X-11.268 Y-46.247 E10.20326
G1 X-10.753 Y-46.315 E10.22918
G1 X-10.631 Y-46.361 E10.23568
G1 X-9.847 Y-46.566 E10.27611
G1 X-8.85 Y-46.77 E10.32688
G1 X-8.169 Y-46.893 E10.36141
G1 X-7.047 Y-47.075 E10.41812
G1 X-6.375 Y-47.171 E10.45198
G1 X-5.589 Y-47.243 E10.49136
G1 X-5.187 Y-47.282 E10.51151
G1 X-4.355 Y-47.398 E10.55342
G1 X-3.31 Y-47.484 E10.60573
G1 X-1.983 Y-47.561 E10.67205
G1 X-.783 Y-47.587 E10.73193
G1 X0.006 Y-47.56 E10.77132
G1 X0.361 Y-47.56 E10.78903
G1 X1.11 Y-47.579 E10.82641
G1 X2.241 Y-47.546 E10.88286
G1 X4.443 Y-47.403 E10.99295
G1 X5.228 Y-47.312 E11.03237
G1 X5.729 Y-47.202 E11.05796
G1 X5.848 Y-47.203 E11.0639
G1 X6.683 Y-47.125 E11.10574
G1 X7.519 Y-47.001 E11.1479
G1 X8.203 Y-46.887 E11.1825
G1 X9.5 Y-46.643 E11.24834
G1 X10.166 Y-46.501 E11.28232
G1 X10.929 Y-46.297 E11.32172
G1 X11.289 Y-46.207 E11.34023
G1 X12.124 Y-46.029 E11.38283
G1 X13.136 Y-45.751 E11.43519
G1 X14.424 Y-45.364 E11.50228
G1 X15.54 Y-44.985 E11.56108
G1 X16.272 Y-44.69 E11.60046
G1 X16.6 Y-44.57 E11.61788
G1 X17.311 Y-44.331 E11.6553
G1 X18.065 Y-44.037 E11.69568
G1 X19.219 Y-43.543 E11.75831
G1 X20.438 Y-42.998 E11.82492
G1 X21.141 Y-42.639 E11.86431
G1 X21.643 Y-42.355 E11.89308
G1 X22.391 Y-42 E11.93439
G1 X23.135 Y-41.598 E11.97658
G1 X23.892 Y-41.169 E12.01999
G1 X24.733 Y-40.668 E12.06883
G1 X25.434 Y-40.234 E12.10996
G1 X26.083 Y-39.784 E12.14936
G1 X26.265 Y-39.628 E12.16132
G1 X26.417 Y-39.554 E12.16975
G1 X27.122 Y-39.114 E12.21121
G1 X27.811 Y-38.63 E12.25322
G1 X28.885 Y-37.834 E12.31992
G1 X29.943 Y-36.994 E12.38731
G1 X30.534 Y-36.47 E12.42672
G1 X30.69 Y-36.301 E12.43819
G1 X30.908 Y-36.157 E12.45123
G1 X31.442 Y-35.727 E12.48543
G1 X32.281 Y-34.98 E12.54148
G1 X33.876 Y-33.454 E12.65161
G1 X34.418 Y-32.88 E12.69099
G1 X34.732 Y-32.473 E12.71664
G1 X34.826 Y-32.395 E12.72273
G1 X35.404 Y-31.811 E12.76373
G1 X35.965 Y-31.18 E12.80585
G1 X36.526 Y-30.521 E12.84903
G1 X37.145 Y-29.764 E12.89781
G1 X37.662 Y-29.108 E12.93948
G1 X38.118 Y-28.463 E12.97889
G1 X38.35 Y-28.138 E12.99881
G1 X38.87 Y-27.471 E13.04101
G1 X39.351 Y-26.78 E13.08301
G1 X40.283 Y-25.369 E13.16738
G1 X40.817 Y-24.48 E13.21912
G1 X41.189 Y-23.783 E13.25853
G1 X41.265 Y-23.598 E13.26851
G1 X41.452 Y-23.341 E13.28437
G1 X41.768 Y-22.812 E13.31511
G1 X42.298 Y-21.828 E13.37087
G1 X43.274 Y-19.85 E13.48091
G1 X43.587 Y-19.125 E13.52031
G1 X43.744 Y-18.628 E13.54631
G1 X43.814 Y-18.509 E13.5532
G1 X44.14 Y-17.8 E13.59213
G1 X44.453 Y-17.017 E13.6342
G1 X44.762 Y-16.189 E13.67829
G1 X45.141 Y-15.102 E13.73573
G1 X45.352 Y-14.453 E13.76977
G1 X45.558 Y-13.69 E13.8092
G1 X45.662 Y-13.321 E13.82833
G1 X45.922 Y-12.517 E13.87049
G1 X46.187 Y-11.506 E13.92263
G1 X46.503 Y-10.152 E13.992
G1 X46.716 Y-9.092 E14.04594
G1 X46.832 Y-8.311 E14.08533
G1 X46.842 Y-8.096 E14.09607
G1 X46.901 Y-7.904 E14.10609
G1 X47.049 Y-7.171 E14.14339
G1 X47.214 Y-6.045 E14.20017
G1 X47.403 Y-4.32 E14.28675
G1 X47.465 Y-3.484 E14.32857
G1 X47.477 Y-2.694 E14.36799
G1 X47.501 Y-2.432 E14.38111
G1 X47.567 Y-1.628 E14.42136
G1 X47.597 Y-.587 E14.47332
G1 X47.6 Y-0.043 E14.50046
G1 X47.584 Y1.241 E14.56452
G1 X47.561 Y1.922 E14.59852
G1 X47.494 Y2.709 E14.63792
G1 X47.464 Y3.079 E14.65644
G1 X47.434 Y3.942 E14.69952
G1 X47.338 Y4.982 E14.75163
G1 X47.208 Y6.097 E14.80763
G1 X47.01 Y7.432 E14.87497
G1 X46.852 Y8.205 E14.91433
G1 X46.778 Y8.441 E14.92667
G0 F3600 X46.384 Y8.365
G1 F1800 X46.328 Y8.998 E14.95837
G1 X46.045 Y10.374 E15.02846
G1 X45.52 Y12.518 E15.13858
G1 X45.298 Y13.255 E15.17698
G1 X45.097 Y13.734 E15.2029
G1 X45.036 Y14.056 E15.21925
G1 X44.87 Y14.633 E15.2492
G1 X44.413 Y15.989 E15.32059
G1 X43.973 Y17.15 E15.38254
G1 X43.662 Y17.925 E15.4242
G1 X43.338 Y18.623 E15.46259
G1 X43.216 Y18.826 E15.47441
G1 X43.123 Y19.133 E15.49041
G1 X42.864 Y19.757 E15.52412
G1 X42.506 Y20.519 E15.56612
G1 X41.755 Y22.02 E15.64985
G1 X41.246 Y22.934 E15.70205
G1 X40.838 Y23.586 E15.74042
G1 X40.724 Y23.731 E15.74962
G1 X40.457 Y24.303 E15.78112
G1 X39.72 Y25.496 E15.85108
G1 X38.494 Y27.331 E15.96118
G1 X38.034 Y27.947 E15.99953
G1 X37.679 Y28.332 E16.02566
G1 X37.533 Y28.581 E16.04006
G1 X37.161 Y29.095 E16.07172
G1 X36.541 Y29.876 E16.12146
G1 X36.1 Y30.408 E16.15594
G1 X35.462 Y31.15 E16.20476
G1 X34.892 Y31.785 E16.24733
G1 X34.348 Y32.329 E16.28571
G1 X34.166 Y32.477 E16.29742
G1 X33.969 Y32.737 E16.31369
G1 X33.522 Y33.224 E16.34667
G1 X32.787 Y33.952 E16.39828
G1 X31.693 Y34.986 E16.47338
G1 X30.922 Y35.653 E16.52425
G1 X30.315 Y36.126 E16.56264
G1 X30.15 Y36.229 E16.57234
G1 X29.715 Y36.665 E16.60307
G1 X28.6 Y37.547 E16.674
G1 X26.819 Y38.851 E16.78412
G1 X26.175 Y39.272 E16.82251
G1 X25.725 Y39.504 E16.84777
G1 X25.493 Y39.696 E16.86279
G1 X24.96 Y40.057 E16.89491
G1 X24.242 Y40.498 E16.93695
G1 X23.518 Y40.924 E16.97885
G1 X22.665 Y41.402 E17.02764
G1 X21.927 Y41.797 E17.0694
G1 X21.23 Y42.123 E17.10779
G1 X21.004 Y42.202 E17.11973
G1 X20.732 Y42.378 E17.13589
G1 X20.132 Y42.689 E17.16961
G1 X19.187 Y43.123 E17.22149
G1 X17.669 Y43.77 E17.30382
G1 X16.873 Y44.075 E17.34635
G1 X16.141 Y44.313 E17.38475
G1 X15.948 Y44.354 E17.39459
G1 X15.59 Y44.526 E17.41441
G1 X15.098 Y44.712 E17.44065
G1 X14.044 Y45.061 E17.49604
G1 X11.926 Y45.68 E17.60613
G1 X11.177 Y45.857 E17.64452
G1 X10.646 Y45.925 E17.67123
G1 X10.379 Y46.02 E17.68537
G1 X9.774 Y46.172 E17.71649
G1 X8.949 Y46.343 E17.75853
G1 X8.11 Y46.497 E17.80108
G1 X6.988 Y46.68 E17.8578
G1 X6.315 Y46.776 E17.89172
G1 X5.549 Y46.845 E17.93009
G1 X5.292 Y46.841 E17.94291
G1 X4.979 Y46.913 E17.95893
G1 X4.338 Y46.997 E17.99119
G1 X3.277 Y47.086 E18.04431
G1 X1.923 Y47.163 E18.11197
G1 X0.779 Y47.188 E18.16905
G1 X0.011 Y47.161 E18.20739
G1 X-.185 Y47.134 E18.21726
G1 X-.567 Y47.172 E18.23642
G1 X-1.101 Y47.179 E18.26306
G1 X-2.216 Y47.146 E18.31871
G1 X-4.418 Y47.003 E18.4288
G1 X-5.181 Y46.914 E18.46713
G1 X-5.695 Y46.798 E18.49341
G1 X-5.957 Y46.797 E18.50649
G1 X-6.625 Y46.729 E18.53998
G1 X-7.461 Y46.605 E18.58215
G1 X-8.288 Y46.466 E18.62399
G1 X-9.25 Y46.284 E18.67283
G1 X-10.083 Y46.108 E18.71531
G1 X-10.826 Y45.909 E18.75368
G1 X-11.031 Y45.831 E18.76463
G1 X-11.361 Y45.79 E18.78122
G1 X-12.028 Y45.641 E18.81531
G1 X-12.841 Y45.419 E18.85736
G1 X-14.434 Y44.944 E18.94029
G1 X-15.427 Y44.6 E18.99272
G1 X-16.14 Y44.311 E19.0311
G1 X-16.302 Y44.225 E19.04026
G1 X-16.665 Y44.133 E19.05894
G1 X-17.165 Y43.958 E19.08537
G1 X-18.17 Y43.561 E19.13928
G1 X-19.057 Y43.177 E19.1875
G1 X-20.275 Y42.632 E19.25407
G1 X-20.96 Y42.281 E19.29247
G1 X-21.34 Y42.034 E19.31508
G1 X-21.653 Y41.916 E19.33177
G1 X-22.201 Y41.648 E19.3622
G1 X-23.075 Y41.174 E19.41181
G1 X-23.689 Y40.824 E19.44707
G1 X-24.646 Y40.252 E19.50269
G1 X-25.224 Y39.893 E19.53664
G1 X-25.856 Y39.454 E19.57503
G1 X-26.051 Y39.286 E19.58787
G1 X-26.345 Y39.135 E19.60436
G1 X-26.893 Y38.785 E19.6368
G1 X-27.748 Y38.181 E19.68903
G1 X-28.649 Y37.51 E19.74507
G1 X-29.691 Y36.683 E19.81144
G1 X-30.266 Y36.173 E19.84979
G1 X-30.432 Y35.992 E19.86204
G1 X-30.786 Y35.749 E19.88346
G1 X-31.178 Y35.427 E19.90877
G1 X-32.008 Y34.688 E19.96421
G1 X-33.263 Y33.486 E20.05091
G1 X-33.813 Y32.923 E20.09018
G1 X-34.317 Y32.342 E20.12855
G1 X-34.397 Y32.228 E20.1355
G1 X-34.66 Y32.004 E20.15273
G1 X-35.105 Y31.545 E20.18463
G1 X-35.767 Y30.798 E20.23443
G1 X-36.22 Y30.264 E20.26936
G1 X-36.93 Y29.393 E20.32542
G1 X-37.35 Y28.858 E20.35936
G1 X-37.793 Y28.23 E20.3977
G1 X-37.917 Y28.007 E20.41043
G1 X-38.139 Y27.769 E20.42667
G1 X-38.54 Y27.244 E20.45963
G1 X-39.132 Y26.391 E20.51143
G1 X-39.873 Y25.265 E20.57868
G1 X-40.478 Y24.268 E20.63686
G1 X-40.839 Y23.588 E20.67527
G1 X-40.913 Y23.405 E20.68512
G1 X-41.11 Y23.135 E20.70179
G1 X-41.411 Y22.633 E20.73099
G1 X-41.94 Y21.65 E20.78669
G1 X-42.916 Y19.671 E20.89677
G1 X-43.22 Y18.965 E20.93512
G1 X-43.377 Y18.46 E20.96151
G1 X-43.547 Y18.154 E20.97897
G1 X-43.775 Y17.639 E21.00707
G1 X-44.086 Y16.857 E21.04905
G1 X-44.383 Y16.061 E21.09144
G1 X-44.707 Y15.137 E21.14029
G1 X-44.97 Y14.335 E21.1824
G1 X-45.17 Y13.593 E21.22074
G1 X-45.208 Y13.353 E21.23286
G1 X-45.34 Y13.043 E21.24967
G1 X-45.536 Y12.414 E21.28254
G1 X-45.8 Y11.408 E21.33443
G1 X-46.11 Y10.078 E21.40256
G1 X-46.324 Y9.017 E21.45656
G1 X-46.437 Y8.256 E21.49495
G1 X-46.447 Y8.012 E21.50713
G1 X-46.613 Y7.396 E21.53896
G1 X-46.816 Y6 E21.60934
G1 X-47.005 Y4.273 E21.69601
G1 X-47.066 Y3.472 E21.73609
G1 X-47.078 Y2.703 E21.77446
G1 X-47.123 Y2.238 E21.79777
G1 X-47.169 Y1.606 E21.82938
G1 X-47.194 Y0.763 E21.87146
G1 X-47.2 Y0.041 E21.90748
G1 X-47.183 Y-1.229 E21.97084
G1 X-47.16 Y-1.91 E22.00484
G1 X-47.094 Y-2.676 E22.0432
G1 X-47.049 Y-2.91 E22.05509
G1 X-47.066 Y-3.237 E22.07142
G1 X-47.035 Y-3.914 E22.10523
