;FLAVOR:Marlin
;TIME:364
;Filament used: 0.413367m
;Layer height: 0.3
;MINX:-14.447
;MINY:-14.447
;MINZ:0.3
;MAXX:14.447
;MAXY:14.447
;MAXZ:15.6
;Generated with Cura_SteamEngine 5.2.1
M140 S60
M105
M190 S60
M104 S200
M105
M109 S200
M82 ;absolute extrusion mode
G28 ;Home
G1 Z15.0 F6000 ;Move the platform down 15mm
;Prime the extruder
G92 E0
G1 F200 E3
G92 E0
M141 S28
G92 E0
G92 E0
G1 F1500 E-6.5
;LAYER_COUNT:52
;LAYER:0
M107
G0 F3600 X-13.948 Y3.746 Z0.3
;TYPE:SKIRT
G1 F1500 E0
G1 F1800 X-14.141 Y2.942 E0.04125
G1 X-14.263 Y2.28 E0.07483
G1 X-14.363 Y1.539 E0.11214
G1 X-14.426 Y0.812 E0.14854
G1 X-14.447 Y-.209 E0.19949
G1 X-14.415 Y-.926 E0.2353
G1 X-14.357 Y-1.587 E0.2684
G1 X-14.282 Y-2.162 E0.29733
G1 X-14.161 Y-2.852 E0.33228
G1 X-14.034 Y-3.421 E0.36137
G1 X-13.867 Y-4.046 E0.39365
G1 X-13.695 Y-4.597 E0.42244
G1 X-13.451 Y-5.269 E0.45811
G1 X-13.228 Y-5.805 E0.48707
G1 X-12.942 Y-6.415 E0.52069
G1 X-12.674 Y-6.929 E0.54961
G1 X-12.338 Y-7.511 E0.58313
G1 X-11.944 Y-8.13 E0.61974
G1 X-11.337 Y-8.958 E0.67096
G1 X-10.876 Y-9.507 E0.70673
G1 X-10.418 Y-10.006 E0.74052
G1 X-10.007 Y-10.417 E0.76952
G1 X-9.509 Y-10.874 E0.80324
G1 X-8.959 Y-11.336 E0.83907
G1 X-8.132 Y-11.943 E0.89025
G1 X-7.515 Y-12.336 E0.92675
G1 X-6.931 Y-12.674 E0.96041
G1 X-6.415 Y-12.943 E0.98944
G1 X-5.803 Y-13.228 E1.02313
G1 X-5.269 Y-13.45 E1.05198
G1 X-4.497 Y-13.725 E1.09286
G1 X-3.75 Y-13.947 E1.13174
G1 X-2.942 Y-14.141 E1.1732
G1 X-2.28 Y-14.263 E1.20678
G1 X-1.538 Y-14.363 E1.24414
G1 X-.809 Y-14.426 E1.28064
G1 X0.212 Y-14.447 E1.33159
G1 X0.927 Y-14.415 E1.3673
G1 X1.585 Y-14.358 E1.40025
G1 X2.161 Y-14.283 E1.42923
G1 X2.856 Y-14.16 E1.46444
G1 X3.424 Y-14.033 E1.49348
G1 X4.051 Y-13.865 E1.52586
G1 X4.604 Y-13.692 E1.55477
G1 X5.269 Y-13.45 E1.59008
G1 X5.803 Y-13.228 E1.61893
G1 X6.415 Y-12.942 E1.65263
G1 X6.929 Y-12.674 E1.68155
G1 X7.511 Y-12.338 E1.71508
G1 X8.13 Y-11.944 E1.75168
G1 X8.958 Y-11.337 E1.8029
G1 X9.507 Y-10.876 E1.83867
G1 X10.006 Y-10.418 E1.87246
G1 X10.417 Y-10.007 E1.90146
G1 X10.874 Y-9.509 E1.93518
G1 X11.336 Y-8.959 E1.97102
G1 X11.943 Y-8.132 E2.0222
G1 X12.336 Y-7.515 E2.05869
G1 X12.674 Y-6.931 E2.09236
G1 X12.943 Y-6.415 E2.12139
G1 X13.228 Y-5.803 E2.15507
G1 X13.45 Y-5.269 E2.18392
G1 X13.725 Y-4.497 E2.22481
G1 X13.947 Y-3.75 E2.26369
G1 X14.14 Y-2.946 E2.30494
G1 X14.262 Y-2.286 E2.33842
G1 X14.363 Y-1.54 E2.37598
G1 X14.426 Y-.811 E2.41249
G1 X14.447 Y0.209 E2.46339
G1 X14.415 Y0.926 E2.49919
G1 X14.357 Y1.587 E2.5323
G1 X14.282 Y2.162 E2.56123
G1 X14.161 Y2.852 E2.59618
G1 X14.034 Y3.421 E2.62526
G1 X13.867 Y4.046 E2.65754
G1 X13.695 Y4.597 E2.68634
G1 X13.451 Y5.269 E2.722
G1 X13.228 Y5.805 E2.75097
G1 X12.942 Y6.415 E2.78458
G1 X12.674 Y6.929 E2.8135
G1 X12.338 Y7.511 E2.84703
G1 X11.944 Y8.13 E2.88363
G1 X11.337 Y8.958 E2.93485
G1 X10.876 Y9.507 E2.97062
G1 X10.418 Y10.006 E3.00441
G1 X10.007 Y10.417 E3.03341
G1 X9.509 Y10.874 E3.06713
G1 X8.959 Y11.336 E3.10297
G1 X8.132 Y11.943 E3.15415
G1 X7.515 Y12.336 E3.19064
G1 X6.931 Y12.674 E3.22431
G1 X6.415 Y12.943 E3.25334
G1 X5.803 Y13.228 E3.28702
G1 X5.269 Y13.45 E3.31587
G1 X4.497 Y13.725 E3.35676
G1 X3.75 Y13.947 E3.39564
G1 X2.942 Y14.141 E3.43709
G1 X2.28 Y14.263 E3.47068
G1 X1.538 Y14.363 E3.50803
G1 X0.809 Y14.426 E3.54453
G1 X-.212 Y14.447 E3.59548
G1 X-.927 Y14.415 E3.63119
G1 X-1.587 Y14.357 E3.66424
G1 X-2.162 Y14.282 E3.69317
G1 X-2.852 Y14.161 E3.72812
G1 X-3.421 Y14.034 E3.75721
G1 X-4.051 Y13.865 E3.78975
G1 X-4.604 Y13.692 E3.81866
G1 X-5.269 Y13.45 E3.85397
G1 X-5.803 Y13.228 E3.88282
G1 X-6.415 Y12.943 E3.9165
G1 X-6.931 Y12.674 E3.94553
G1 X-7.515 Y12.336 E3.97919
G1 X-8.132 Y11.943 E4.01569
G1 X-8.959 Y11.336 E4.06687
G1 X-9.509 Y10.874 E4.10271
G1 X-10.007 Y10.417 E4.13643
G1 X-10.418 Y10.006 E4.16543
G1 X-10.876 Y9.507 E4.19922
G1 X-11.337 Y8.958 E4.23498
G1 X-11.944 Y8.13 E4.2862
G1 X-12.338 Y7.511 E4.32281
G1 X-12.674 Y6.929 E4.35634
G1 X-12.942 Y6.415 E4.38526
G1 X-13.228 Y5.805 E4.41887
G1 X-13.451 Y5.269 E4.44783
G1 X-13.727 Y4.491 E4.48902
G1 X-13.948 Y3.746 E4.52779
G0 F3600 X-13.564 Y3.633
G1 F1800 X-13.747 Y2.869 E4.56698
G1 X-13.869 Y2.207 E4.60056
G1 X-13.964 Y1.505 E4.63591
G1 X-14.027 Y0.778 E4.67231
G1 X-14.048 Y-.191 E4.72067
G1 X-14.016 Y-.908 E4.75647
G1 X-13.961 Y-1.535 E4.78788
G1 X-13.886 Y-2.11 E4.81681
G1 X-13.77 Y-2.765 E4.84999
G1 X-13.643 Y-3.334 E4.87908
G1 X-13.485 Y-3.927 E4.9097
G1 X-13.313 Y-4.478 E4.93849
G1 X-13.081 Y-5.116 E4.97236
G1 X-12.858 Y-5.652 E5.00133
G1 X-12.588 Y-6.23 E5.03315
G1 X-12.32 Y-6.744 E5.06207
G1 X-12.001 Y-7.297 E5.09392
G1 X-11.607 Y-7.916 E5.13053
G1 X-11.031 Y-8.701 E5.17911
G1 X-10.57 Y-9.25 E5.21487
G1 X-10.136 Y-9.724 E5.24694
G1 X-9.725 Y-10.135 E5.27593
G1 X-9.252 Y-10.568 E5.30793
G1 X-8.702 Y-11.03 E5.34376
G1 X-7.917 Y-11.605 E5.39231
G1 X-7.3 Y-11.998 E5.4288
G1 X-6.746 Y-12.319 E5.46075
G1 X-6.23 Y-12.588 E5.48978
G1 X-5.65 Y-12.859 E5.52172
G1 X-5.116 Y-13.081 E5.55057
G1 X-4.383 Y-13.341 E5.58937
G1 X-3.636 Y-13.563 E5.62825
G1 X-2.869 Y-13.747 E5.6676
G1 X-2.207 Y-13.869 E5.70119
G1 X-1.503 Y-13.965 E5.73663
G1 X-.774 Y-14.028 E5.77314
G1 X0.194 Y-14.048 E5.82144
G1 X0.909 Y-14.016 E5.85715
G1 X1.533 Y-13.961 E5.8884
G1 X2.109 Y-13.886 E5.91738
G1 X2.769 Y-13.77 E5.95081
G1 X3.337 Y-13.643 E5.97985
G1 X3.931 Y-13.483 E6.01054
G1 X4.484 Y-13.31 E6.03945
G1 X5.116 Y-13.081 E6.07299
G1 X5.65 Y-12.859 E6.10184
G1 X6.23 Y-12.588 E6.13378
G1 X6.744 Y-12.32 E6.1627
G1 X7.297 Y-12.001 E6.19455
G1 X7.916 Y-11.607 E6.23116
G1 X8.701 Y-11.031 E6.27973
G1 X9.25 Y-10.57 E6.3155
G1 X9.724 Y-10.136 E6.34756
G1 X10.135 Y-9.725 E6.37656
G1 X10.568 Y-9.252 E6.40855
G1 X11.03 Y-8.702 E6.44439
G1 X11.605 Y-7.917 E6.49293
G1 X11.998 Y-7.3 E6.52943
G1 X12.319 Y-6.746 E6.56137
G1 X12.588 Y-6.23 E6.59041
G1 X12.859 Y-5.65 E6.62234
G1 X13.081 Y-5.116 E6.6512
G1 X13.341 Y-4.383 E6.69
G1 X13.563 Y-3.636 E6.72888
G1 X13.747 Y-2.873 E6.76803
G1 X13.869 Y-2.213 E6.80152
G1 X13.965 Y-1.505 E6.83717
G1 X14.028 Y-.776 E6.87367
G1 X14.048 Y0.191 E6.92192
G1 X14.016 Y0.908 E6.95773
G1 X13.961 Y1.535 E6.98913
G1 X13.886 Y2.11 E7.01806
G1 X13.77 Y2.765 E7.05125
G1 X13.643 Y3.334 E7.08034
G1 X13.485 Y3.927 E7.11095
G1 X13.313 Y4.478 E7.13975
G1 X13.081 Y5.116 E7.17362
G1 X12.858 Y5.652 E7.20258
G1 X12.588 Y6.23 E7.23441
G1 X12.32 Y6.744 E7.26333
G1 X12.001 Y7.297 E7.29518
G1 X11.607 Y7.916 E7.33179
G1 X11.031 Y8.701 E7.38036
G1 X10.57 Y9.25 E7.41613
G1 X10.136 Y9.724 E7.44819
G1 X9.725 Y10.135 E7.47719
G1 X9.252 Y10.568 E7.50918
G1 X8.702 Y11.03 E7.54502
G1 X7.917 Y11.605 E7.59357
G1 X7.3 Y11.998 E7.63006
G1 X6.746 Y12.319 E7.66201
G1 X6.23 Y12.588 E7.69104
G1 X5.65 Y12.859 E7.72298
G1 X5.116 Y13.081 E7.75183
G1 X4.383 Y13.341 E7.79063
G1 X3.636 Y13.563 E7.82951
G1 X2.869 Y13.747 E7.86886
G1 X2.207 Y13.869 E7.90244
G1 X1.503 Y13.965 E7.93789
G1 X0.774 Y14.028 E7.9744
G1 X-.194 Y14.048 E8.0227
G1 X-.909 Y14.016 E8.05841
G1 X-1.535 Y13.961 E8.08976
G1 X-2.11 Y13.886 E8.11869
G1 X-2.765 Y13.77 E8.15188
G1 X-3.334 Y13.643 E8.18096
G1 X-3.931 Y13.483 E8.2118
G1 X-4.484 Y13.31 E8.24071
G1 X-5.116 Y13.081 E8.27424
G1 X-5.65 Y12.859 E8.30309
G1 X-6.23 Y12.588 E8.33503
G1 X-6.746 Y12.319 E8.36406
G1 X-7.3 Y11.998 E8.39601
G1 X-7.917 Y11.605 E8.4325
G1 X-8.702 Y11.03 E8.48105
G1 X-9.252 Y10.568 E8.51689
G1 X-9.725 Y10.135 E8.54888
G1 X-10.136 Y9.724 E8.57788
G1 X-10.57 Y9.25 E8.60994
G1 X-11.031 Y8.701 E8.64571
G1 X-11.607 Y7.916 E8.69428
G1 X-12.001 Y7.297 E8.73089
G1 X-12.32 Y6.744 E8.76274
G1 X-12.588 Y6.23 E8.79166
G1 X-12.858 Y5.652 E8.82349
G1 X-13.081 Y5.116 E8.85245
G1 X-13.343 Y4.378 E8.89152
G1 X-13.564 Y3.633 E8.93029
G0 F3600 X-13.181 Y3.519
G1 F1800 X-13.354 Y2.797 E8.96733
G1 X-13.476 Y2.135 E9.00091
G1 X-13.566 Y1.47 E9.03439
G1 X-13.629 Y0.743 E9.0708
G1 X-13.648 Y-.173 E9.11651
G1 X-13.616 Y-.89 E9.15232
G1 X-13.564 Y-1.483 E9.18201
G1 X-13.489 Y-2.058 E9.21094
G1 X-13.38 Y-2.678 E9.24235
G1 X-13.253 Y-3.247 E9.27144
G1 X-13.103 Y-3.808 E9.30041
G1 X-12.931 Y-4.359 E9.32921
G1 X-12.712 Y-4.962 E9.36121
G1 X-12.489 Y-5.498 E9.39018
G1 X-12.233 Y-6.045 E9.42031
G1 X-11.965 Y-6.559 E9.44923
G1 X-11.663 Y-7.082 E9.47936
G1 X-11.269 Y-7.701 E9.51596
G1 X-10.725 Y-8.443 E9.56186
G1 X-10.264 Y-8.992 E9.59763
G1 X-9.853 Y-9.441 E9.628
G1 X-9.442 Y-9.852 E9.657
G1 X-8.994 Y-10.262 E9.68729
G1 X-8.444 Y-10.724 E9.72313
G1 X-7.703 Y-11.268 E9.76899
G1 X-7.086 Y-11.661 E9.80549
G1 X-6.561 Y-11.964 E9.83573
G1 X-6.045 Y-12.233 E9.86476
G1 X-5.496 Y-12.49 E9.895
G1 X-4.962 Y-12.712 E9.92386
G1 X-4.269 Y-12.958 E9.96054
G1 X-3.522 Y-13.18 E9.99942
G1 X-2.797 Y-13.354 E10.03662
G1 X-2.135 Y-13.476 E10.0702
G1 X-1.469 Y-13.566 E10.10373
G1 X-.74 Y-13.629 E10.14024
G1 X0.176 Y-13.648 E10.18595
G1 X0.891 Y-13.616 E10.22165
G1 X1.482 Y-13.564 E10.25125
G1 X2.058 Y-13.489 E10.28023
G1 X2.681 Y-13.379 E10.31179
G1 X3.249 Y-13.252 E10.34083
G1 X3.812 Y-13.102 E10.3699
G1 X4.365 Y-12.929 E10.39881
G1 X4.962 Y-12.712 E10.4305
G1 X5.496 Y-12.49 E10.45935
G1 X6.045 Y-12.233 E10.48959
G1 X6.559 Y-11.965 E10.51851
G1 X7.082 Y-11.663 E10.54864
G1 X7.701 Y-11.269 E10.58525
G1 X8.443 Y-10.725 E10.63115
G1 X8.992 Y-10.264 E10.66692
G1 X9.441 Y-9.853 E10.69729
G1 X9.852 Y-9.442 E10.72628
G1 X10.262 Y-8.994 E10.75658
G1 X10.724 Y-8.444 E10.79242
G1 X11.268 Y-7.703 E10.83828
G1 X11.661 Y-7.086 E10.87478
G1 X11.964 Y-6.561 E10.90502
G1 X12.233 Y-6.045 E10.93405
G1 X12.49 Y-5.496 E10.96429
G1 X12.712 Y-4.962 E10.99314
G1 X12.958 Y-4.269 E11.02983
G1 X13.18 Y-3.522 E11.06871
G1 X13.353 Y-2.8 E11.10575
G1 X13.475 Y-2.14 E11.13924
G1 X13.566 Y-1.471 E11.17292
G1 X13.629 Y-.742 E11.20942
G1 X13.648 Y0.173 E11.25508
G1 X13.616 Y0.89 E11.29089
G1 X13.564 Y1.483 E11.32059
G1 X13.489 Y2.058 E11.34952
G1 X13.38 Y2.678 E11.38093
G1 X13.253 Y3.247 E11.41001
G1 X13.103 Y3.808 E11.43898
G1 X12.931 Y4.359 E11.46778
G1 X12.712 Y4.962 E11.49979
G1 X12.489 Y5.498 E11.52875
G1 X12.233 Y6.045 E11.55888
G1 X11.965 Y6.559 E11.5878
G1 X11.663 Y7.082 E11.61793
G1 X11.269 Y7.701 E11.65454
G1 X10.725 Y8.443 E11.70044
G1 X10.264 Y8.992 E11.73621
G1 X9.853 Y9.441 E11.76657
G1 X9.442 Y9.852 E11.79557
G1 X8.994 Y10.262 E11.82587
G1 X8.444 Y10.724 E11.86171
G1 X7.703 Y11.268 E11.90757
G1 X7.086 Y11.661 E11.94406
G1 X6.561 Y11.964 E11.97431
G1 X6.045 Y12.233 E12.00334
G1 X5.496 Y12.49 E12.03358
G1 X4.962 Y12.712 E12.06243
G1 X4.269 Y12.958 E12.09912
G1 X3.522 Y13.18 E12.138
G1 X2.797 Y13.354 E12.1752
G1 X2.135 Y13.476 E12.20878
G1 X1.469 Y13.566 E12.24231
G1 X0.74 Y13.629 E12.27881
G1 X-.176 Y13.648 E12.32452
G1 X-.891 Y13.616 E12.36023
G1 X-1.483 Y13.564 E12.38988
G1 X-2.058 Y13.489 E12.41881
G1 X-2.678 Y13.38 E12.45021
G1 X-3.247 Y13.253 E12.4793
G1 X-3.812 Y13.102 E12.50848
G1 X-4.365 Y12.929 E12.53739
G1 X-4.962 Y12.712 E12.56908
G1 X-5.496 Y12.49 E12.59793
G1 X-6.045 Y12.233 E12.62817
G1 X-6.561 Y11.964 E12.6572
G1 X-7.086 Y11.661 E12.68744
G1 X-7.703 Y11.268 E12.72394
G1 X-8.444 Y10.724 E12.7698
G1 X-8.994 Y10.262 E12.80564
G1 X-9.442 Y9.852 E12.83594
G1 X-9.853 Y9.441 E12.86493
G1 X-10.264 Y8.992 E12.8953
G1 X-10.725 Y8.443 E12.93107
G1 X-11.269 Y7.701 E12.97697
G1 X-11.663 Y7.082 E13.01358
G1 X-11.965 Y6.559 E13.04371
G1 X-12.233 Y6.045 E13.07263
G1 X-12.489 Y5.498 E13.10276
G1 X-12.712 Y4.962 E13.13172
G1 X-12.96 Y4.264 E13.16868
G1 X-13.181 Y3.519 E13.20745
G0 F3600 X-12.797 Y3.405
G1 F1800 X-12.961 Y2.724 E13.24239
G1 X-13.083 Y2.062 E13.27598
G1 X-13.167 Y1.436 E13.30749
G1 X-13.23 Y0.709 E13.34389
G1 X-13.248 Y-.155 E13.38701
G1 X-13.216 Y-.872 E13.42281
G1 X-13.168 Y-1.432 E13.45086
G1 X-13.093 Y-2.007 E13.47979
G1 X-12.989 Y-2.591 E13.50938
G1 X-12.862 Y-3.16 E13.53847
G1 X-12.721 Y-3.689 E13.56578
G1 X-12.549 Y-4.24 E13.59458
G1 X-12.343 Y-4.808 E13.62472
G1 X-12.12 Y-5.344 E13.65368
G1 X-11.878 Y-5.86 E13.68212
G1 X-11.61 Y-6.374 E13.71104
G1 X-11.326 Y-6.867 E13.73942
G1 X-10.932 Y-7.486 E13.77603
G1 X-10.418 Y-8.186 E13.81936
G1 X-9.957 Y-8.735 E13.85512
G1 X-9.57 Y-9.158 E13.88373
G1 X-9.159 Y-9.569 E13.91272
G1 X-8.737 Y-9.956 E13.94129
G1 X-8.187 Y-10.418 E13.97713
G1 X-7.488 Y-10.931 E14.02038
G1 X-6.871 Y-11.324 E14.05688
G1 X-6.376 Y-11.609 E14.08538
G1 X-5.86 Y-11.878 E14.11441
G1 X-5.343 Y-12.12 E14.14289
G1 X-4.809 Y-12.342 E14.17174
G1 X-4.155 Y-12.575 E14.20638
G1 X-3.408 Y-12.797 E14.24525
G1 X-2.724 Y-12.961 E14.28035
G1 X-2.062 Y-13.083 E14.31393
G1 X-1.434 Y-13.167 E14.34554
G1 X-.705 Y-13.23 E14.38205
G1 X0.158 Y-13.248 E14.42511
G1 X0.873 Y-13.216 E14.46082
G1 X1.43 Y-13.168 E14.48871
G1 X2.006 Y-13.093 E14.51769
G1 X2.594 Y-12.989 E14.54748
G1 X3.162 Y-12.862 E14.57652
G1 X3.693 Y-12.72 E14.60394
G1 X4.246 Y-12.547 E14.63285
G1 X4.809 Y-12.342 E14.66274
G1 X5.343 Y-12.12 E14.69159
G1 X5.86 Y-11.878 E14.72007
G1 X6.374 Y-11.61 E14.74899
G1 X6.867 Y-11.326 E14.77738
G1 X7.486 Y-10.932 E14.81398
G1 X8.186 Y-10.418 E14.85731
G1 X8.735 Y-9.957 E14.89307
G1 X9.158 Y-9.57 E14.92168
G1 X9.569 Y-9.159 E14.95068
G1 X9.956 Y-8.737 E14.97924
G1 X10.418 Y-8.187 E15.01508
G1 X10.931 Y-7.488 E15.05834
G1 X11.324 Y-6.871 E15.09483
G1 X11.609 Y-6.376 E15.12333
G1 X11.878 Y-5.86 E15.15236
G1 X12.12 Y-5.343 E15.18084
G1 X12.342 Y-4.809 E15.20969
G1 X12.575 Y-4.155 E15.24433
G1 X12.797 Y-3.408 E15.28321
G1 X12.96 Y-2.728 E15.31809
G1 X13.082 Y-2.068 E15.35158
G1 X13.167 Y-1.436 E15.38339
G1 X13.23 Y-.707 E15.4199
G1 X13.248 Y0.155 E15.46291
G1 X13.216 Y0.872 E15.49872
G1 X13.168 Y1.432 E15.52676
G1 X13.093 Y2.007 E15.55569
G1 X12.989 Y2.591 E15.58528
G1 X12.862 Y3.16 E15.61437
G1 X12.721 Y3.689 E15.64168
G1 X12.549 Y4.24 E15.67048
G1 X12.343 Y4.808 E15.70063
G1 X12.12 Y5.344 E15.72959
G1 X11.878 Y5.86 E15.75802
G1 X11.61 Y6.374 E15.78694
G1 X11.326 Y6.867 E15.81533
G1 X10.932 Y7.486 E15.85194
G1 X10.418 Y8.186 E15.89526
G1 X9.957 Y8.735 E15.93103
G1 X9.57 Y9.158 E15.95963
G1 X9.159 Y9.569 E15.98863
G1 X8.737 Y9.956 E16.0172
G1 X8.187 Y10.418 E16.05303
G1 X7.488 Y10.931 E16.09629
G1 X6.871 Y11.324 E16.13278
G1 X6.376 Y11.609 E16.16128
G1 X5.86 Y11.878 E16.19031
G1 X5.343 Y12.12 E16.21879
G1 X4.809 Y12.342 E16.24764
G1 X4.155 Y12.575 E16.28228
G1 X3.408 Y12.797 E16.32116
G1 X2.724 Y12.961 E16.35625
G1 X2.062 Y13.083 E16.38983
G1 X1.434 Y13.167 E16.42144
G1 X0.705 Y13.23 E16.45795
G1 X-.158 Y13.248 E16.50102
G1 X-.873 Y13.216 E16.53672
G1 X-1.432 Y13.168 E16.56471
G1 X-2.007 Y13.093 E16.59364
G1 X-2.591 Y12.989 E16.62324
G1 X-3.16 Y12.862 E16.65232
G1 X-3.693 Y12.72 E16.67984
G1 X-4.246 Y12.547 E16.70875
G1 X-4.809 Y12.342 E16.73864
G1 X-5.343 Y12.12 E16.76749
G1 X-5.86 Y11.878 E16.79597
G1 X-6.376 Y11.609 E16.82501
G1 X-6.871 Y11.324 E16.8535
G1 X-7.488 Y10.931 E16.89
G1 X-8.187 Y10.418 E16.93326
G1 X-8.737 Y9.956 E16.96909
G1 X-9.159 Y9.569 E16.99766
G1 X-9.57 Y9.158 E17.02666
G1 X-9.957 Y8.735 E17.05526
G1 X-10.418 Y8.186 E17.09102
G1 X-10.932 Y7.486 E17.13435
G1 X-11.326 Y6.867 E17.17096
G1 X-11.61 Y6.374 E17.19934
G1 X-11.878 Y5.86 E17.22826
G1 X-12.12 Y5.344 E17.2567
G1 X-12.343 Y4.808 E17.28566
G1 X-12.576 Y4.15 E17.32049
G1 X-12.797 Y3.405 E17.35925
G0 F3600 X-12.414 Y3.291
G1 F1800 X-12.567 Y2.652 E17.39204
G1 X-12.689 Y1.99 E17.42562
G1 X-12.769 Y1.401 E17.45527
G1 X-12.832 Y0.674 E17.49168
G1 X-12.849 Y-.137 E17.53215
G1 X-12.817 Y-.854 E17.56796
G1 X-12.771 Y-1.38 E17.5943
G1 X-12.696 Y-1.955 E17.62323
G1 X-12.599 Y-2.504 E17.65104
G1 X-12.472 Y-3.073 E17.68013
G1 X-12.339 Y-3.569 E17.70575
G1 X-12.167 Y-4.12 E17.73455
G1 X-11.973 Y-4.655 E17.76294
G1 X-11.75 Y-5.191 E17.7919
G1 X-11.524 Y-5.675 E17.81855
G1 X-11.256 Y-6.189 E17.84747
G1 X-10.988 Y-6.652 E17.87416
G1 X-10.594 Y-7.271 E17.91077
G1 X-10.112 Y-7.929 E17.95146
G1 X-9.651 Y-8.478 E17.98723
G1 X-9.287 Y-8.875 E18.0141
G1 X-8.876 Y-9.286 E18.0431
G1 X-8.48 Y-9.649 E18.0699
G1 X-7.93 Y-10.111 E18.10573
G1 X-7.273 Y-10.593 E18.14639
G1 X-6.656 Y-10.986 E18.18288
G1 X-6.191 Y-11.255 E18.20968
G1 X-5.675 Y-11.524 E18.23872
G1 X-5.189 Y-11.751 E18.26548
G1 X-4.655 Y-11.973 E18.29433
G1 X-4.041 Y-12.191 E18.32683
G1 X-3.294 Y-12.413 E18.36571
G1 X-2.652 Y-12.567 E18.39865
G1 X-1.99 Y-12.689 E18.43223
G1 X-1.4 Y-12.769 E18.46194
