; generated by Slic3r 1.2.9 on 2022-12-16 at 16:09:08

; external perimeters extrusion width = 0.40mm
; perimeters extrusion width = 0.48mm
; infill extrusion width = 0.48mm
; solid infill extrusion width = 0.48mm
; top infill extrusion width = 0.48mm

M107
M190 S60 ; set bed temperature
M104 S200 ; set temperature
G28 ; home all axes
G1 Z5 F5000 ; lift nozzle

M109 S200 ; wait for temperature to be reached
G21 ; set units to millimeters
G90 ; use absolute coordinates
M82 ; use absolute distances for extrusion
G92 E0
G1 Z-0.600 F1800.000
G1 E-2.00000 F2400.00000
G92 E0
G1 X16.714 Y0.000 F1800.000
G1 E2.00000 F2400.00000
G1 X16.714 Y10.000 E3.06889 F1800.000
G1 X16.317 Y12.275 E3.31569
G1 X15.173 Y14.280 E3.56249
G1 X13.417 Y15.780 E3.80929
G1 X11.257 Y16.595 E4.05610
G1 X10.000 Y16.714 E4.19107
G1 X-10.000 Y16.714 E6.32884
G1 X-12.275 Y16.317 E6.57564
G1 X-14.280 Y15.173 E6.82244
G1 X-15.780 Y13.417 E7.06925
G1 X-16.595 Y11.257 E7.31605
G1 X-16.714 Y10.000 E7.45102
G1 X-16.714 Y-10.000 E9.58879
G1 X-16.317 Y-12.275 E9.83559
G1 X-15.173 Y-14.280 E10.08240
G1 X-13.417 Y-15.780 E10.32920
G1 X-11.257 Y-16.595 E10.57600
G1 X-10.000 Y-16.714 E10.71097
G1 X10.000 Y-16.714 E12.84874
G1 X12.275 Y-16.317 E13.09555
G1 X14.280 Y-15.173 E13.34235 F1800.000
G1 X15.780 Y-13.417 E13.58915
G1 X16.595 Y-11.257 E13.83595
G1 X16.714 Y-10.000 E13.97092
G1 X16.714 Y-0.060 E15.03340
G1 E13.03340 F2400.00000
G92 E0
G1 X8.172 Y-8.172 F1800.000
G1 E2.00000 F2400.00000
G1 X8.172 Y8.172 E3.74692 F1800.000
G1 X-8.172 Y8.172 E5.49384
G1 X-8.172 Y-8.172 E7.24076
G1 X8.112 Y-8.172 E8.98127
G1 X8.886 Y-8.886 F1800.000
G1 X8.886 Y8.886 E10.88086 F1800.000
G1 X-8.886 Y8.886 E12.78045
G1 X-8.886 Y-8.886 E14.68004
G1 X8.826 Y-8.886 E16.57322
G1 X9.600 Y-9.600 F1800.000
G1 X9.600 Y9.600 E18.62548 F1800.000
G1 X-9.600 Y9.600 E20.67774
G1 X-9.600 Y-9.600 E22.73001
G1 X9.540 Y-9.600 E24.77586
G1 X9.400 Y-9.254 F1800.000
G1 X7.736 Y-7.393 F1800.000
G1 X7.393 Y-7.736 E24.82942 F1800.000
G1 X6.350 Y-7.736 E24.94464
G1 X7.736 Y-6.350 E25.16115
G1 X7.736 Y-5.306 E25.27637
G1 X5.306 Y-7.736 E25.65582
G1 X4.263 Y-7.736 E25.77104
G1 X7.736 Y-4.263 E26.31344
G1 X7.736 Y-3.220 E26.42866
G1 X3.220 Y-7.736 E27.13400
G1 X2.176 Y-7.736 E27.24922
G1 X7.736 Y-2.176 E28.11751
G1 X7.736 Y-1.133 E28.23273
G1 X1.133 Y-7.736 E29.26396
G1 X0.089 Y-7.736 E29.37918
G1 X7.736 Y-0.089 E30.57336
G1 X7.736 Y0.954 E30.68858
G1 X-0.954 Y-7.736 E32.04570
G1 X-1.997 Y-7.736 E32.16092
G1 X7.736 Y1.997 E33.68099
G1 X7.736 Y3.041 E33.79620
G1 X-3.041 Y-7.736 E35.47922
G1 X-4.084 Y-7.736 E35.59444
G1 X7.736 Y4.084 E37.44039
G1 X7.736 Y5.128 E37.55561
G1 X-5.128 Y-7.736 E39.56451
G1 X-6.171 Y-7.736 E39.67973
G1 X7.736 Y6.171 E41.85158
G1 X7.736 Y7.214 E41.96680
G1 X-7.214 Y-7.736 E44.30159
G1 X-7.736 Y-7.214 E44.38306
G1 X7.214 Y7.736 E46.71785
G1 X6.171 Y7.736 E46.83307
G1 X-7.736 Y-6.171 E49.00492
G1 X-7.736 Y-5.128 E49.12014
G1 X5.128 Y7.736 E51.12904
G1 X4.084 Y7.736 E51.24425
G1 X-7.736 Y-4.084 E53.09021
G1 X-7.736 Y-3.041 E53.20543
G1 X3.041 Y7.736 E54.88844
G1 X1.997 Y7.736 E55.00366
G1 X-7.736 Y-1.997 E56.52372
G1 X-7.736 Y-0.954 E56.63894
G1 X0.954 Y7.736 E57.99606
G1 X-0.089 Y7.736 E58.11128
G1 X-7.736 Y0.089 E59.30546
G1 X-7.736 Y1.133 E59.42068
G1 X-1.133 Y7.736 E60.45191
G1 X-2.176 Y7.736 E60.56713
G1 X-7.736 Y2.176 E61.43542
G1 X-7.736 Y3.220 E61.55063
G1 X-3.220 Y7.736 E62.25598
G1 X-4.263 Y7.736 E62.37120
G1 X-7.736 Y4.263 E62.91359
G1 X-7.736 Y5.306 E63.02881
G1 X-5.306 Y7.736 E63.40826
G1 X-6.350 Y7.736 E63.52348
G1 X-7.736 Y6.350 E63.73999
G1 X-7.736 Y7.393 E63.85521
G1 X-7.393 Y7.736 E63.90877
G1 Z-0.300 F1800.000
G1 X9.004 Y-9.004 F1800.000
G1 X9.004 Y9.004 E64.75550 F3600.000
G1 X-9.004 Y9.004 E65.60223
G1 X-9.004 Y-9.004 E66.44897
G1 X8.944 Y-9.004 E67.29288
G1 X9.423 Y-9.423 F1800.000
G1 X9.423 Y9.423 E68.17900 F3600.000
G1 X-9.423 Y9.423 E69.06512
G1 X-9.423 Y-9.423 E69.95124
G1 X9.363 Y-9.423 E70.83455
G1 X9.800 Y-9.800 F1800.000
G1 X9.800 Y9.800 E71.57296 F1800.000
G1 X-9.800 Y9.800 E72.31138
G1 X-9.800 Y-9.800 E73.04979
G1 X9.740 Y-9.800 E73.78595
G1 X9.600 Y-9.454 F1800.000
G1 X-8.539 Y-8.757 F1800.000
G1 X-8.757 Y-8.539 E73.80052 F1200.000
G1 X-8.757 Y-7.943 E73.82876
G1 X-7.943 Y-8.757 E73.88326
G1 X-7.346 Y-8.757 E73.91150
G1 X-8.757 Y-7.346 E74.00593
G1 X-8.757 Y-6.750 E74.03416
G1 X-6.750 Y-8.757 E74.16852
G1 X-6.153 Y-8.757 E74.19675
G1 X-8.757 Y-6.153 E74.37104
G1 X-8.757 Y-5.557 E74.39927
G1 X-5.557 Y-8.757 E74.61349
G1 X-4.961 Y-8.757 E74.64172
G1 X-8.757 Y-4.961 E74.89587
G1 X-8.757 Y-4.364 E74.92410
G1 X-4.364 Y-8.757 E75.21817
G1 X-3.768 Y-8.757 E75.24640
G1 X-8.757 Y-3.768 E75.58040
G1 X-8.757 Y-3.171 E75.60864
G1 X-3.171 Y-8.757 E75.98256
G1 X-2.575 Y-8.757 E76.01080
G1 X-8.757 Y-2.575 E76.42465
G1 X-8.757 Y-1.979 E76.45289
G1 X-1.979 Y-8.757 E76.90667
G1 X-1.382 Y-8.757 E76.93490
G1 X-8.757 Y-1.382 E77.42862
G1 X-8.757 Y-0.786 E77.45685
G1 X-0.786 Y-8.757 E77.99049
G1 X-0.189 Y-8.757 E78.01872
G1 X-8.757 Y-0.189 E78.59229
G1 X-8.757 Y0.407 E78.62052
G1 X0.407 Y-8.757 E79.23402
G1 X1.003 Y-8.757 E79.26225
G1 X-8.757 Y1.003 E79.91568
G1 X-8.757 Y1.600 E79.94391
G1 X1.600 Y-8.757 E80.63726
G1 X2.196 Y-8.757 E80.66549
G1 X-8.757 Y2.196 E81.39877
G1 X-8.757 Y2.793 E81.42701
G1 X2.793 Y-8.757 E82.20021
G1 X3.389 Y-8.757 E82.22845
G1 X-8.757 Y3.389 E83.04158
G1 X-8.757 Y3.985 E83.06982
G1 X3.985 Y-8.757 E83.92288
G1 X4.582 Y-8.757 E83.95111
G1 X-8.757 Y4.582 E84.84410
G1 X-8.757 Y5.178 E84.87234
G1 X5.178 Y-8.757 E85.80526
G1 X5.775 Y-8.757 E85.83349
G1 X-8.757 Y5.775 E86.80634
G1 X-8.757 Y6.371 E86.83457
G1 X6.371 Y-8.757 E87.84735
G1 X6.967 Y-8.757 E87.87558
G1 X-8.757 Y6.967 E88.92828
G1 X-8.757 Y7.564 E88.95652
G1 X7.564 Y-8.757 E90.04915
G1 X8.160 Y-8.757 E90.07738
G1 X-8.757 Y8.160 E91.20994
G1 X-8.737 Y8.737 E91.23725
G1 X8.737 Y-8.737 E92.40706
G1 X8.757 Y-8.160 E92.43436
G1 X-8.160 Y8.757 E93.56692
G1 X-7.564 Y8.757 E93.59515
G1 X8.757 Y-7.564 E94.68778
G1 X8.757 Y-6.967 E94.71602
G1 X-6.967 Y8.757 E95.76872
G1 X-6.371 Y8.757 E95.79695
G1 X8.757 Y-6.371 E96.80973
G1 X8.757 Y-5.775 E96.83796
G1 X-5.775 Y8.757 E97.81081
G1 X-5.178 Y8.757 E97.83904
G1 X8.757 Y-5.178 E98.77196
G1 X8.757 Y-4.582 E98.80020
G1 X-4.582 Y8.757 E99.69319
G1 X-3.985 Y8.757 E99.72142
G1 X8.757 Y-3.985 E100.57448
G1 X8.757 Y-3.389 E100.60272
G1 X-3.389 Y8.757 E101.41585
G1 X-2.793 Y8.757 E101.44409
G1 X8.757 Y-2.793 E102.21729
G1 X8.757 Y-2.196 E102.24553
G1 X-2.196 Y8.757 E102.97881
G1 X-1.600 Y8.757 E103.00704
G1 X8.757 Y-1.600 E103.70039
G1 X8.757 Y-1.003 E103.72863
G1 X-1.003 Y8.757 E104.38205
G1 X-0.407 Y8.757 E104.41028
G1 X8.757 Y-0.407 E105.02378
G1 X8.757 Y0.189 E105.05201
G1 X0.189 Y8.757 E105.62558
G1 X0.786 Y8.757 E105.65381
G1 X8.757 Y0.786 E106.18745
G1 X8.757 Y1.382 E106.21569
G1 X1.382 Y8.757 E106.70940
G1 X1.979 Y8.757 E106.73763
G1 X8.757 Y1.979 E107.19141
G1 X8.757 Y2.575 E107.21965
G1 X2.575 Y8.757 E107.63350
G1 X3.171 Y8.757 E107.66174
G1 X8.757 Y3.171 E108.03566
G1 X8.757 Y3.768 E108.06390
G1 X3.768 Y8.757 E108.39790
G1 X4.364 Y8.757 E108.42613
G1 X8.757 Y4.364 E108.72020
G1 X8.757 Y4.961 E108.74844
G1 X4.961 Y8.757 E109.00258
G1 X5.557 Y8.757 E109.03081
G1 X8.757 Y5.557 E109.24503
G1 X8.757 Y6.153 E109.27326
G1 X6.153 Y8.757 E109.44755
G1 X6.750 Y8.757 E109.47578
G1 X8.757 Y6.750 E109.61014
G1 X8.757 Y7.346 E109.63838
G1 X7.346 Y8.757 E109.73281
G1 X7.943 Y8.757 E109.76104
G1 X8.757 Y7.943 E109.81554
G1 X8.757 Y8.539 E109.84378
G1 X8.539 Y8.757 E109.85835
G1 Z0.000 F1800.000
G1 X9.004 Y-9.004 F1800.000
G1 X9.004 Y9.004 E110.70508 F3600.000
G1 X-9.004 Y9.004 E111.55182
G1 X-9.004 Y-9.004 E112.39855
G1 X8.944 Y-9.004 E113.24246
G1 X9.423 Y-9.423 F1800.000
G1 X9.423 Y9.423 E114.12858 F3600.000
G1 X-9.423 Y9.423 E115.01470
G1 X-9.423 Y-9.423 E115.90083
G1 X9.363 Y-9.423 E116.78413
G1 X9.800 Y-9.800 F1800.000
G1 X9.800 Y9.800 E117.52254 F1800.000
G1 X-9.800 Y9.800 E118.26096
G1 X-9.800 Y-9.800 E118.99938
G1 X9.740 Y-9.800 E119.73553
G1 X9.600 Y-9.454 F1800.000
G1 X8.757 Y-8.539 F1800.000
G1 X8.539 Y-8.757 E119.75011 F1200.000
G1 X7.943 Y-8.757 E119.77834
G1 X8.757 Y-7.943 E119.83284
G1 X8.757 Y-7.346 E119.86108
G1 X7.346 Y-8.757 E119.95551
G1 X6.750 Y-8.757 E119.98374
G1 X8.757 Y-6.750 E120.11810
G1 X8.757 Y-6.153 E120.14634
G1 X6.153 Y-8.757 E120.32062
G1 X5.557 Y-8.757 E120.34886
G1 X8.757 Y-5.557 E120.56307
G1 X8.757 Y-4.961 E120.59131
G1 X4.961 Y-8.757 E120.84545
G1 X4.364 Y-8.757 E120.87368
G1 X8.757 Y-4.364 E121.16775
G1 X8.757 Y-3.768 E121.19599
G1 X3.768 Y-8.757 E121.52999
G1 X3.171 Y-8.757 E121.55822
G1 X8.757 Y-3.171 E121.93215
G1 X8.757 Y-2.575 E121.96038
G1 X2.575 Y-8.757 E122.37424
G1 X1.979 Y-8.757 E122.40247
G1 X8.757 Y-1.979 E122.85625
G1 X8.757 Y-1.382 E122.88449
G1 X1.382 Y-8.757 E123.37820
G1 X0.786 Y-8.757 E123.40643
G1 X8.757 Y-0.786 E123.94007
G1 X8.757 Y-0.189 E123.96831
G1 X0.189 Y-8.757 E124.54187
G1 X-0.407 Y-8.757 E124.57011
G1 X8.757 Y0.407 E125.18360
G1 X8.757 Y1.003 E125.21184
G1 X-1.003 Y-8.757 E125.86526
G1 X-1.600 Y-8.757 E125.89349
G1 X8.757 Y1.600 E126.58684
G1 X8.757 Y2.196 E126.61508
G1 X-2.196 Y-8.757 E127.34836
G1 X-2.793 Y-8.757 E127.37659
G1 X8.757 Y2.793 E128.14980
G1 X8.757 Y3.389 E128.17803
G1 X-3.389 Y-8.757 E128.99117
G1 X-3.985 Y-8.757 E129.01940
G1 X8.757 Y3.985 E129.87246
G1 X8.757 Y4.582 E129.90070
G1 X-4.582 Y-8.757 E130.79369
G1 X-5.178 Y-8.757 E130.82192
G1 X8.757 Y5.178 E131.75484
G1 X8.757 Y5.775 E131.78308
G1 X-5.775 Y-8.757 E132.75592
G1 X-6.371 Y-8.757 E132.78416
G1 X8.757 Y6.371 E133.79693
G1 X8.757 Y6.967 E133.82516
G1 X-6.967 Y-8.757 E134.87787
G1 X-7.564 Y-8.757 E134.90610
G1 X8.757 Y7.564 E135.99873
G1 X8.757 Y8.160 E136.02697
G1 X-8.160 Y-8.757 E137.15953
G1 X-8.737 Y-8.737 E137.18683
G1 X8.737 Y8.737 E138.35664
G1 X8.160 Y8.757 E138.38394
G1 X-8.757 Y-8.160 E139.51650
G1 X-8.757 Y-7.564 E139.54473
G1 X7.564 Y8.757 E140.63737
G1 X6.967 Y8.757 E140.66560
G1 X-8.757 Y-6.967 E141.71830
G1 X-8.757 Y-6.371 E141.74654
G1 X6.371 Y8.757 E142.75931
G1 X5.775 Y8.757 E142.78755
G1 X-8.757 Y-5.775 E143.76039
G1 X-8.757 Y-5.178 E143.78863
G1 X5.178 Y8.757 E144.72155
G1 X4.582 Y8.757 E144.74978
G1 X-8.757 Y-4.582 E145.64277
G1 X-8.757 Y-3.985 E145.67100
G1 X3.985 Y8.757 E146.52407
G1 X3.389 Y8.757 E146.55230
G1 X-8.757 Y-3.389 E147.36544
G1 X-8.757 Y-2.793 E147.39367
G1 X2.793 Y8.757 E148.16688
G1 X2.196 Y8.757 E148.19511
G1 X-8.757 Y-2.196 E148.92839
G1 X-8.757 Y-1.600 E148.95662
G1 X1.600 Y8.757 E149.64998
G1 X1.003 Y8.757 E149.67821
G1 X-8.757 Y-1.003 E150.33163
G1 X-8.757 Y-0.407 E150.35987
G1 X0.407 Y8.757 E150.97336
G1 X-0.189 Y8.757 E151.00160
G1 X-8.757 Y0.189 E151.57516
G1 X-8.757 Y0.786 E151.60340
G1 X-0.786 Y8.757 E152.13704
G1 X-1.382 Y8.757 E152.16527
G1 X-8.757 Y1.382 E152.65898
G1 X-8.757 Y1.979 E152.68721
G1 X-1.979 Y8.757 E153.14100
G1 X-2.575 Y8.757 E153.16923
G1 X-8.757 Y2.575 E153.58309
G1 X-8.757 Y3.171 E153.61132
G1 X-3.171 Y8.757 E153.98525
G1 X-3.768 Y8.757 E154.01348
G1 X-8.757 Y3.768 E154.34748
G1 X-8.757 Y4.364 E154.37571
G1 X-4.364 Y8.757 E154.66978
G1 X-4.961 Y8.757 E154.69802
G1 X-8.757 Y4.961 E154.95216
G1 X-8.757 Y5.557 E154.98039
G1 X-5.557 Y8.757 E155.19461
G1 X-6.153 Y8.757 E155.22284
G1 X-8.757 Y6.153 E155.39713
G1 X-8.757 Y6.750 E155.42536
G1 X-6.750 Y8.757 E155.55972
G1 X-7.346 Y8.757 E155.58796
G1 X-8.757 Y7.346 E155.68239
G1 X-8.757 Y7.943 E155.71062
G1 X-7.943 Y8.757 E155.76513
G1 X-8.539 Y8.757 E155.79336
G1 X-8.757 Y8.539 E155.80793
M106 S234.6
G1 Z0.300 F1800.000
G1 X9.004 Y-9.004 F1800.000
G1 X9.004 Y9.004 E156.65467 F3600.000
G1 X-9.004 Y9.004 E157.50140
G1 X-9.004 Y-9.004 E158.34813
G1 X8.944 Y-9.004 E159.19204
G1 X9.423 Y-9.423 F1800.000
G1 X9.423 Y9.423 E160.07816 F3600.000
G1 X-9.423 Y9.423 E160.96429
G1 X-9.423 Y-9.423 E161.85041
G1 X9.363 Y-9.423 E162.73371
G1 X9.800 Y-9.800 F1800.000
G1 X9.800 Y9.800 E163.47213 F1800.000
G1 X-9.800 Y9.800 E164.21054
G1 X-9.800 Y-9.800 E164.94896
G1 X9.740 Y-9.800 E165.68511
G1 X9.600 Y-9.454 F1800.000
G1 X-8.757 Y-7.388 F1800.000
G1 X-7.388 Y-8.757 E165.77614 F1800.000
G1 X-4.426 Y-8.757 E165.91541
G1 X-8.757 Y-4.426 E166.20339
G1 X-8.757 Y-1.464 E166.34266
G1 X-1.464 Y-8.757 E166.82760
G1 X1.498 Y-8.757 E166.96687
G1 X-8.757 Y1.498 E167.64877
G1 X-8.757 Y4.460 E167.78804
G1 X4.460 Y-8.757 E168.66690
G1 X7.422 Y-8.757 E168.80617
G1 X-8.757 Y7.422 E169.88199
G1 X-7.130 Y8.757 E169.98094
G1 X8.757 Y-7.130 E171.03734
G1 X8.757 Y-4.168 E171.17661
G1 X-4.168 Y8.757 E172.03605
G1 X-1.206 Y8.757 E172.17532
G1 X8.757 Y-1.206 E172.83780
G1 X8.757 Y1.756 E172.97707
G1 X1.756 Y8.757 E173.44259
G1 X4.718 Y8.757 E173.58186
G1 X8.757 Y4.718 E173.85042
G1 X8.757 Y7.680 E173.98969
G1 X7.680 Y8.757 E174.06130
G1 Z0.600 F1800.000
G1 X9.004 Y-9.004 F1800.000
G1 X9.004 Y9.004 E174.90803 F3600.000
G1 X-9.004 Y9.004 E175.75476
G1 X-9.004 Y-9.004 E176.60149
G1 X8.944 Y-9.004 E177.44540
G1 X9.423 Y-9.423 F1800.000
G1 X9.423 Y9.423 E178.33152 F3600.000
G1 X-9.423 Y9.423 E179.21765
G1 X-9.423 Y-9.423 E180.10377
G1 X9.363 Y-9.423 E180.98707
G1 X9.800 Y-9.800 F1800.000
G1 X9.800 Y9.800 E181.72549 F1800.000
G1 X-9.800 Y9.800 E182.46390
G1 X-9.800 Y-9.800 E183.20232
G1 X9.740 Y-9.800 E183.93847
G1 X9.600 Y-9.454 F1800.000
G1 X8.757 Y-7.680 F1800.000
G1 X7.680 Y-8.757 E184.01008 F1800.000
G1 X4.718 Y-8.757 E184.14935
G1 X8.757 Y-4.718 E184.41791
G1 X8.757 Y-1.756 E184.55718
G1 X1.756 Y-8.757 E185.02270
G1 X-1.206 Y-8.757 E185.16197
G1 X8.757 Y1.206 E185.82445
G1 X8.757 Y4.168 E185.96373
G1 X-4.168 Y-8.757 E186.82316
G1 X-7.130 Y-8.757 E186.96243
G1 X8.757 Y7.130 E188.01883
G1 X7.422 Y8.757 E188.11779
G1 X-8.757 Y-7.422 E189.19360
G1 X-8.757 Y-4.460 E189.33287
G1 X4.460 Y8.757 E190.21173
G1 X1.498 Y8.757 E190.35100
G1 X-8.757 Y-1.498 E191.03290
G1 X-8.757 Y1.464 E191.17217
G1 X-1.464 Y8.757 E191.65711
G1 X-4.426 Y8.757 E191.79638
G1 X-8.757 Y4.426 E192.08436
G1 X-8.757 Y7.388 E192.22364
G1 X-7.388 Y8.757 E192.31466
G1 Z0.900 F1800.000
G1 X9.004 Y-9.004 F1800.000
G1 X9.004 Y9.004 E193.16139 F3600.000
G1 X-9.004 Y9.004 E194.00812
G1 X-9.004 Y-9.004 E194.85485
G1 X8.944 Y-9.004 E195.69876
G1 X9.423 Y-9.423 F1800.000
G1 X9.423 Y9.423 E196.58489 F3600.000
G1 X-9.423 Y9.423 E197.47101
G1 X-9.423 Y-9.423 E198.35713
G1 X9.363 Y-9.423 E199.24043
G1 X9.800 Y-9.800 F1800.000
G1 X9.800 Y9.800 E199.97885 F1800.000
G1 X-9.800 Y9.800 E200.71727
G1 X-9.800 Y-9.800 E201.45568
G1 X9.740 Y-9.800 E202.19184
G1 X9.600 Y-9.454 F1800.000
G1 X-8.757 Y-7.388 F1800.000
G1 X-7.388 Y-8.757 E202.28286 F1800.000
G1 X-4.426 Y-8.757 E202.42213
G1 X-8.757 Y-4.426 E202.71011
G1 X-8.757 Y-1.464 E202.84938
G1 X-1.464 Y-8.757 E203.33432
G1 X1.498 Y-8.757 E203.47359
G1 X-8.757 Y1.498 E204.15549
G1 X-8.757 Y4.460 E204.29476
G1 X4.460 Y-8.757 E205.17362
G1 X7.422 Y-8.757 E205.31289
G1 X-8.757 Y7.422 E206.38871
G1 X-7.130 Y8.757 E206.48767
G1 X8.757 Y-7.130 E207.54406
G1 X8.757 Y-4.168 E207.68333
G1 X-4.168 Y8.757 E208.54277
G1 X-1.206 Y8.757 E208.68204
G1 X8.757 Y-1.206 E209.34452
G1 X8.757 Y1.756 E209.48379
G1 X1.756 Y8.757 E209.94931
G1 X4.718 Y8.757 E210.08858
G1 X8.757 Y4.718 E210.35715
G1 X8.757 Y7.680 E210.49642
G1 X7.680 Y8.757 E210.56802
G1 Z1.200 F1800.000
G1 X9.004 Y-9.004 F1800.000
G1 X9.004 Y9.004 E211.41475 F3600.000
G1 X-9.004 Y9.004 E212.26148
G1 X-9.004 Y-9.004 E213.10821
G1 X8.944 Y-9.004 E213.95212
G1 X9.423 Y-9.423 F1800.000
G1 X9.423 Y9.423 E214.83825 F3600.000
G1 X-9.423 Y9.423 E215.72437
G1 X-9.423 Y-9.423 E216.61049
G1 X9.363 Y-9.423 E217.49380
G1 X9.800 Y-9.800 F1800.000
G1 X9.800 Y9.800 E218.23221 F1800.000
G1 X-9.800 Y9.800 E218.97063
G1 X-9.800 Y-9.800 E219.70904
G1 X9.740 Y-9.800 E220.44520
G1 X9.600 Y-9.454 F1800.000
G1 X8.757 Y-7.680 F1800.000
G1 X7.680 Y-8.757 E220.51680 F1800.000
G1 X4.718 Y-8.757 E220.65607
G1 X8.757 Y-4.718 E220.92464
G1 X8.757 Y-1.756 E221.06391
G1 X1.756 Y-8.757 E221.52943
G1 X-1.206 Y-8.757 E221.66870
G1 X8.757 Y1.206 E222.33118
G1 X8.757 Y4.168 E222.47045
G1 X-4.168 Y-8.757 E223.32989
G1 X-7.130 Y-8.757 E223.46916
G1 X8.757 Y7.130 E224.52555
G1 X7.422 Y8.757 E224.62451
G1 X-8.757 Y-7.422 E225.70033
