; generated by Slic3r 1.2.9 on 2022-12-16 at 16:09:29

; external perimeters extrusion width = 0.40mm
; perimeters extrusion width = 0.48mm
; infill extrusion width = 0.48mm
; solid infill extrusion width = 0.48mm
; top infill extrusion width = 0.48mm

M107
M104 S200 ; set temperature
G28 ; home all axes
G1 Z5 F5000 ; lift nozzle

M109 S200 ; wait for temperature to be reached
G21 ; set units to millimeters
G90 ; use absolute coordinates
M82 ; use absolute distances for extrusion
G92 E0
G1 Z-1.600 F7800.000
G1 E-10.00000 F2400.00000
G92 E0
G1 X84.827 Y85.720 F7800.000
G1 E10.00000 F2400.00000
G1 X86.583 Y84.220 E10.27422 F1800.000
G1 X88.743 Y83.405 E10.54845
G1 X90.000 Y83.286 E10.69842
G1 X110.000 Y83.286 E13.07372
G1 X112.275 Y83.683 E13.34794
G1 X114.280 Y84.827 E13.62217 F1800.000
G1 X115.780 Y86.583 E13.89639
G1 X116.595 Y88.743 E14.17062
G1 X116.714 Y90.000 E14.32059
G1 X116.714 Y110.000 E16.69589
G1 X116.317 Y112.275 E16.97011
G1 X115.173 Y114.280 E17.24434
G1 X113.417 Y115.780 E17.51856
G1 X111.257 Y116.595 E17.79279
G1 X110.000 Y116.714 E17.94275
G1 X90.000 Y116.714 E20.31806
G1 X87.725 Y116.317 E20.59228
G1 X85.720 Y115.173 E20.86651
G1 X84.220 Y113.417 E21.14073
G1 X83.405 Y111.257 E21.41496
G1 X83.286 Y110.000 E21.56492
G1 X83.286 Y90.000 E23.94023
G1 X83.683 Y87.725 E24.21445
G1 X84.797 Y85.772 E24.48155
G1 E14.48155 F2400.00000
G92 E0
G1 X108.172 Y108.172 F7800.000
G1 E10.00000 F2400.00000
G1 X91.828 Y108.172 E11.94102 F1800.000
G1 X91.828 Y91.828 E13.88205
G1 X108.172 Y91.828 E15.82307
G1 X108.172 Y108.112 E17.75696
G1 X108.886 Y108.886 F7800.000
G1 X91.114 Y108.886 E19.86762 F1800.000
G1 X91.114 Y91.114 E21.97828
G1 X108.886 Y91.114 E24.08893
G1 X108.886 Y108.826 E26.19247
G1 X109.600 Y109.600 F7800.000
G1 X90.400 Y109.600 E28.47276 F1800.000
G1 X90.400 Y90.400 E30.75305
G1 X109.600 Y90.400 E33.03334
G1 X109.600 Y109.540 E35.30651
G1 X109.254 Y109.400 F7800.000
G1 X107.565 Y107.142 F7800.000
G1 X107.142 Y107.142 E35.35675 F1800.000
G1 X107.142 Y107.565 E35.40700
G1 X106.427 Y107.565 F7800.000
G1 X106.427 Y106.427 E35.54206 F1800.000
G1 X107.565 Y106.427 E35.67712
G1 X107.565 Y105.713 F7800.000
G1 X105.713 Y105.713 E35.89701 F1800.000
G1 X105.713 Y107.565 E36.11689
G1 X104.999 Y107.565 F7800.000
G1 X104.999 Y104.999 E36.42158 F1800.000
G1 X107.565 Y104.999 E36.72628
G1 X107.565 Y104.285 F7800.000
G1 X104.285 Y104.285 E37.11580 F1800.000
G1 X104.285 Y107.565 E37.50531
G1 X103.571 Y107.565 F7800.000
G1 X103.571 Y103.571 E37.97964 F1800.000
G1 X107.565 Y103.571 E38.45398
G1 X107.565 Y102.857 F7800.000
G1 X102.857 Y102.857 E39.01313 F1800.000
G1 X102.857 Y107.565 E39.57228
G1 X101.851 Y107.565 F7800.000
G1 X100.000 Y105.713 E39.88323 F1800.000
G1 X98.149 Y107.565 E40.19419
G1 X99.577 Y107.565 F7800.000
G1 X100.000 Y107.142 E40.26525 F1800.000
G1 X100.423 Y107.565 E40.33631
G1 X96.429 Y107.565 F7800.000
G1 X96.429 Y103.571 E40.81064 F1800.000
G1 X92.435 Y103.571 E41.28498
G1 X92.435 Y104.285 F7800.000
G1 X95.715 Y104.285 E41.67449 F1800.000
G1 X95.715 Y107.565 E42.06401
G1 X95.001 Y107.565 F7800.000
G1 X95.001 Y104.999 E42.36871 F1800.000
G1 X92.435 Y104.999 E42.67340
G1 X92.435 Y105.713 F7800.000
G1 X94.287 Y105.713 E42.89329 F1800.000
G1 X94.287 Y107.565 E43.11317
G1 X93.573 Y107.565 F7800.000
G1 X93.573 Y106.427 E43.24823 F1800.000
G1 X92.435 Y106.427 E43.38329
G1 X92.435 Y107.142 F7800.000
G1 X92.858 Y107.142 E43.43354 F1800.000
G1 X92.858 Y107.565 E43.48379
G1 X92.435 Y102.857 F7800.000
G1 X97.143 Y102.857 E44.04294 F1800.000
G1 X97.143 Y107.142 E44.55184
G1 X100.000 Y104.285 E45.03164
G1 X102.142 Y106.427 E45.39149
G1 X102.142 Y102.142 E45.90039
G1 X106.427 Y102.142 E46.40930
G1 X104.285 Y100.000 E46.76914
G1 X106.427 Y97.858 E47.12899
G1 X102.142 Y97.858 E47.63790
G1 X102.142 Y93.573 E48.14680
G1 X100.000 Y95.715 E48.50665
G1 X97.858 Y93.573 E48.86650
G1 X97.858 Y97.858 E49.37540
G1 X93.573 Y97.858 E49.88431
G1 X95.715 Y100.000 E50.24416
G1 X93.573 Y102.142 E50.60400
G1 X97.858 Y102.142 E51.11291
G1 X97.858 Y104.999 E51.45218
G1 X100.000 Y102.857 E51.81203
G1 X101.428 Y104.285 E52.05193
G1 X101.428 Y101.428 E52.39119
G1 X104.285 Y101.428 E52.73046
G1 X102.857 Y100.000 E52.97036
G1 X104.285 Y98.572 E53.21026
G1 X101.428 Y98.572 E53.54953
G1 X101.428 Y95.715 E53.88880
G1 X100.000 Y97.143 E54.12870
G1 X98.572 Y95.715 E54.36860
G1 X98.572 Y98.572 E54.70787
G1 X95.715 Y98.572 E55.04714
G1 X97.143 Y100.000 E55.28704
G1 X95.715 Y101.428 E55.52694
G1 X98.572 Y101.428 E55.86620
G1 X98.572 Y102.857 E56.03584
G1 X100.000 Y101.428 E56.27574
G1 X100.714 Y102.142 E56.39569
G1 X100.714 Y100.714 E56.56532
G1 X102.142 Y100.714 E56.73496
G1 X101.428 Y100.000 E56.85491
G1 X102.142 Y99.286 E56.97486
G1 X100.714 Y99.286 E57.14449
G1 X100.714 Y97.858 E57.31413
G1 X100.000 Y98.572 E57.43408
G1 X99.286 Y97.858 E57.55403
G1 X99.286 Y99.286 E57.72366
G1 X97.858 Y99.286 E57.89329
G1 X98.572 Y100.000 E58.01324
G1 X97.858 Y100.714 E58.13319
G1 X99.286 Y100.714 E58.30283
G1 X100.000 Y100.000 E58.42278
G1 X107.565 Y99.577 F7800.000
G1 X107.142 Y100.000 E58.49384 F1800.000
G1 X107.565 Y100.423 E58.56490
G1 X107.565 Y101.851 F7800.000
G1 X105.713 Y100.000 E58.87585 F1800.000
G1 X107.565 Y98.149 E59.18681
G1 X107.565 Y97.143 F7800.000
G1 X102.857 Y97.143 E59.74596 F1800.000
G1 X102.857 Y92.435 E60.30511
G1 X103.571 Y92.435 F7800.000
G1 X103.571 Y96.429 E60.77945 F1800.000
G1 X107.565 Y96.429 E61.25378
G1 X107.565 Y95.715 F7800.000
G1 X104.285 Y95.715 E61.64329 F1800.000
G1 X104.285 Y92.435 E62.03281
G1 X104.999 Y92.435 F7800.000
G1 X104.999 Y95.001 E62.33751 F1800.000
G1 X107.565 Y95.001 E62.64221
G1 X107.565 Y94.287 F7800.000
G1 X105.713 Y94.287 E62.86209 F1800.000
G1 X105.713 Y92.435 E63.08197
G1 X106.427 Y92.435 F7800.000
G1 X106.427 Y93.573 E63.21703 F1800.000
G1 X107.565 Y93.573 E63.35210
G1 X107.565 Y92.858 F7800.000
G1 X107.142 Y92.858 E63.40234 F1800.000
G1 X107.142 Y92.435 E63.45259
G1 X101.851 Y92.435 F7800.000
G1 X100.000 Y94.287 E63.76355 F1800.000
G1 X98.149 Y92.435 E64.07451
G1 X97.143 Y92.435 F7800.000
G1 X97.143 Y97.143 E64.63366 F1800.000
G1 X92.435 Y97.143 E65.19281
G1 X92.435 Y96.429 F7800.000
G1 X96.429 Y96.429 E65.66714 F1800.000
G1 X96.429 Y92.435 E66.14147
G1 X95.715 Y92.435 F7800.000
G1 X95.715 Y95.715 E66.53099 F1800.000
G1 X92.435 Y95.715 E66.92051
G1 X92.435 Y95.001 F7800.000
G1 X95.001 Y95.001 E67.22520 F1800.000
G1 X95.001 Y92.435 E67.52990
G1 X94.287 Y92.435 F7800.000
G1 X94.287 Y94.287 E67.74978 F1800.000
G1 X92.435 Y94.287 E67.96967
G1 X92.435 Y93.573 F7800.000
G1 X93.573 Y93.573 E68.10473 F1800.000
G1 X93.573 Y92.435 E68.23979
G1 X92.858 Y92.435 F7800.000
G1 X92.858 Y92.858 E68.29004 F1800.000
G1 X92.435 Y92.858 E68.34029
G1 X92.435 Y98.149 F7800.000
G1 X94.287 Y100.000 E68.65125 F1800.000
G1 X92.435 Y101.851 E68.96221
G1 X92.435 Y100.423 F7800.000
G1 X92.858 Y100.000 E69.03327 F1800.000
G1 X92.435 Y99.577 E69.10433
G1 X99.577 Y92.435 F7800.000
G1 X100.000 Y92.858 E69.17539 F1800.000
G1 X100.423 Y92.435 E69.24645
G1 Z-1.300 F7800.000
G1 X109.004 Y109.004 F7800.000
G1 X90.996 Y109.004 E70.18726 F3600.000
G1 X90.996 Y90.996 E71.12807
G1 X109.004 Y90.996 E72.06888
G1 X109.004 Y108.944 E73.00656
G1 X109.423 Y109.423 F7800.000
G1 X90.577 Y109.423 E73.99114 F3600.000
G1 X90.577 Y90.577 E74.97572
G1 X109.423 Y90.577 E75.96031
G1 X109.423 Y109.363 E76.94175
G1 X109.800 Y109.800 F7800.000
G1 X90.200 Y109.800 E77.76221 F1800.000
G1 X90.200 Y90.200 E78.58268
G1 X109.800 Y90.200 E79.40314
G1 X109.800 Y109.740 E80.22109
G1 X109.454 Y109.600 F7800.000
G1 X108.539 Y108.757 F7800.000
G1 X108.757 Y108.539 E80.23728 F1200.000
G1 X108.757 Y107.943 E80.26865
G1 X107.943 Y108.757 E80.32921
G1 X107.346 Y108.757 E80.36058
G1 X108.757 Y107.346 E80.46551
G1 X108.757 Y106.750 E80.49688
G1 X106.750 Y108.757 E80.64617
G1 X106.153 Y108.757 E80.67754
G1 X108.757 Y106.153 E80.87119
G1 X108.757 Y105.557 E80.90256
G1 X105.557 Y108.757 E81.14058
G1 X104.961 Y108.757 E81.17195
G1 X108.757 Y104.961 E81.45433
G1 X108.757 Y104.364 E81.48570
G1 X104.364 Y108.757 E81.81245
G1 X103.768 Y108.757 E81.84382
G1 X108.757 Y103.768 E82.21493
G1 X108.757 Y103.171 E82.24630
G1 X103.171 Y108.757 E82.66177
G1 X102.575 Y108.757 E82.69314
G1 X108.757 Y102.575 E83.15298
G1 X108.757 Y101.979 E83.18435
G1 X101.979 Y108.757 E83.68856
G1 X101.382 Y108.757 E83.71993
G1 X108.757 Y101.382 E84.26850
G1 X108.757 Y100.786 E84.29987
G1 X100.786 Y108.757 E84.89280
G1 X100.189 Y108.757 E84.92417
G1 X108.757 Y100.189 E85.56147
G1 X108.757 Y99.593 E85.59284
G1 X99.593 Y108.757 E86.27450
G1 X98.997 Y108.757 E86.30587
G1 X108.757 Y98.997 E87.03190
G1 X108.757 Y98.400 E87.06327
G1 X98.400 Y108.757 E87.83366
G1 X97.804 Y108.757 E87.86503
G1 X108.757 Y97.804 E88.67978
G1 X108.757 Y97.207 E88.71115
G1 X97.207 Y108.757 E89.57027
G1 X96.611 Y108.757 E89.60164
G1 X108.757 Y96.611 E90.50513
G1 X108.757 Y96.015 E90.53650
G1 X96.015 Y108.757 E91.48435
G1 X95.418 Y108.757 E91.51572
G1 X108.757 Y95.418 E92.50793
G1 X108.757 Y94.822 E92.53930
G1 X94.822 Y108.757 E93.57588
G1 X94.225 Y108.757 E93.60725
G1 X108.757 Y94.225 E94.68819
G1 X108.757 Y93.629 E94.71956
G1 X93.629 Y108.757 E95.84487
G1 X93.033 Y108.757 E95.87624
G1 X108.757 Y93.033 E97.04591
G1 X108.757 Y92.436 E97.07728
G1 X92.436 Y108.757 E98.29131
G1 X91.840 Y108.757 E98.32268
G1 X108.757 Y91.840 E99.58108
G1 X108.737 Y91.263 E99.61142
G1 X91.263 Y108.737 E100.91121
G1 X91.243 Y108.160 E100.94154
G1 X108.160 Y91.243 E102.19994
G1 X107.564 Y91.243 E102.23131
G1 X91.243 Y107.564 E103.44535
G1 X91.243 Y106.967 E103.47672
G1 X106.967 Y91.243 E104.64639
G1 X106.371 Y91.243 E104.67776
G1 X91.243 Y106.371 E105.80307
G1 X91.243 Y105.775 E105.83444
G1 X105.775 Y91.243 E106.91538
G1 X105.178 Y91.243 E106.94675
G1 X91.243 Y105.178 E107.98333
G1 X91.243 Y104.582 E108.01470
G1 X104.582 Y91.243 E109.00691
G1 X103.985 Y91.243 E109.03828
G1 X91.243 Y103.985 E109.98613
G1 X91.243 Y103.389 E110.01750
G1 X103.389 Y91.243 E110.92098
G1 X102.793 Y91.243 E110.95235
G1 X91.243 Y102.793 E111.81147
G1 X91.243 Y102.196 E111.84284
G1 X102.196 Y91.243 E112.65760
G1 X101.600 Y91.243 E112.68897
G1 X91.243 Y101.600 E113.45936
G1 X91.243 Y101.003 E113.49073
G1 X101.003 Y91.243 E114.21676
G1 X100.407 Y91.243 E114.24813
G1 X91.243 Y100.407 E114.92979
G1 X91.243 Y99.811 E114.96116
G1 X99.811 Y91.243 E115.59846
G1 X99.214 Y91.243 E115.62983
G1 X91.243 Y99.214 E116.22276
G1 X91.243 Y98.618 E116.25413
G1 X98.618 Y91.243 E116.80270
G1 X98.021 Y91.243 E116.83407
G1 X91.243 Y98.021 E117.33827
G1 X91.243 Y97.425 E117.36964
G1 X97.425 Y91.243 E117.82948
G1 X96.829 Y91.243 E117.86085
G1 X91.243 Y96.829 E118.27633
G1 X91.243 Y96.232 E118.30770
G1 X96.232 Y91.243 E118.67881
G1 X95.636 Y91.243 E118.71018
G1 X91.243 Y95.636 E119.03693
G1 X91.243 Y95.039 E119.06830
G1 X95.039 Y91.243 E119.35068
G1 X94.443 Y91.243 E119.38205
G1 X91.243 Y94.443 E119.62007
G1 X91.243 Y93.847 E119.65144
G1 X93.847 Y91.243 E119.84509
G1 X93.250 Y91.243 E119.87646
G1 X91.243 Y93.250 E120.02575
G1 X91.243 Y92.654 E120.05712
G1 X92.654 Y91.243 E120.16204
G1 X92.057 Y91.243 E120.19341
G1 X91.243 Y92.057 E120.25397
G1 X91.243 Y91.461 E120.28534
G1 X91.461 Y91.243 E120.30154
G1 Z-1.000 F7800.000
G1 X109.004 Y109.004 F7800.000
G1 X90.996 Y109.004 E121.24235 F3600.000
G1 X90.996 Y90.996 E122.18316
G1 X109.004 Y90.996 E123.12397
G1 X109.004 Y108.944 E124.06165
G1 X109.423 Y109.423 F7800.000
G1 X90.577 Y109.423 E125.04623 F3600.000
G1 X90.577 Y90.577 E126.03082
G1 X109.423 Y90.577 E127.01540
G1 X109.423 Y109.363 E127.99684
G1 X109.800 Y109.800 F7800.000
G1 X90.200 Y109.800 E128.81730 F1800.000
G1 X90.200 Y90.200 E129.63777
G1 X109.800 Y90.200 E130.45823
G1 X109.800 Y109.740 E131.27618
G1 X109.454 Y109.600 F7800.000
G1 X108.757 Y91.461 F7800.000
G1 X108.539 Y91.243 E131.29237 F1200.000
G1 X107.943 Y91.243 E131.32374
G1 X108.757 Y92.057 E131.38430
G1 X108.757 Y92.654 E131.41567
G1 X107.346 Y91.243 E131.52060
G1 X106.750 Y91.243 E131.55197
G1 X108.757 Y93.250 E131.70126
G1 X108.757 Y93.847 E131.73263
G1 X106.153 Y91.243 E131.92628
G1 X105.557 Y91.243 E131.95765
G1 X108.757 Y94.443 E132.19567
G1 X108.757 Y95.039 E132.22704
G1 X104.961 Y91.243 E132.50942
G1 X104.364 Y91.243 E132.54079
G1 X108.757 Y95.636 E132.86754
G1 X108.757 Y96.232 E132.89891
G1 X103.768 Y91.243 E133.27002
G1 X103.171 Y91.243 E133.30139
G1 X108.757 Y96.829 E133.71686
G1 X108.757 Y97.425 E133.74824
G1 X102.575 Y91.243 E134.20807
G1 X101.979 Y91.243 E134.23945
G1 X108.757 Y98.021 E134.74365
G1 X108.757 Y98.618 E134.77502
G1 X101.382 Y91.243 E135.32359
G1 X100.786 Y91.243 E135.35496
G1 X108.757 Y99.214 E135.94789
G1 X108.757 Y99.811 E135.97926
G1 X100.189 Y91.243 E136.61656
G1 X99.593 Y91.243 E136.64793
G1 X108.757 Y100.407 E137.32959
G1 X108.757 Y101.003 E137.36096
G1 X98.997 Y91.243 E138.08699
G1 X98.400 Y91.243 E138.11836
G1 X108.757 Y101.600 E138.88875
G1 X108.757 Y102.196 E138.92012
G1 X97.804 Y91.243 E139.73487
G1 X97.207 Y91.243 E139.76624
G1 X108.757 Y102.793 E140.62536
G1 X108.757 Y103.389 E140.65673
G1 X96.611 Y91.243 E141.56022
G1 X96.015 Y91.243 E141.59159
G1 X108.757 Y103.985 E142.53944
G1 X108.757 Y104.582 E142.57081
G1 X95.418 Y91.243 E143.56302
G1 X94.822 Y91.243 E143.59439
G1 X108.757 Y105.178 E144.63097
G1 X108.757 Y105.775 E144.66234
G1 X94.225 Y91.243 E145.74328
G1 X93.629 Y91.243 E145.77465
G1 X108.757 Y106.371 E146.89996
G1 X108.757 Y106.967 E146.93133
G1 X93.033 Y91.243 E148.10100
G1 X92.436 Y91.243 E148.13237
G1 X108.757 Y107.564 E149.34640
G1 X108.757 Y108.160 E149.37777
G1 X91.840 Y91.243 E150.63617
G1 X91.263 Y91.263 E150.66651
G1 X108.737 Y108.737 E151.96630
G1 X108.160 Y108.757 E151.99664
G1 X91.243 Y91.840 E153.25504
G1 X91.243 Y92.436 E153.28641
G1 X107.564 Y108.757 E154.50044
G1 X106.967 Y108.757 E154.53181
G1 X91.243 Y93.033 E155.70148
G1 X91.243 Y93.629 E155.73285
G1 X106.371 Y108.757 E156.85816
G1 X105.775 Y108.757 E156.88953
G1 X91.243 Y94.225 E157.97047
G1 X91.243 Y94.822 E158.00184
G1 X105.178 Y108.757 E159.03842
G1 X104.582 Y108.757 E159.06979
G1 X91.243 Y95.418 E160.06200
G1 X91.243 Y96.015 E160.09337
G1 X103.985 Y108.757 E161.04122
G1 X103.389 Y108.757 E161.07259
G1 X91.243 Y96.611 E161.97607
G1 X91.243 Y97.207 E162.00744
G1 X102.793 Y108.757 E162.86656
G1 X102.196 Y108.757 E162.89793
G1 X91.243 Y97.804 E163.71269
G1 X91.243 Y98.400 E163.74406
G1 X101.600 Y108.757 E164.51445
G1 X101.003 Y108.757 E164.54582
G1 X91.243 Y98.997 E165.27185
G1 X91.243 Y99.593 E165.30322
G1 X100.407 Y108.757 E165.98488
G1 X99.811 Y108.757 E166.01625
G1 X91.243 Y100.189 E166.65355
G1 X91.243 Y100.786 E166.68492
G1 X99.214 Y108.757 E167.27785
G1 X98.618 Y108.757 E167.30922
G1 X91.243 Y101.382 E167.85779
G1 X91.243 Y101.979 E167.88916
G1 X98.021 Y108.757 E168.39336
G1 X97.425 Y108.757 E168.42473
G1 X91.243 Y102.575 E168.88457
G1 X91.243 Y103.171 E168.91594
G1 X96.829 Y108.757 E169.33142
G1 X96.232 Y108.757 E169.36279
G1 X91.243 Y103.768 E169.73390
G1 X91.243 Y104.364 E169.76527
G1 X95.636 Y108.757 E170.09202
G1 X95.039 Y108.757 E170.12339
G1 X91.243 Y104.961 E170.40577
G1 X91.243 Y105.557 E170.43714
G1 X94.443 Y108.757 E170.67516
G1 X93.847 Y108.757 E170.70653
G1 X91.243 Y106.153 E170.90018
G1 X91.243 Y106.750 E170.93155
G1 X93.250 Y108.757 E171.08084
G1 X92.654 Y108.757 E171.11221
G1 X91.243 Y107.346 E171.21713
G1 X91.243 Y107.943 E171.24850
G1 X92.057 Y108.757 E171.30906
G1 X91.461 Y108.757 E171.34043
G1 X91.243 Y108.539 E171.35663
M106 S249.9
G1 Z-0.700 F7800.000
G1 X109.004 Y109.004 F7800.000
G1 X90.996 Y109.004 E172.29744 F3600.000
G1 X90.996 Y90.996 E173.23825
G1 X109.004 Y90.996 E174.17907
G1 X109.004 Y108.944 E175.11674
G1 X109.423 Y109.423 F7800.000
G1 X90.577 Y109.423 E176.10132 F3600.000
G1 X90.577 Y90.577 E177.08591
G1 X109.423 Y90.577 E178.07049
G1 X109.423 Y109.363 E179.05193
G1 X109.800 Y109.800 F7800.000
G1 X90.200 Y109.800 E179.87240 F1800.000
G1 X90.200 Y90.200 E180.69286
G1 X109.800 Y90.200 E181.51332
G1 X109.800 Y109.740 E182.33127
G1 X109.454 Y109.600 F7800.000
G1 X108.648 Y108.378 F7800.000
G1 X108.378 Y108.378 E182.34539 F4800.000
G1 X108.378 Y108.648 E182.35951
