;FLAVOR:Marlin
;TIME:936
;Filament used: 0.689586m
;Layer height: 0.15
;MINX:-14
;MINY:-14
;MINZ:0.3
;MAXX:14
;MAXY:14
;MAXZ:14.85
;Generated with Cura_SteamEngine 5.2.1
M140 S60
M105
M190 S60
M104 S210
M105
M109 S210
M82 ;absolute extrusion mode
G28 ;Home
G1 Z15.0 F6000 ;Move the platform down 15mm
;Prime the extruder
G92 E0
G1 F200 E3
G92 E0
M141 S28
G92 E0
G92 E0
G1 F1500 E-6.5
;LAYER_COUNT:98
;LAYER:0
M107
G0 F3600 X14 Y9.314 Z0.3
;TYPE:SKIRT
G1 F1500 E0
G1 X13.991 Y10.041 E0.03627
G1 X13.944 Y10.604 E0.06446
G1 X13.818 Y11.155 E0.09266
G1 X13.616 Y11.683 E0.12086
G1 X13.341 Y12.177 E0.14907
G1 X12.999 Y12.627 E0.17727
G1 X12.597 Y13.025 E0.20549
G1 X12.144 Y13.362 E0.23366
G1 X11.647 Y13.632 E0.26188
G1 X11.117 Y13.829 E0.29009
G1 X10.565 Y13.95 E0.31828
G1 X9.973 Y14 E0.34792
G1 X-9.345 Y14 E1.3117
G1 X-10.043 Y13.991 E1.34652
G1 X-10.606 Y13.943 E1.37471
G1 X-11.157 Y13.817 E1.40291
G1 X-11.685 Y13.615 E1.43112
G1 X-12.179 Y13.34 E1.45932
G1 X-12.629 Y12.998 E1.48752
G1 X-13.027 Y12.596 E1.51575
G1 X-13.363 Y12.142 E1.54392
G1 X-13.633 Y11.645 E1.57214
G1 X-13.83 Y11.115 E1.60035
G1 X-13.95 Y10.563 E1.62853
G1 X-13.999 Y9.995 E1.65698
G1 X-14 Y-9.38 E2.6236
G1 X-13.991 Y-10.045 E2.65678
G1 X-13.943 Y-10.608 E2.68497
G1 X-13.817 Y-11.159 E2.71317
G1 X-13.614 Y-11.687 E2.74139
G1 X-13.338 Y-12.181 E2.76962
G1 X-12.996 Y-12.631 E2.79782
G1 X-12.594 Y-13.028 E2.82601
G1 X-12.14 Y-13.365 E2.85422
G1 X-11.643 Y-13.634 E2.88241
G1 X-11.113 Y-13.831 E2.91062
G1 X-10.56 Y-13.95 E2.93884
G1 X-9.974 Y-14 E2.96818
G1 X9.35 Y-14 E3.93226
G1 X10.048 Y-13.99 E3.96709
G1 X10.612 Y-13.942 E3.99533
G1 X11.162 Y-13.815 E4.02349
G1 X11.69 Y-13.611 E4.05173
G1 X12.184 Y-13.336 E4.07994
G1 X12.633 Y-12.993 E4.10813
G1 X13.03 Y-12.591 E4.13631
G1 X13.367 Y-12.136 E4.16456
G1 X13.635 Y-11.639 E4.19273
G1 X13.831 Y-11.109 E4.22092
G1 X13.951 Y-10.556 E4.24916
G1 X14 Y-9.971 E4.27844
G1 X14 Y9.314 E5.24058
G0 F3600 X13.6 Y9.309
G1 F1500 X13.591 Y10.036 E5.27685
G1 X13.544 Y10.57 E5.30359
G1 X13.419 Y11.091 E5.33032
G1 X13.217 Y11.588 E5.35709
G1 X12.944 Y12.05 E5.38386
G1 X12.606 Y12.466 E5.4106
G1 X12.209 Y12.827 E5.43737
G1 X11.763 Y13.125 E5.46413
G1 X11.278 Y13.353 E5.49087
G1 X10.764 Y13.507 E5.51764
G1 X10.019 Y13.599 E5.55509
G1 X-9.339 Y13.6 E6.52087
G1 X-10.037 Y13.591 E6.55569
G1 X-10.572 Y13.544 E6.58249
G1 X-11.093 Y13.418 E6.60923
G1 X-11.59 Y13.216 E6.63599
G1 X-12.051 Y12.943 E6.66272
G1 X-12.467 Y12.604 E6.6895
G1 X-12.828 Y12.208 E6.71623
G1 X-13.126 Y11.762 E6.74299
G1 X-13.354 Y11.276 E6.76977
G1 X-13.507 Y10.762 E6.79653
G1 X-13.599 Y10.015 E6.83408
G1 X-13.6 Y-9.375 E7.80145
G1 X-13.591 Y-10.04 E7.83463
G1 X-13.543 Y-10.574 E7.86138
G1 X-13.417 Y-11.095 E7.88812
G1 X-13.215 Y-11.592 E7.91489
G1 X-12.942 Y-12.053 E7.94162
G1 X-12.603 Y-12.469 E7.96839
G1 X-12.206 Y-12.829 E7.99513
G1 X-11.759 Y-13.127 E8.02193
G1 X-11.274 Y-13.355 E8.04867
G1 X-10.76 Y-13.508 E8.07542
G1 X-10.019 Y-13.599 E8.11267
G1 X9.345 Y-13.6 E9.07874
G1 X10.043 Y-13.59 E9.11357
G1 X10.577 Y-13.542 E9.14032
G1 X11.098 Y-13.416 E9.16706
G1 X11.595 Y-13.213 E9.19384
G1 X12.056 Y-12.939 E9.2206
G1 X12.471 Y-12.6 E9.24733
G1 X12.831 Y-12.202 E9.27411
G1 X13.128 Y-11.756 E9.30084
G1 X13.356 Y-11.27 E9.32762
G1 X13.508 Y-10.756 E9.35436
G1 X13.599 Y-10.018 E9.39146
G1 X13.6 Y9.309 E10.35569
G0 F3600 X13.2 Y9.304
G1 F1500 X13.191 Y10.031 E10.39196
G1 X13.145 Y10.534 E10.41716
G1 X13.02 Y11.024 E10.44239
G1 X12.819 Y11.488 E10.46762
G1 X12.548 Y11.915 E10.49285
G1 X12.213 Y12.294 E10.51809
G1 X11.823 Y12.615 E10.54329
G1 X11.387 Y12.871 E10.56851
G1 X10.916 Y13.054 E10.59372
G1 X10.422 Y13.162 E10.61895
G1 X9.972 Y13.199 E10.64147
G1 X-9.334 Y13.2 E11.60465
G1 X-10.032 Y13.191 E11.63948
G1 X-10.536 Y13.144 E11.66473
G1 X-11.026 Y13.019 E11.68996
G1 X-11.49 Y12.818 E11.71519
G1 X-11.916 Y12.547 E11.74038
G1 X-12.295 Y12.212 E11.76562
G1 X-12.616 Y11.821 E11.79086
G1 X-12.871 Y11.385 E11.81605
G1 X-13.055 Y10.914 E11.84128
G1 X-13.162 Y10.42 E11.8665
G1 X-13.199 Y9.967 E11.88917
G1 X-13.2 Y-9.369 E12.85385
G1 X-13.191 Y-10.034 E12.88703
G1 X-13.144 Y-10.538 E12.91229
G1 X-13.018 Y-11.027 E12.93748
G1 X-12.817 Y-11.491 E12.96271
G1 X-12.546 Y-11.918 E12.98794
G1 X-12.211 Y-12.296 E13.01314
G1 X-11.82 Y-12.617 E13.03838
G1 X-11.383 Y-12.872 E13.06362
G1 X-10.912 Y-13.056 E13.08885
G1 X-10.418 Y-13.162 E13.11405
G1 X-9.973 Y-13.199 E13.13633
G1 X9.339 Y-13.2 E14.09981
G1 X10.037 Y-13.19 E14.13464
G1 X10.54 Y-13.143 E14.15984
G1 X11.03 Y-13.017 E14.18508
G1 X11.494 Y-12.815 E14.21033
G1 X11.92 Y-12.543 E14.23555
G1 X12.298 Y-12.208 E14.26074
G1 X12.618 Y-11.817 E14.28595
G1 X12.873 Y-11.38 E14.31119
G1 X13.056 Y-10.909 E14.3364
G1 X13.163 Y-10.415 E14.36162
G1 X13.199 Y-9.76 E14.39435
G1 X13.2 Y9.304 E15.34546
G1 F1500 E8.84546
;MESH:cable holder v1.stl
G0 F3600 X10.665 Y9.304
G0 X9.58 Y9.304
G0 X-9.13 Y-9.13
G1 F1500 E15.34546
G0 F3600 X-9.4 Y-9.4
;TYPE:WALL-INNER
G1 F1500 X-9.4 Y0.00 E15.81442
G1 X-9.4 Y9.4 E16.28339
G1 X9.4 Y9.4 E17.22133
G1 X9.4 Y-9.4 E18.15926
G1 X-9.4 Y-9.4 E19.0972
G0 F3600 X-9.8 Y-9.8
;TYPE:WALL-OUTER
G1 F1500 X-9.8 Y0.00 E19.58612
G1 X-9.8 Y9.8 E20.07505
G1 X9.8 Y9.8 E21.05289
G1 X9.8 Y-9.8 E22.03074
G1 X-9.8 Y-9.8 E23.00859
G0 F3600 X-9.8 Y-9.6
G0 X-9.02 Y-9.02
;TYPE:SKIN
G1 F1500 X-9.02 Y9.02 E23.90861
G1 X9.02 Y9.02 E24.80863
G1 X9.02 Y0.00 E25.25864
G1 X9.02 Y-9.02 E25.70865
G1 X-9.02 Y-9.02 E26.60867
G0 F3600 X8.716 Y-8.819
G1 F1500 X8.819 Y-8.716 E26.61593
G0 F3600 X8.819 Y-8.15
G1 F1500 X8.15 Y-8.819 E26.66314
G0 F3600 X7.585 Y-8.819
G1 F1500 X8.819 Y-7.585 E26.7502
G0 F3600 X8.819 Y-7.019
G1 F1500 X7.019 Y-8.819 E26.8772
G0 F3600 X6.453 Y-8.819
G1 F1500 X8.819 Y-6.453 E27.04414
G0 F3600 X8.819 Y-5.888
G1 F1500 X5.888 Y-8.819 E27.25093
G0 F3600 X5.322 Y-8.819
G1 F1500 X8.819 Y-5.322 E27.49767
G0 F3600 X8.819 Y-4.756
G1 F1500 X4.756 Y-8.819 E27.78433
G0 F3600 X4.191 Y-8.819
G1 F1500 X8.819 Y-4.191 E28.11086
G0 F3600 X8.819 Y-3.625
G1 F1500 X3.625 Y-8.819 E28.47733
G0 F3600 X3.059 Y-8.819
G1 F1500 X8.819 Y-3.059 E28.88373
G0 F3600 X8.819 Y-2.493
G1 F1500 X2.493 Y-8.819 E29.33006
G0 F3600 X1.928 Y-8.819
G1 F1500 X8.819 Y-1.928 E29.81626
G0 F3600 X8.819 Y-1.362
G1 F1500 X1.362 Y-8.819 E30.34239
G0 F3600 X0.796 Y-8.819
G1 F1500 X8.819 Y-.796 E30.90845
G0 F3600 X8.819 Y-.231
G1 F1500 X0.231 Y-8.819 E31.51438
G0 F3600 X-.334 Y-8.819
G1 F1500 X8.819 Y0.334 E32.16018
G0 F3600 X8.819 Y0.9
G1 F1500 X-.9 Y-8.819 E32.84591
G0 F3600 X-1.465 Y-8.819
G1 F1500 X8.819 Y1.465 E33.5715
G0 F3600 X8.819 Y2.031
G1 F1500 X-2.031 Y-8.819 E34.33702
G0 F3600 X-2.597 Y-8.819
G1 F1500 X8.819 Y2.597 E35.14248
G0 F3600 X8.819 Y3.162
G1 F1500 X-3.162 Y-8.819 E35.98781
G0 F3600 X-3.728 Y-8.819
G1 F1500 X8.819 Y3.728 E36.87307
G0 F3600 X8.819 Y4.294
G1 F1500 X-4.294 Y-8.819 E37.79826
G0 F3600 X-4.859 Y-8.819
G1 F1500 X8.819 Y4.859 E38.76332
G0 F3600 X8.819 Y5.425
G1 F1500 X-5.425 Y-8.819 E39.76831
G0 F3600 X-5.991 Y-8.819
G1 F1500 X8.819 Y5.991 E40.81323
G0 F3600 X8.819 Y6.557
G1 F1500 X-6.557 Y-8.819 E41.89809
G0 F3600 X-7.122 Y-8.819
G1 F1500 X8.819 Y7.122 E43.02282
G0 F3600 X8.819 Y7.688
G1 F1500 X-7.688 Y-8.819 E44.18747
G0 F3600 X-8.254 Y-8.819
G1 F1500 X8.819 Y8.254 E45.39207
G0 F3600 X8.819 Y8.819
G1 F1500 X-8.819 Y-8.819 E46.63652
G0 F3600 X-8.819 Y-8.254
G1 F1500 X8.254 Y8.819 E47.84112
G0 F3600 X7.688 Y8.819
G1 F1500 X-8.819 Y-7.688 E49.00577
G0 F3600 X-8.819 Y-7.122
G1 F1500 X7.122 Y8.819 E50.1305
G0 F3600 X6.557 Y8.819
G1 F1500 X-8.819 Y-6.557 E51.21536
G0 F3600 X-8.819 Y-5.991
G1 F1500 X5.991 Y8.819 E52.26028
G0 F3600 X5.425 Y8.819
G1 F1500 X-8.819 Y-5.425 E53.26527
G0 F3600 X-8.819 Y-4.859
G1 F1500 X4.859 Y8.819 E54.23033
G0 F3600 X4.294 Y8.819
G1 F1500 X-8.819 Y-4.294 E55.15552
G0 F3600 X-8.819 Y-3.728
G1 F1500 X3.728 Y8.819 E56.04078
G0 F3600 X3.162 Y8.819
G1 F1500 X-8.819 Y-3.162 E56.88611
G0 F3600 X-8.819 Y-2.597
G1 F1500 X2.597 Y8.819 E57.69157
G0 F3600 X2.031 Y8.819
G1 F1500 X-8.819 Y-2.031 E58.45709
G0 F3600 X-8.819 Y-1.465
G1 F1500 X1.465 Y8.819 E59.18268
G0 F3600 X0.9 Y8.819
G1 F1500 X-8.819 Y-.9 E59.86841
G0 F3600 X-8.819 Y-.334
G1 F1500 X0.334 Y8.819 E60.51421
G0 F3600 X-.231 Y8.819
G1 F1500 X-8.819 Y0.231 E61.12014
G0 F3600 X-8.819 Y0.796
G1 F1500 X-.796 Y8.819 E61.6862
G0 F3600 X-1.362 Y8.819
G1 F1500 X-8.819 Y1.362 E62.21233
G0 F3600 X-8.819 Y1.928
G1 F1500 X-1.928 Y8.819 E62.69853
G0 F3600 X-2.493 Y8.819
G1 F1500 X-8.819 Y2.493 E63.14486
G0 F3600 X-8.819 Y3.059
G1 F1500 X-3.059 Y8.819 E63.55126
G0 F3600 X-3.625 Y8.819
G1 F1500 X-8.819 Y3.625 E63.91773
G0 F3600 X-8.819 Y4.191
G1 F1500 X-4.191 Y8.819 E64.24426
G0 F3600 X-4.756 Y8.819
G1 F1500 X-8.819 Y4.756 E64.53093
G0 F3600 X-8.819 Y5.322
G1 F1500 X-5.322 Y8.819 E64.77766
G0 F3600 X-5.888 Y8.819
G1 F1500 X-8.819 Y5.888 E64.98446
G0 F3600 X-8.819 Y6.453
G1 F1500 X-6.453 Y8.819 E65.15139
G0 F3600 X-7.019 Y8.819
G1 F1500 X-8.819 Y7.019 E65.27839
G0 F3600 X-8.819 Y7.585
G1 F1500 X-7.585 Y8.819 E65.36545
G0 F3600 X-8.15 Y8.819
G1 F1500 X-8.819 Y8.15 E65.41266
G0 F3600 X-8.819 Y8.716
G1 F1500 X-8.716 Y8.819 E65.41992
G0 F3600 X-8.716 Y8.8
;MESH:NONMESH
G0 F600 X-8.716 Y8.8 Z0.45
G0 F3600 X-9.13 Y-9.13
G0 X-9.4 Y-9.4
;TIME_ELAPSED:57.831366
;LAYER:1
M106 S255
;TYPE:WALL-INNER
;MESH:cable holder v1.stl
G1 F2760 X-9.4 Y9.4 E65.88889
G1 X9.4 Y9.4 E66.35786
G1 X9.4 Y0.00 E66.59234
G1 X9.4 Y-9.4 E66.82683
G1 X-9.4 Y-9.4 E67.2958
G0 F5400 X-9.8 Y-9.8
;TYPE:WALL-OUTER
G1 F1770 X-9.8 Y9.8 E67.78472
G1 X9.8 Y9.8 E68.27364
G1 X9.8 Y0.00 E68.5181
G1 X9.8 Y-9.8 E68.76257
G1 X-9.8 Y-9.8 E69.25149
G0 F5400 X-9.8 Y-9.6
G0 X-9.02 Y-9.02
;TYPE:SKIN
G1 F1500 X-9.02 Y9.02 E69.7015
G1 X9.02 Y9.02 E70.15151
G1 X9.02 Y0.00 E70.37652
G1 X9.02 Y-9.02 E70.60152
G1 X-9.02 Y-9.02 E71.05153
G0 F5400 X-8.819 Y-8.716
G1 F1500 X-8.716 Y-8.819 E71.05516
G0 F5400 X-8.15 Y-8.819
G1 F1500 X-8.819 Y-8.15 E71.07876
G0 F5400 X-8.819 Y-7.585
G1 F1500 X-7.585 Y-8.819 E71.1223
G0 F5400 X-7.019 Y-8.819
G1 F1500 X-8.819 Y-7.019 E71.1858
G0 F5400 X-8.819 Y-6.453
G1 F1500 X-6.453 Y-8.819 E71.26926
G0 F5400 X-5.888 Y-8.819
G1 F1500 X-8.819 Y-5.888 E71.37266
G0 F5400 X-8.819 Y-5.322
G1 F1500 X-5.322 Y-8.819 E71.49603
G0 F5400 X-4.756 Y-8.819
G1 F1500 X-8.819 Y-4.756 E71.63936
G0 F5400 X-8.819 Y-4.191
G1 F1500 X-4.191 Y-8.819 E71.80263
G0 F5400 X-3.625 Y-8.819
G1 F1500 X-8.819 Y-3.625 E71.98586
G0 F5400 X-8.819 Y-3.059
G1 F1500 X-3.059 Y-8.819 E72.18906
G0 F5400 X-2.493 Y-8.819
G1 F1500 X-8.819 Y-2.493 E72.41223
G0 F5400 X-8.819 Y-1.928
G1 F1500 X-1.928 Y-8.819 E72.65532
G0 F5400 X-1.362 Y-8.819
G1 F1500 X-8.819 Y-1.362 E72.91839
G0 F5400 X-8.819 Y-.796
G1 F1500 X-.796 Y-8.819 E73.20142
G0 F5400 X-.231 Y-8.819
G1 F1500 X-8.819 Y-.231 E73.50439
G0 F5400 X-8.819 Y0.334
G1 F1500 X0.334 Y-8.819 E73.82728
G0 F5400 X0.9 Y-8.819
G1 F1500 X-8.819 Y0.9 E74.17015
G0 F5400 X-8.819 Y1.465
G1 F1500 X1.465 Y-8.819 E74.53294
G0 F5400 X2.031 Y-8.819
G1 F1500 X-8.819 Y2.031 E74.91571
G0 F5400 X-8.819 Y2.597
G1 F1500 X2.597 Y-8.819 E75.31844
G0 F5400 X3.162 Y-8.819
G1 F1500 X-8.819 Y3.162 E75.7411
G0 F5400 X-8.819 Y3.728
G1 F1500 X3.728 Y-8.819 E76.18373
G0 F5400 X4.294 Y-8.819
G1 F1500 X-8.819 Y4.294 E76.64633
G0 F5400 X-8.819 Y4.859
G1 F1500 X4.859 Y-8.819 E77.12885
G0 F5400 X5.425 Y-8.819
G1 F1500 X-8.819 Y5.425 E77.63135
G0 F5400 X-8.819 Y5.991
G1 F1500 X5.991 Y-8.819 E78.15381
G0 F5400 X6.557 Y-8.819
G1 F1500 X-8.819 Y6.557 E78.69624
G0 F5400 X-8.819 Y7.122
G1 F1500 X7.122 Y-8.819 E79.2586
G0 F5400 X7.688 Y-8.819
G1 F1500 X-8.819 Y7.688 E79.84093
G0 F5400 X-8.819 Y8.254
G1 F1500 X8.254 Y-8.819 E80.44323
G0 F5400 X8.819 Y-8.819
G1 F1500 X-8.819 Y8.819 E81.06546
G0 F5400 X-8.254 Y8.819
G1 F1500 X8.819 Y-8.254 E81.66775
G0 F5400 X8.819 Y-7.688
G1 F1500 X-7.688 Y8.819 E82.25008
G0 F5400 X-7.122 Y8.819
G1 F1500 X8.819 Y-7.122 E82.81244
G0 F5400 X8.819 Y-6.557
G1 F1500 X-6.557 Y8.819 E83.35487
G0 F5400 X-5.991 Y8.819
G1 F1500 X8.819 Y-5.991 E83.87734
G0 F5400 X8.819 Y-5.425
G1 F1500 X-5.425 Y8.819 E84.37983
G0 F5400 X-4.859 Y8.819
G1 F1500 X8.819 Y-4.859 E84.86236
G0 F5400 X8.819 Y-4.294
G1 F1500 X-4.294 Y8.819 E85.32496
G0 F5400 X-3.728 Y8.819
G1 F1500 X8.819 Y-3.728 E85.76759
G0 F5400 X8.819 Y-3.162
G1 F1500 X-3.162 Y8.819 E86.19025
G0 F5400 X-2.597 Y8.819
G1 F1500 X8.819 Y-2.597 E86.59298
G0 F5400 X8.819 Y-2.031
G1 F1500 X-2.031 Y8.819 E86.97574
G0 F5400 X-1.465 Y8.819
G1 F1500 X8.819 Y-1.465 E87.33854
G0 F5400 X8.819 Y-.9
G1 F1500 X-.9 Y8.819 E87.6814
G0 F5400 X-.334 Y8.819
G1 F1500 X8.819 Y-.334 E88.0043
G0 F5400 X8.819 Y0.231
G1 F1500 X0.231 Y8.819 E88.30726
G0 F5400 X0.796 Y8.819
G1 F1500 X8.819 Y0.796 E88.5903
G0 F5400 X8.819 Y1.362
G1 F1500 X1.362 Y8.819 E88.85336
G0 F5400 X1.928 Y8.819
G1 F1500 X8.819 Y1.928 E89.09646
G0 F5400 X8.819 Y2.493
G1 F1500 X2.493 Y8.819 E89.31963
G0 F5400 X3.059 Y8.819
G1 F1500 X8.819 Y3.059 E89.52283
G0 F5400 X8.819 Y3.625
G1 F1500 X3.625 Y8.819 E89.70606
G0 F5400 X4.191 Y8.819
G1 F1500 X8.819 Y4.191 E89.86933
G0 F5400 X8.819 Y4.756
G1 F1500 X4.756 Y8.819 E90.01266
G0 F5400 X5.322 Y8.819
G1 F1500 X8.819 Y5.322 E90.13602
G0 F5400 X8.819 Y5.888
G1 F1500 X5.888 Y8.819 E90.23942
G0 F5400 X6.453 Y8.819
G1 F1500 X8.819 Y6.453 E90.32289
G0 F5400 X8.819 Y7.019
G1 F1500 X7.019 Y8.819 E90.38639
G0 F5400 X7.585 Y8.819
G1 F1500 X8.819 Y7.585 E90.42992
G0 F5400 X8.819 Y8.15
G1 F1500 X8.15 Y8.819 E90.45352
G0 F5400 X8.716 Y8.819
G1 F1500 X8.819 Y8.716 E90.45716
G0 F5400 X8.8 Y8.716
;MESH:NONMESH
G0 F600 X8.8 Y8.716 Z0.6
G0 F5400 X-9.13 Y-9.13
G0 X-9.4 Y-9.4
;TIME_ELAPSED:97.865813
;LAYER:2
;TYPE:WALL-INNER
;MESH:cable holder v1.stl
G1 F4020 X-9.4 Y9.4 E90.92613
G1 X9.4 Y9.4 E91.39509
G1 X9.4 Y0.00 E91.62958
G1 X9.4 Y-9.4 E91.86406
G1 X-9.4 Y-9.4 E92.33303
G0 F7200 X-9.8 Y-9.8
;TYPE:WALL-OUTER
G1 F2040 X-9.8 Y9.8 E92.82195
G1 X9.8 Y9.8 E93.31088
G1 X9.8 Y0.00 E93.55534
G1 X9.8 Y-9.8 E93.7998
G1 X-9.8 Y-9.8 E94.28873
G0 F7200 X-9.8 Y-9.6
G0 X-9.02 Y-9.02
;TYPE:SKIN
G1 F1500 X-9.02 Y9.02 E94.73873
G1 X9.02 Y9.02 E95.18874
G1 X9.02 Y0.00 E95.41375
G1 X9.02 Y-9.02 E95.63875
G1 X-9.02 Y-9.02 E96.08876
G0 F7200 X8.716 Y-8.819
G1 F1500 X8.819 Y-8.716 E96.0924
G0 F7200 X8.819 Y-8.15
G1 F1500 X8.15 Y-8.819 E96.116
G0 F7200 X7.585 Y-8.819
G1 F1500 X8.819 Y-7.585 E96.15953
G0 F7200 X8.819 Y-7.019
G1 F1500 X7.019 Y-8.819 E96.22303
G0 F7200 X6.453 Y-8.819
G1 F1500 X8.819 Y-6.453 E96.3065
G0 F7200 X8.819 Y-5.888
G1 F1500 X5.888 Y-8.819 E96.4099
G0 F7200 X5.322 Y-8.819
G1 F1500 X8.819 Y-5.322 E96.53326
G0 F7200 X8.819 Y-4.756
G1 F1500 X4.756 Y-8.819 E96.6766
G0 F7200 X4.191 Y-8.819
G1 F1500 X8.819 Y-4.191 E96.83986
G0 F7200 X8.819 Y-3.625
G1 F1500 X3.625 Y-8.819 E97.02309
G0 F7200 X3.059 Y-8.819
G1 F1500 X8.819 Y-3.059 E97.22629
G0 F7200 X8.819 Y-2.493
G1 F1500 X2.493 Y-8.819 E97.44946
G0 F7200 X1.928 Y-8.819
G1 F1500 X8.819 Y-1.928 E97.69256
G0 F7200 X8.819 Y-1.362
G1 F1500 X1.362 Y-8.819 E97.95562
G0 F7200 X0.796 Y-8.819
G1 F1500 X8.819 Y-.796 E98.23866
G0 F7200 X8.819 Y-.231
G1 F1500 X0.231 Y-8.819 E98.54162
G0 F7200 X-.334 Y-8.819
G1 F1500 X8.819 Y0.334 E98.86452
G0 F7200 X8.819 Y0.9
G1 F1500 X-.9 Y-8.819 E99.20738
G0 F7200 X-1.465 Y-8.819
G1 F1500 X8.819 Y1.465 E99.57018
G0 F7200 X8.819 Y2.031
G1 F1500 X-2.031 Y-8.819 E99.95294
G0 F7200 X-2.597 Y-8.819
G1 F1500 X8.819 Y2.597 E100.35567
G0 F7200 X8.819 Y3.162
G1 F1500 X-3.162 Y-8.819 E100.77833
G0 F7200 X-3.728 Y-8.819
G1 F1500 X8.819 Y3.728 E101.22096
G0 F7200 X8.819 Y4.294
G1 F1500 X-4.294 Y-8.819 E101.68356
G0 F7200 X-4.859 Y-8.819
G1 F1500 X8.819 Y4.859 E102.16609
G0 F7200 X8.819 Y5.425
G1 F1500 X-5.425 Y-8.819 E102.66858
G0 F7200 X-5.991 Y-8.819
G1 F1500 X8.819 Y5.991 E103.19105
G0 F7200 X8.819 Y6.557
G1 F1500 X-6.557 Y-8.819 E103.73348
G0 F7200 X-7.122 Y-8.819
G1 F1500 X8.819 Y7.122 E104.29584
G0 F7200 X8.819 Y7.688
G1 F1500 X-7.688 Y-8.819 E104.87817
G0 F7200 X-8.254 Y-8.819
G1 F1500 X8.819 Y8.254 E105.48046
G0 F7200 X8.819 Y8.819
G1 F1500 X-8.819 Y-8.819 E106.10269
G0 F7200 X-8.819 Y-8.254
G1 F1500 X8.254 Y8.819 E106.70499
G0 F7200 X7.688 Y8.819
G1 F1500 X-8.819 Y-7.688 E107.28732
G0 F7200 X-8.819 Y-7.122
G1 F1500 X7.122 Y8.819 E107.84968
