;FLAVOR:Marlin
;TIME:2326
;Filament used: 2.77115m
;Layer height: 0.2
;MINX:-47.77
;MINY:-27.433
;MINZ:0.3
;MAXX:47.769
;MAXY:27.434
;MAXZ:13.1
;Generated with Cura_SteamEngine 5.2.1
M140 S60
M105
M190 S60
M104 S200
M105
M109 S200
M82 ;absolute extrusion mode
G28 ;Home
G1 Z15.0 F6000 ;Move the platform down 15mm
;Prime the extruder
G92 E0
G1 F200 E3
G92 E0
M141 S28
G92 E0
G92 E0
G1 F1500 E-6.5
;LAYER_COUNT:65
;LAYER:0
M107
G0 F3600 X5.129 Y3.943 Z0.3
;TYPE:SKIRT
G1 F1500 E0
G1 F1800 X5.303 Y3.752 E0.01289
G1 X6.713 Y-3.692 E0.39088
G1 X5.016 Y-7.509 E0.59928
G1 X4.752 Y-7.713 E0.61592
G1 X4.179 Y-8.256 E0.65531
G1 X3.664 Y-8.855 E0.69472
G1 X3.213 Y-9.503 E0.73411
G1 X2.829 Y-10.194 E0.77355
G1 X2.517 Y-10.919 E0.81293
G1 X2.28 Y-11.672 E0.85231
G1 X2.121 Y-12.446 E0.89173
G1 X2.03 Y-13.328 E0.93597
G1 X2.03 Y-15.633 E1.05096
G1 X2.07 Y-16.422 E1.09038
G1 X2.189 Y-17.202 E1.12974
G1 X2.387 Y-17.967 E1.16917
G1 X2.661 Y-18.707 E1.20853
G1 X3.009 Y-19.416 E1.24794
G1 X3.427 Y-20.087 E1.28738
G1 X3.91 Y-20.711 E1.32675
G1 X4.453 Y-21.284 E1.36613
G1 X5.052 Y-21.799 E1.40554
G1 X5.7 Y-22.25 E1.44493
G1 X6.391 Y-22.634 E1.48437
G1 X7.116 Y-22.946 E1.52375
G1 X7.869 Y-23.183 E1.56313
G1 X8.643 Y-23.342 E1.60255
G1 X9.525 Y-23.433 E1.64679
G1 X12.184 Y-23.433 E1.77945
G1 X12.973 Y-23.393 E1.81886
G1 X13.753 Y-23.274 E1.85823
G1 X14.518 Y-23.076 E1.89765
G1 X15.258 Y-22.802 E1.93702
G1 X15.967 Y-22.454 E1.97642
G1 X16.638 Y-22.036 E2.01586
G1 X17.262 Y-21.553 E2.05523
G1 X17.835 Y-21.01 E2.09461
G1 X18.35 Y-20.411 E2.13402
G1 X18.77 Y-19.807 E2.17073
G1 X25.046 Y-25.215 E2.58405
G1 X25.669 Y-25.7 E2.62344
G1 X26.338 Y-26.119 E2.66282
G1 X27.047 Y-26.468 E2.70225
G1 X27.787 Y-26.743 E2.74163
G1 X28.551 Y-26.943 E2.78103
G1 X29.331 Y-27.064 E2.82041
G1 X30.12 Y-27.106 E2.85983
G1 X30.908 Y-27.068 E2.89919
G1 X31.966 Y-26.889 E2.95272
G1 X41.799 Y-24.517 E3.45737
G1 X42.556 Y-24.293 E3.49675
G1 X43.287 Y-23.993 E3.53617
G1 X43.984 Y-23.622 E3.57557
G1 X44.64 Y-23.182 E3.61497
G1 X45.247 Y-22.678 E3.65434
G1 X45.801 Y-22.115 E3.69374
G1 X46.295 Y-21.498 E3.73317
G1 X46.724 Y-20.835 E3.77257
G1 X47.084 Y-20.133 E3.81193
G1 X47.371 Y-19.397 E3.85134
G1 X47.582 Y-18.636 E3.89074
G1 X47.715 Y-17.857 E3.93017
G1 X47.769 Y-17.07 E3.96953
G1 X47.743 Y-16.28 E4.00896
G1 X47.674 Y-15.712 E4.03751
G1 X46.379 Y-7.548 E4.4499
G1 X46.216 Y-6.775 E4.48932
G1 X45.975 Y-6.023 E4.52871
G1 X45.66 Y-5.299 E4.5681
G1 X45.273 Y-4.611 E4.60749
G1 X44.819 Y-3.965 E4.64688
G1 X44.302 Y-3.368 E4.68628
G1 X43.727 Y-2.827 E4.72567
G1 X43.1 Y-2.347 E4.76506
G1 X42.428 Y-1.932 E4.80447
G1 X41.717 Y-1.588 E4.84387
G1 X40.975 Y-1.317 E4.88328
G1 X40.21 Y-1.122 E4.92267
G1 X39.318 Y-.991 E4.96765
G1 X38.358 Y4.938 E5.2673
G1 X40.592 Y7.027 E5.41989
G1 X41.141 Y7.595 E5.4593
G1 X41.629 Y8.216 E5.4987
G1 X42.052 Y8.882 E5.53807
G1 X42.406 Y9.589 E5.57751
G1 X42.686 Y10.327 E5.61689
G1 X42.891 Y11.09 E5.65631
G1 X43.017 Y11.869 E5.69568
G1 X43.064 Y12.657 E5.73506
G1 X43.03 Y13.446 E5.77446
G1 X42.968 Y13.946 E5.7996
G1 X41.872 Y20.856 E6.14865
G1 X41.709 Y21.629 E6.18806
G1 X41.468 Y22.381 E6.22746
G1 X41.153 Y23.105 E6.26685
G1 X40.766 Y23.793 E6.30623
G1 X40.312 Y24.439 E6.34562
G1 X39.795 Y25.036 E6.38503
G1 X39.22 Y25.577 E6.42441
G1 X38.593 Y26.057 E6.46381
G1 X37.921 Y26.472 E6.50321
G1 X37.21 Y26.816 E6.54262
G1 X36.468 Y27.087 E6.58203
G1 X35.703 Y27.281 E6.6214
G1 X34.922 Y27.397 E6.66079
G1 X34.133 Y27.434 E6.7002
G1 X33.344 Y27.39 E6.73963
G1 X32.338 Y27.216 E6.79056
G1 X11.977 Y22.303 E7.83553
G1 X-33.557 Y22.303 E10.10723
G1 X-34.346 Y22.263 E10.14664
G1 X-35.126 Y22.144 E10.18601
G1 X-35.891 Y21.946 E10.22543
G1 X-36.631 Y21.672 E10.2648
G1 X-37.34 Y21.324 E10.3042
G1 X-38.011 Y20.906 E10.34364
G1 X-38.635 Y20.423 E10.38301
G1 X-39.208 Y19.88 E10.4224
G1 X-39.5 Y19.563 E10.4439
G1 X-40.075 Y19.022 E10.48329
G1 X-40.592 Y18.425 E10.52269
G1 X-41.046 Y17.779 E10.56208
G1 X-41.416 Y17.125 E10.59957
G1 X-42.938 Y14.099 E10.76855
G1 X-43.257 Y13.376 E10.80798
G1 X-43.501 Y12.625 E10.84738
G1 X-43.668 Y11.853 E10.88678
G1 X-43.752 Y11.118 E10.92369
G1 X-44.213 Y4.276 E11.26581
G1 X-44.29 Y3.323 E11.31351
G1 X-44.4 Y2.302 E11.36475
G1 X-44.551 Y1.108 E11.42479
G1 X-44.731 Y-.131 E11.48725
G1 X-44.942 Y-1.435 E11.55315
G1 X-45.167 Y-2.698 E11.61716
G1 X-45.436 Y-4.085 E11.68765
G1 X-45.718 Y-5.426 E11.75601
G1 X-45.974 Y-6.556 E11.81382
G1 X-46.262 Y-7.718 E11.87354
G1 X-46.537 Y-8.747 E11.92668
G1 X-46.799 Y-9.632 E11.97273
G1 X-47.332 Y-11.372 E12.06352
G1 X-47.525 Y-12.138 E12.10293
G1 X-47.636 Y-12.892 E12.14095
G1 X-47.732 Y-13.866 E12.18978
G1 X-47.77 Y-14.655 E12.22919
G1 X-47.733 Y-15.392 E12.266
G1 X-47.637 Y-16.371 E12.31508
G1 X-47.52 Y-17.152 E12.35448
G1 X-47.337 Y-17.877 E12.39179
G1 X-47.053 Y-18.812 E12.44054
G1 X-46.786 Y-19.555 E12.47993
G1 X-46.469 Y-20.222 E12.51677
G1 X-46.005 Y-21.09 E12.56587
G1 X-45.598 Y-21.767 E12.60528
G1 X-45.158 Y-22.358 E12.64204
G1 X-44.539 Y-23.113 E12.69075
G1 X-44.008 Y-23.698 E12.73017
G1 X-43.454 Y-24.198 E12.7674
G1 X-42.697 Y-24.819 E12.81625
G1 X-42.062 Y-25.289 E12.85566
G1 X-41.427 Y-25.668 E12.89256
G1 X-40.559 Y-26.132 E12.94166
G1 X-39.845 Y-26.468 E12.98103
G1 X-39.147 Y-26.717 E13.018
G1 X-38.211 Y-27.001 E13.0668
G1 X-37.444 Y-27.192 E13.10623
G1 X-36.71 Y-27.3 E13.14325
G1 X-35.734 Y-27.396 E13.19218
G1 X-34.945 Y-27.433 E13.23158
G1 X-34.206 Y-27.396 E13.2685
G1 X-33.23 Y-27.3 E13.31743
G1 X-32.45 Y-27.183 E13.35677
G1 X-31.729 Y-27.001 E13.39387
G1 X-30.793 Y-26.717 E13.44267
G1 X-30.05 Y-26.45 E13.48206
G1 X-29.381 Y-26.132 E13.51902
G1 X-28.513 Y-25.668 E13.56812
G1 X-27.836 Y-25.261 E13.60753
G1 X-27.245 Y-24.821 E13.64429
G1 X-26.49 Y-24.202 E13.693
G1 X-25.905 Y-23.671 E13.73241
G1 X-25.405 Y-23.117 E13.76965
G1 X-24.784 Y-22.36 E13.8185
G1 X-24.314 Y-21.725 E13.85791
G1 X-23.935 Y-21.09 E13.8948
G1 X-23.471 Y-20.222 E13.94391
G1 X-23.135 Y-19.508 E13.98328
G1 X-22.887 Y-18.812 E14.02014
G1 X-22.603 Y-17.877 E14.06889
G1 X-22.412 Y-17.111 E14.10828
G1 X-22.303 Y-16.374 E14.14544
G1 X-22.207 Y-15.398 E14.19437
G1 X-22.17 Y-14.634 E14.23253
G1 X-22.17 Y-12.633 E14.33236
G1 X-22.21 Y-11.844 E14.37178
G1 X-22.329 Y-11.064 E14.41114
G1 X-22.527 Y-10.299 E14.45057
G1 X-22.801 Y-9.559 E14.48993
G1 X-23.149 Y-8.85 E14.52934
G1 X-23.567 Y-8.179 E14.56878
G1 X-24.05 Y-7.555 E14.60815
G1 X-24.593 Y-6.982 E14.64753
G1 X-25.21 Y-6.454 E14.68804
G1 X-27.045 Y-2.419 E14.90919
G1 X-26.577 Y3.943 E15.22745
G1 X5.129 Y3.943 E16.80927
G0 F3600 X5.306 Y4.343
G1 F1800 X5.675 Y3.938 E16.8366
G1 X7.129 Y-3.741 E17.22652
G1 X5.343 Y-7.758 E17.44584
G1 X4.907 Y-8.108 E17.47374
G1 X4.36 Y-8.649 E17.51212
G1 X3.872 Y-9.244 E17.55051
G1 X3.449 Y-9.886 E17.58887
G1 X3.094 Y-10.569 E17.62727
G1 X2.813 Y-11.284 E17.6656
G1 X2.607 Y-12.026 E17.70402
G1 X2.479 Y-12.784 E17.74237
G1 X2.43 Y-13.633 E17.7848
G1 X2.43 Y-15.633 E17.88458
G1 X2.47 Y-16.401 E17.92294
G1 X2.589 Y-17.161 E17.96132
G1 X2.787 Y-17.904 E17.99968
G1 X3.061 Y-18.623 E18.03807
G1 X3.408 Y-19.309 E18.07643
G1 X3.824 Y-19.956 E18.1148
G1 X4.305 Y-20.556 E18.15317
G1 X4.846 Y-21.103 E18.19155
G1 X5.441 Y-21.591 E18.22994
G1 X6.083 Y-22.014 E18.2683
G1 X6.766 Y-22.369 E18.3067
G1 X7.481 Y-22.65 E18.34503
G1 X8.223 Y-22.856 E18.38345
G1 X8.981 Y-22.984 E18.4218
G1 X9.83 Y-23.033 E18.46423
G1 X12.184 Y-23.033 E18.58167
G1 X12.952 Y-22.993 E18.62004
G1 X13.712 Y-22.874 E18.65841
G1 X14.455 Y-22.676 E18.69678
G1 X15.174 Y-22.402 E18.73516
G1 X15.86 Y-22.055 E18.77352
G1 X16.507 Y-21.639 E18.81189
G1 X17.107 Y-21.158 E18.85026
G1 X17.654 Y-20.617 E18.88864
G1 X18.142 Y-20.022 E18.92703
G1 X18.681 Y-19.204 E18.97591
G1 X25.307 Y-24.912 E19.41222
G1 X25.915 Y-25.383 E19.4506
G1 X26.568 Y-25.789 E19.48896
G1 X27.26 Y-26.124 E19.52731
G1 X27.984 Y-26.386 E19.56573
G1 X28.73 Y-26.571 E19.60407
G1 X29.492 Y-26.678 E19.64246
G1 X30.261 Y-26.705 E19.68085
G1 X31.028 Y-26.652 E19.71921
G1 X31.872 Y-26.5 E19.76199
G1 X41.705 Y-24.128 E20.26663
G1 X42.443 Y-23.909 E20.30504
G1 X43.153 Y-23.614 E20.3434
G1 X43.829 Y-23.248 E20.38175
G1 X44.464 Y-22.813 E20.42015
G1 X45.05 Y-22.315 E20.45852
G1 X45.581 Y-21.759 E20.49687
G1 X46.052 Y-21.15 E20.53528
G1 X46.456 Y-20.496 E20.57364
G1 X46.791 Y-19.803 E20.61204
G1 X47.052 Y-19.08 E20.65039
G1 X47.237 Y-18.333 E20.68878
G1 X47.342 Y-17.571 E20.72716
G1 X47.369 Y-16.803 E20.7655
G1 X47.279 Y-15.775 E20.81698
G1 X45.984 Y-7.611 E21.22937
G1 X45.824 Y-6.858 E21.26778
G1 X45.587 Y-6.127 E21.30612
G1 X45.275 Y-5.423 E21.34454
G1 X44.892 Y-4.756 E21.38291
G1 X44.442 Y-4.133 E21.42125
G1 X43.929 Y-3.559 E21.45966
G1 X43.36 Y-3.042 E21.49801
G1 X42.74 Y-2.587 E21.53638
G1 X42.076 Y-2.198 E21.57477
G1 X41.376 Y-1.88 E21.61313
G1 X40.646 Y-1.637 E21.65152
G1 X39.895 Y-1.471 E21.68989
G1 X38.973 Y-1.366 E21.73619
G1 X37.929 Y5.084 E22.06216
G1 X40.319 Y7.319 E22.22542
G1 X40.852 Y7.873 E22.26377
G1 X41.326 Y8.48 E22.30219
G1 X41.734 Y9.132 E22.34056
G1 X42.072 Y9.823 E22.37894
G1 X42.336 Y10.545 E22.4173
G1 X42.524 Y11.291 E22.45568
G1 X42.633 Y12.052 E22.49403
G1 X42.663 Y12.821 E22.53243
G1 X42.573 Y13.883 E22.5856
G1 X41.477 Y20.793 E22.93465
G1 X41.317 Y21.546 E22.97306
G1 X41.08 Y22.277 E23.01139
G1 X40.768 Y22.98 E23.04977
G1 X40.385 Y23.647 E23.08814
G1 X39.935 Y24.271 E23.12652
G1 X39.422 Y24.845 E23.16493
G1 X38.853 Y25.362 E23.20328
G1 X38.233 Y25.817 E23.24165
G1 X37.57 Y26.206 E23.28
G1 X36.869 Y26.523 E23.31838
G1 X36.139 Y26.767 E23.35679
G1 X35.388 Y26.933 E23.39516
G1 X34.624 Y27.02 E23.43352
G1 X33.855 Y27.027 E23.47189
G1 X33.089 Y26.955 E23.51027
G1 X32.432 Y26.828 E23.54366
G1 X12.022 Y21.903 E24.59114
G1 X-33.557 Y21.903 E26.86509
G1 X-34.325 Y21.863 E26.90345
G1 X-35.085 Y21.744 E26.94183
G1 X-35.828 Y21.546 E26.98019
G1 X-36.547 Y21.272 E27.01858
G1 X-37.233 Y20.925 E27.05694
G1 X-37.88 Y20.509 E27.09531
G1 X-38.48 Y20.028 E27.13368
G1 X-39.027 Y19.487 E27.17206
G1 X-39.346 Y19.167 E27.1946
G1 X-39.896 Y18.628 E27.23302
G1 X-40.386 Y18.036 E27.27136
G1 X-40.812 Y17.395 E27.30976
G1 X-41.059 Y16.945 E27.33537
G1 X-42.581 Y13.919 E27.50436
G1 X-42.89 Y13.215 E27.54271
G1 X-43.125 Y12.482 E27.58112
G1 X-43.282 Y11.73 E27.61944
G1 X-43.353 Y11.091 E27.65152
G1 X-43.81 Y4.302 E27.99099
G1 X-43.893 Y3.284 E28.04195
G1 X-44.008 Y2.207 E28.09598
G1 X-44.153 Y1.064 E28.15347
G1 X-44.336 Y-.196 E28.21699
G1 X-44.538 Y-1.441 E28.27991
G1 X-44.789 Y-2.853 E28.35146
G1 X-45.053 Y-4.214 E28.42063
G1 X-45.314 Y-5.452 E28.48375
G1 X-45.584 Y-6.643 E28.54468
G1 X-45.875 Y-7.821 E28.60521
G1 X-46.151 Y-8.849 E28.65832
G1 X-46.438 Y-9.821 E28.70888
G1 X-46.949 Y-11.49 E28.79596
G1 X-47.136 Y-12.236 E28.83433
G1 X-47.238 Y-12.931 E28.86938
G1 X-47.334 Y-13.905 E28.91821
G1 X-47.37 Y-14.673 E28.95656
G1 X-47.335 Y-15.353 E28.99053
G1 X-47.239 Y-16.332 E29.03961
G1 X-47.124 Y-17.093 E29.07801
G1 X-46.955 Y-17.761 E29.11239
G1 X-46.671 Y-18.696 E29.16114
G1 X-46.409 Y-19.419 E29.1995
G1 X-46.116 Y-20.034 E29.23349
G1 X-45.652 Y-20.902 E29.28259
G1 X-45.255 Y-21.56 E29.32093
G1 X-44.849 Y-22.105 E29.35484
G1 X-44.23 Y-22.86 E29.40355
G1 X-43.712 Y-23.428 E29.4419
G1 X-43.2 Y-23.889 E29.47627
G1 X-42.443 Y-24.51 E29.52512
G1 X-41.824 Y-24.966 E29.56348
G1 X-41.239 Y-25.315 E29.59746
G1 X-40.371 Y-25.779 E29.64657
G1 X-39.674 Y-26.106 E29.68498
G1 X-39.031 Y-26.334 E29.71901
G1 X-38.095 Y-26.618 E29.76781
G1 X-37.348 Y-26.803 E29.80621
G1 X-36.67 Y-26.901 E29.84038
G1 X-35.694 Y-26.997 E29.88931
G1 X-34.926 Y-27.033 E29.92767
G1 X-34.246 Y-26.997 E29.96164
G1 X-33.27 Y-26.901 E30.01057
G1 X-32.509 Y-26.786 E30.04897
G1 X-31.845 Y-26.618 E30.08314
G1 X-30.909 Y-26.334 E30.13194
G1 X-30.186 Y-26.073 E30.17029
G1 X-29.569 Y-25.779 E30.20438
G1 X-28.701 Y-25.315 E30.25349
G1 X-28.043 Y-24.918 E30.29183
G1 X-27.498 Y-24.512 E30.32573
G1 X-26.743 Y-23.893 E30.37444
G1 X-26.175 Y-23.375 E30.41279
G1 X-25.714 Y-22.863 E30.44717
G1 X-25.093 Y-22.106 E30.49602
G1 X-24.637 Y-21.487 E30.53437
G1 X-24.288 Y-20.902 E30.56836
G1 X-23.824 Y-20.034 E30.61746
G1 X-23.497 Y-19.337 E30.65587
G1 X-23.269 Y-18.696 E30.68981
G1 X-22.985 Y-17.761 E30.73857
G1 X-22.8 Y-17.014 E30.77696
G1 X-22.702 Y-16.334 E30.81124
G1 X-22.606 Y-15.358 E30.86016
G1 X-22.57 Y-14.634 E30.89633
G1 X-22.57 Y-12.633 E30.99616
G1 X-22.61 Y-11.865 E31.03453
G1 X-22.729 Y-11.105 E31.0729
G1 X-22.927 Y-10.362 E31.11127
G1 X-23.201 Y-9.643 E31.14965
G1 X-23.548 Y-8.957 E31.18801
G1 X-23.964 Y-8.31 E31.22638
G1 X-24.445 Y-7.71 E31.26475
G1 X-24.986 Y-7.163 E31.30313
G1 X-25.531 Y-6.716 E31.3383
G1 X-27.451 Y-2.491 E31.56983
G1 X-26.949 Y4.343 E31.9117
G1 X5.306 Y4.343 E33.52091
G0 F3600 X5.483 Y4.743
G1 F1800 X6.047 Y4.123 E33.56272
G1 X7.545 Y-3.789 E33.96446
G1 X5.671 Y-8.005 E34.19464
G1 X5.067 Y-8.504 E34.23373
G1 X4.546 Y-9.041 E34.27106
G1 X4.087 Y-9.631 E34.30835
G1 X3.692 Y-10.267 E34.34571
G1 X3.368 Y-10.941 E34.38301
G1 X3.118 Y-11.646 E34.42033
G1 X2.944 Y-12.374 E34.45768
G1 X2.849 Y-13.116 E34.495
G1 X2.83 Y-13.633 E34.52081
G1 X2.83 Y-15.633 E34.62059
G1 X2.87 Y-16.38 E34.65791
G1 X2.989 Y-17.118 E34.6952
G1 X3.187 Y-17.84 E34.73255
G1 X3.46 Y-18.536 E34.76985
G1 X3.807 Y-19.199 E34.80719
G1 X4.222 Y-19.822 E34.84453
G1 X4.701 Y-20.396 E34.88183
G1 X5.238 Y-20.917 E34.91916
G1 X5.828 Y-21.376 E34.95645
G1 X6.464 Y-21.771 E34.99381
G1 X7.138 Y-22.095 E35.03112
G1 X7.843 Y-22.345 E35.06843
G1 X8.571 Y-22.519 E35.10578
G1 X9.313 Y-22.614 E35.1431
G1 X9.83 Y-22.633 E35.16891
G1 X12.184 Y-22.633 E35.28635
G1 X12.931 Y-22.593 E35.32367
G1 X13.669 Y-22.474 E35.36097
G1 X14.391 Y-22.276 E35.39832
G1 X15.087 Y-22.003 E35.43562
G1 X15.75 Y-21.656 E35.47295
G1 X16.373 Y-21.241 E35.5103
G1 X16.947 Y-20.762 E35.54759
G1 X17.468 Y-20.225 E35.58492
G1 X17.927 Y-19.635 E35.62222
G1 X18.322 Y-18.999 E35.65957
G1 X18.54 Y-18.554 E35.68429
G1 X25.568 Y-24.609 E36.1471
G1 X26.16 Y-25.066 E36.18441
G1 X26.797 Y-25.458 E36.22173
G1 X27.473 Y-25.779 E36.25906
G1 X28.179 Y-26.026 E36.29638
G1 X28.907 Y-26.197 E36.33369
G1 X29.649 Y-26.289 E36.37099
G1 X30.397 Y-26.301 E36.40831
G1 X31.142 Y-26.233 E36.44564
G1 X31.779 Y-26.111 E36.47799
G1 X41.612 Y-23.739 E36.98264
G1 X42.328 Y-23.525 E37.01992
G1 X43.018 Y-23.235 E37.05726
G1 X43.673 Y-22.874 E37.09457
G1 X44.286 Y-22.445 E37.1319
G1 X44.849 Y-21.953 E37.1692
G1 X45.357 Y-21.404 E37.20652
G1 X45.803 Y-20.803 E37.24386
G1 X46.183 Y-20.159 E37.28116
G1 X46.492 Y-19.477 E37.31852
G1 X46.726 Y-18.767 E37.35581
G1 X46.883 Y-18.035 E37.39316
G1 X46.961 Y-17.291 E37.43049
G1 X46.959 Y-16.543 E37.4678
G1 X46.884 Y-15.837 E37.50322
G1 X45.589 Y-7.673 E37.91562
G1 X45.432 Y-6.942 E37.95292
G1 X45.198 Y-6.231 E37.99027
G1 X44.89 Y-5.55 E38.02755
G1 X44.511 Y-4.905 E38.06488
G1 X44.065 Y-4.304 E38.10222
G1 X43.558 Y-3.754 E38.13953
G1 X42.995 Y-3.262 E38.17684
G1 X42.382 Y-2.832 E38.21419
G1 X41.728 Y-2.471 E38.25146
G1 X41.038 Y-2.181 E38.2888
G1 X40.321 Y-1.966 E38.32615
G1 X39.586 Y-1.83 E38.36344
G1 X38.631 Y-1.756 E38.41123
G1 X37.5 Y5.231 E38.76435
G1 X40.046 Y7.612 E38.93826
G1 X40.564 Y8.151 E38.97556
G1 X41.022 Y8.743 E39.0129
G1 X41.414 Y9.38 E39.05021
G1 X41.735 Y10.055 E39.0875
G1 X41.983 Y10.761 E39.12483
G1 X42.154 Y11.489 E39.16214
G1 X42.247 Y12.232 E39.1995
G1 X42.259 Y12.98 E39.23682
G1 X42.178 Y13.821 E39.27898
G1 X41.082 Y20.731 E39.62803
G1 X40.925 Y21.462 E39.66533
G1 X40.691 Y22.173 E39.70267
G1 X40.383 Y22.854 E39.73996
G1 X40.004 Y23.499 E39.77728
G1 X39.558 Y24.1 E39.81462
G1 X39.051 Y24.65 E39.85194
G1 X38.488 Y25.142 E39.88924
G1 X37.875 Y25.572 E39.9266
G1 X37.221 Y25.933 E39.96387
G1 X36.531 Y26.223 E40.00121
G1 X35.814 Y26.438 E40.03855
G1 X35.079 Y26.574 E40.07585
G1 X34.333 Y26.632 E40.11318
G1 X33.585 Y26.61 E40.15051
G1 X32.526 Y26.439 E40.20403
G1 X12.07 Y21.503 E41.25387
G1 X-33.557 Y21.503 E43.53021
G1 X-34.304 Y21.463 E43.56754
G1 X-35.042 Y21.344 E43.60483
G1 X-35.764 Y21.146 E43.64218
G1 X-36.46 Y20.873 E43.67948
G1 X-37.123 Y20.526 E43.71681
G1 X-37.746 Y20.111 E43.75416
G1 X-38.32 Y19.632 E43.79146
G1 X-38.841 Y19.095 E43.82879
G1 X-39.188 Y18.771 E43.85247
G1 X-39.711 Y18.235 E43.88983
